P3
240 135
255
220 235 255
220 235 255
220 235 255
220 235 255
220 235 255
220 235 255
220 235 255
220 235 255
220 235 255
220 235 255
220 235 255
220 235 255
220 235 255
220 235 255
220 235 255
220 235 255
220 235 255
220 235 255
220 235 255
220 235 255
220 235 255
220 235 255
220 235 255
220 235 255
220 235 255
220 235 255
220 235 255
220 235 255
220 235 255
220 235 255
220 235 255
220 235 255
220 235 255
220 235 255
220 235 255
220 235 255
220 235 255
220 235 255
220 235 255
220 235 255
220 235 255
220 235 255
220 235 255
220 235 255
220 235 255
220 235 255
220 235 255
220 235 255
220 235 255
220 235 255
220 235 255
220 235 255
220 235 255
220 235 255
220 235 255
220 235 255
220 235 255
220 235 255
220 235 255
220 235 255
220 235 255
220 235 255
220 235 255
220 235 255
220 235 255
220 235 255
220 235 255
220 235 255
220 235 255
220 235 255
220 235 255
220 235 255
220 235 255
220 235 255
220 235 255
220 235 255
220 235 255
220 235 255
220 235 255
220 235 255
220 235 255
220 235 255
220 235 255
220 235 255
220 235 255
220 235 255
220 235 255
220 235 255
220 235 255
220 235 255
220 235 255
220 235 255
220 235 255
220 235 255
220 235 255
220 235 255
220 235 255
220 235 255
220 235 255
220 235 255
220 235 255
220 235 255
220 235 255
220 235 255
220 235 255
220 235 255
220 235 255
220 235 255
220 235 255
220 235 255
220 235 255
220 235 255
220 235 255
220 235 255
220 235 255
220 235 255
220 235 255
220 235 255
220 235 255
220 235 255
220 235 255
220 235 255
220 235 255
220 235 255
220 235 255
220 235 255
220 235 255
220 235 255
220 235 255
220 235 255
220 235 255
220 235 255
220 235 255
220 235 255
220 235 255
220 235 255
220 235 255
220 235 255
220 235 255
220 235 255
220 235 255
220 235 255
220 235 255
220 235 255
220 235 255
220 235 255
220 235 255
220 235 255
220 235 255
220 235 255
220 235 255
220 235 255
220 235 255
220 235 255
220 235 255
220 235 255
220 235 255
220 235 255
220 235 255
220 235 255
220 235 255
220 235 255
220 235 255
220 235 255
220 235 255
220 235 255
220 235 255
220 235 255
220 235 255
220 235 255
220 235 255
220 235 255
220 235 255
220 235 255
220 235 255
220 235 255
220 235 255
220 235 255
220 235 255
220 235 255
220 235 255
220 235 255
220 235 255
220 235 255
220 235 255
220 235 255
220 235 255
220 235 255
220 235 255
220 235 255
220 235 255
220 235 255
220 235 255
220 235 255
220 235 255
220 235 255
220 235 255
220 235 255
220 235 255
220 235 255
220 235 255
220 235 255
220 235 255
220 235 255
220 235 255
220 235 255
220 235 255
220 235 255
220 235 255
220 235 255
220 235 255
220 235 255
220 235 255
220 235 255
220 235 255
220 235 255
220 235 255
220 235 255
220 235 255
220 235 255
220 235 255
220 235 255
220 235 255
220 235 255
220 235 255
220 235 255
220 235 255
220 235 255
220 235 255
220 235 255
220 235 255
220 235 255
220 235 255
220 235 255
220 235 255
220 235 255
220 235 255
220 235 255
220 235 255
220 235 255
220 235 255
220 235 255
220 235 255
220 235 255
220 235 255
220 235 255
220 235 255
220 235 255
220 235 255
220 235 255
220 235 255
220 235 255
220 235 255
220 235 255
220 235 255
220 235 255
220 235 255
220 235 255
220 235 255
220 235 255
220 235 255
220 235 255
220 235 255
220 235 255
220 235 255
220 235 255
220 235 255
220 235 255
220 235 255
220 235 255
220 235 255
220 235 255
220 235 255
220 235 255
220 235 255
220 235 255
220 235 255
220 235 255
220 235 255
220 235 255
220 235 255
220 235 255
220 235 255
220 235 255
220 235 255
220 235 255
220 235 255
220 235 255
220 235 255
220 235 255
220 235 255
220 235 255
220 235 255
220 235 255
220 235 255
220 235 255
220 235 255
220 235 255
220 235 255
220 235 255
220 235 255
220 235 255
220 235 255
220 235 255
220 235 255
220 235 255
220 235 255
220 235 255
220 235 255
220 235 255
220 235 255
220 235 255
220 235 255
220 235 255
220 235 255
220 235 255
220 235 255
220 235 255
220 235 255
220 235 255
220 235 255
220 235 255
220 235 255
220 235 255
220 235 255
220 235 255
220 235 255
220 235 255
220 235 255
220 235 255
220 235 255
220 235 255
220 235 255
220 235 255
220 235 255
220 235 255
220 235 255
220 235 255
220 235 255
220 235 255
220 235 255
220 235 255
220 235 255
220 235 255
220 235 255
220 235 255
220 235 255
220 235 255
220 235 255
220 235 255
220 235 255
220 235 255
220 235 255
220 235 255
220 235 255
220 235 255
220 235 255
220 235 255
220 235 255
220 235 255
220 235 255
220 235 255
220 235 255
220 235 255
220 235 255
220 235 255
220 235 255
220 235 255
220 235 255
220 235 255
220 235 255
220 235 255
220 235 255
220 235 255
220 235 255
220 235 255
220 235 255
220 235 255
220 235 255
220 235 255
220 235 255
220 235 255
220 235 255
220 235 255
220 235 255
220 235 255
220 235 255
220 235 255
220 235 255
220 235 255
220 235 255
220 235 255
220 235 255
220 235 255
220 235 255
220 235 255
220 235 255
220 235 255
220 235 255
220 235 255
220 235 255
220 235 255
220 235 255
220 235 255
220 235 255
220 235 255
220 235 255
220 235 255
220 235 255
220 235 255
220 235 255
220 235 255
220 235 255
220 235 255
220 235 255
220 235 255
220 235 255
220 235 255
220 235 255
220 235 255
220 235 255
220 235 255
220 235 255
220 235 255
220 235 255
220 235 255
220 235 255
220 235 255
220 235 255
220 235 255
220 235 255
220 235 255
220 235 255
220 235 255
220 235 255
220 235 255
220 235 255
220 235 255
220 235 255
220 235 255
220 235 255
220 235 255
220 235 255
220 235 255
220 235 255
220 235 255
220 235 255
220 235 255
220 235 255
220 235 255
220 235 255
220 235 255
220 235 255
220 235 255
220 235 255
220 235 255
220 235 255
220 235 255
220 235 255
220 235 255
220 235 255
220 235 255
220 235 255
220 235 255
220 235 255
220 235 255
220 235 255
220 235 255
220 235 255
220 235 255
220 235 255
220 235 255
220 235 255
220 235 255
220 235 255
220 235 255
220 235 255
220 235 255
220 235 255
220 235 255
221 235 255
221 235 255
221 235 255
221 235 255
221 235 255
221 235 255
221 235 255
221 235 255
221 235 255
221 235 255
221 235 255
221 235 255
221 235 255
221 235 255
221 235 255
221 235 255
221 235 255
221 235 255
221 235 255
221 235 255
221 235 255
221 235 255
221 235 255
221 235 255
220 235 255
221 235 255
221 235 255
221 235 255
221 235 255
220 235 255
221 235 255
221 235 255
221 235 255
221 235 255
221 235 255
220 235 255
221 235 255
220 235 255
221 235 255
220 235 255
221 235 255
220 235 255
221 235 255
220 235 255
220 235 255
220 235 255
220 235 255
220 235 255
220 235 255
220 235 255
221 235 255
221 235 255
220 235 255
220 235 255
220 235 255
220 235 255
220 235 255
220 235 255
220 235 255
220 235 255
220 235 255
220 235 255
220 235 255
220 235 255
220 235 255
220 235 255
220 235 255
220 235 255
220 235 255
220 235 255
220 235 255
220 235 255
220 235 255
220 235 255
220 235 255
220 235 255
220 235 255
220 235 255
220 235 255
220 235 255
220 235 255
220 235 255
220 235 255
220 235 255
220 235 255
220 235 255
220 235 255
220 235 255
220 235 255
220 235 255
220 235 255
220 235 255
220 235 255
220 235 255
220 235 255
220 235 255
220 235 255
220 235 255
220 235 255
220 235 255
220 235 255
220 235 255
220 235 255
220 235 255
220 235 255
220 235 255
220 235 255
220 235 255
220 235 255
220 235 255
220 235 255
220 235 255
220 235 255
220 235 255
220 235 255
220 235 255
220 235 255
220 235 255
220 235 255
220 235 255
220 235 255
220 235 255
220 235 255
220 235 255
220 235 255
220 235 255
220 235 255
220 235 255
220 235 255
220 235 255
220 235 255
220 235 255
220 235 255
220 235 255
220 235 255
220 235 255
220 235 255
220 235 255
220 235 255
220 235 255
220 235 255
220 235 255
220 235 255
220 235 255
220 235 255
220 235 255
220 235 255
220 235 255
220 235 255
220 235 255
220 235 255
220 235 255
220 235 255
220 235 255
220 235 255
220 235 255
220 235 255
220 235 255
220 235 255
220 235 255
220 235 255
220 235 255
220 235 255
220 235 255
220 235 255
220 235 255
220 235 255
220 235 255
220 235 255
220 235 255
220 235 255
220 235 255
220 235 255
220 235 255
220 235 255
220 235 255
220 235 255
220 235 255
221 235 255
220 235 255
221 235 255
220 235 255
220 235 255
220 235 255
220 235 255
220 235 255
220 235 255
220 235 255
220 235 255
221 235 255
220 235 255
220 235 255
220 235 255
220 235 255
220 235 255
220 235 255
221 235 255
220 235 255
220 235 255
220 235 255
221 235 255
220 235 255
220 235 255
221 235 255
221 235 255
221 235 255
220 235 255
221 235 255
221 235 255
220 235 255
220 235 255
221 235 255
221 235 255
221 235 255
221 235 255
221 235 255
221 235 255
221 235 255
221 235 255
221 235 255
221 235 255
221 235 255
221 235 255
221 235 255
221 235 255
221 235 255
221 235 255
221 235 255
221 235 255
221 235 255
221 235 255
221 235 255
221 235 255
221 235 255
221 235 255
221 235 255
221 235 255
221 235 255
221 235 255
221 235 255
221 235 255
221 235 255
221 235 255
221 235 255
221 235 255
221 235 255
221 235 255
221 235 255
221 235 255
221 235 255
221 235 255
221 235 255
221 235 255
221 235 255
221 235 255
221 235 255
221 235 255
221 235 255
221 235 255
221 235 255
221 235 255
221 235 255
221 235 255
221 235 255
221 235 255
221 235 255
221 235 255
221 235 255
221 235 255
221 235 255
221 235 255
221 235 255
221 235 255
221 235 255
221 235 255
221 235 255
221 235 255
221 235 255
221 235 255
221 235 255
221 235 255
221 235 255
221 235 255
221 235 255
221 235 255
221 235 255
221 235 255
221 235 255
221 235 255
221 235 255
221 235 255
221 235 255
221 235 255
221 235 255
221 235 255
221 235 255
221 235 255
221 235 255
221 235 255
221 235 255
221 235 255
221 235 255
221 235 255
221 235 255
221 235 255
221 235 255
221 235 255
221 235 255
221 235 255
221 235 255
221 235 255
221 235 255
221 235 255
221 235 255
221 235 255
221 235 255
221 235 255
221 235 255
221 235 255
221 235 255
221 235 255
221 235 255
221 235 255
221 235 255
221 235 255
221 235 255
221 235 255
221 235 255
221 235 255
221 235 255
221 235 255
221 235 255
221 235 255
221 235 255
221 235 255
221 235 255
221 235 255
221 235 255
221 235 255
221 235 255
221 235 255
221 235 255
221 235 255
221 235 255
221 235 255
221 235 255
221 235 255
221 235 255
221 235 255
221 235 255
221 235 255
221 235 255
221 235 255
221 235 255
221 235 255
221 235 255
221 235 255
221 235 255
221 235 255
221 235 255
221 235 255
221 235 255
221 235 255
221 235 255
221 235 255
221 235 255
221 235 255
221 235 255
221 235 255
221 235 255
221 235 255
221 235 255
221 235 255
221 235 255
221 235 255
221 235 255
221 235 255
221 235 255
221 235 255
221 235 255
221 235 255
221 235 255
221 235 255
221 235 255
221 235 255
221 235 255
221 235 255
221 235 255
221 235 255
221 235 255
221 235 255
221 235 255
221 235 255
221 235 255
221 235 255
221 235 255
221 235 255
221 235 255
221 235 255
221 235 255
221 235 255
221 235 255
221 235 255
221 235 255
221 235 255
221 235 255
221 235 255
221 235 255
221 235 255
221 235 255
221 235 255
221 235 255
221 235 255
221 235 255
221 235 255
221 235 255
221 235 255
221 235 255
221 235 255
221 235 255
221 235 255
221 235 255
221 235 255
221 235 255
221 235 255
221 235 255
221 235 255
221 235 255
221 235 255
221 235 255
221 235 255
221 235 255
221 235 255
221 235 255
221 235 255
221 235 255
221 235 255
221 235 255
221 235 255
221 235 255
221 235 255
221 235 255
221 235 255
221 235 255
221 235 255
221 235 255
221 235 255
221 235 255
221 235 255
221 235 255
221 235 255
221 235 255
221 235 255
221 235 255
221 235 255
221 235 255
221 235 255
221 235 255
221 235 255
221 235 255
221 235 255
221 235 255
221 235 255
221 235 255
221 235 255
221 235 255
221 235 255
221 235 255
221 235 255
221 235 255
221 235 255
221 235 255
221 235 255
221 235 255
221 235 255
221 235 255
221 235 255
221 235 255
221 235 255
221 235 255
221 235 255
221 235 255
221 235 255
221 235 255
221 235 255
221 235 255
221 235 255
221 235 255
221 235 255
221 235 255
221 235 255
221 235 255
221 235 255
221 235 255
221 235 255
221 235 255
221 235 255
221 235 255
221 235 255
221 235 255
221 235 255
221 235 255
221 235 255
221 235 255
221 235 255
221 235 255
221 235 255
221 235 255
221 235 255
221 235 255
221 235 255
221 235 255
221 235 255
221 235 255
221 235 255
221 235 255
221 235 255
221 235 255
221 235 255
221 235 255
221 235 255
221 235 255
221 235 255
221 235 255
221 235 255
221 235 255
221 235 255
221 235 255
221 235 255
221 235 255
221 235 255
221 235 255
221 235 255
221 235 255
221 235 255
221 235 255
221 235 255
221 235 255
221 235 255
221 235 255
221 235 255
221 235 255
221 235 255
221 235 255
221 235 255
221 235 255
221 235 255
221 235 255
221 235 255
221 235 255
221 235 255
221 235 255
221 235 255
221 235 255
221 235 255
221 235 255
221 235 255
221 235 255
221 235 255
221 235 255
221 235 255
221 235 255
221 235 255
221 235 255
221 235 255
221 235 255
221 235 255
221 235 255
221 235 255
221 235 255
221 235 255
221 235 255
221 235 255
221 235 255
221 235 255
221 235 255
221 235 255
221 235 255
221 235 255
221 235 255
221 235 255
221 235 255
221 235 255
221 235 255
221 235 255
221 235 255
221 235 255
221 235 255
221 235 255
221 235 255
221 235 255
221 235 255
221 235 255
221 235 255
221 235 255
221 235 255
221 235 255
221 235 255
221 235 255
221 235 255
221 235 255
221 235 255
221 235 255
221 235 255
221 235 255
221 235 255
221 235 255
221 235 255
221 235 255
221 235 255
221 235 255
221 235 255
221 235 255
221 235 255
221 235 255
221 235 255
221 235 255
221 235 255
221 235 255
221 235 255
221 235 255
221 235 255
221 235 255
221 235 255
221 235 255
221 235 255
221 235 255
221 235 255
221 235 255
221 235 255
221 235 255
221 235 255
221 235 255
221 235 255
221 235 255
221 235 255
221 235 255
221 235 255
221 235 255
221 235 255
221 235 255
221 235 255
221 235 255
221 235 255
221 235 255
221 235 255
221 235 255
221 235 255
221 235 255
221 235 255
221 235 255
221 235 255
221 235 255
221 235 255
221 235 255
221 235 255
221 235 255
221 235 255
221 235 255
221 235 255
221 235 255
221 235 255
221 235 255
221 235 255
221 235 255
221 235 255
221 235 255
221 235 255
221 235 255
221 235 255
221 235 255
221 235 255
221 235 255
221 235 255
221 235 255
221 235 255
221 235 255
221 235 255
221 235 255
221 235 255
221 235 255
221 235 255
221 235 255
221 235 255
221 235 255
221 235 255
221 235 255
221 235 255
221 235 255
221 235 255
221 235 255
221 235 255
221 235 255
221 235 255
221 235 255
221 235 255
221 235 255
221 235 255
221 235 255
221 235 255
221 235 255
221 235 255
221 235 255
221 235 255
221 235 255
221 235 255
221 235 255
221 235 255
221 235 255
221 235 255
221 235 255
221 235 255
221 235 255
221 235 255
221 235 255
221 235 255
221 235 255
221 235 255
221 235 255
221 235 255
221 235 255
221 235 255
221 235 255
221 235 255
221 235 255
221 235 255
221 235 255
221 235 255
221 235 255
221 235 255
221 235 255
221 235 255
221 235 255
221 235 255
221 235 255
221 235 255
221 235 255
221 235 255
221 235 255
221 235 255
221 235 255
221 235 255
221 235 255
221 235 255
221 235 255
221 235 255
221 235 255
221 235 255
221 235 255
221 235 255
221 235 255
221 235 255
221 235 255
221 235 255
221 235 255
221 235 255
221 235 255
221 235 255
221 235 255
221 235 255
221 235 255
221 235 255
221 235 255
221 235 255
221 235 255
221 235 255
221 235 255
221 235 255
221 235 255
221 235 255
221 235 255
221 235 255
221 235 255
221 235 255
221 235 255
221 235 255
221 235 255
221 235 255
221 235 255
221 235 255
221 235 255
221 235 255
221 235 255
221 235 255
221 235 255
221 235 255
221 235 255
221 235 255
221 235 255
221 235 255
221 235 255
221 235 255
221 235 255
221 235 255
221 235 255
221 235 255
221 235 255
221 235 255
221 235 255
221 235 255
221 235 255
221 235 255
221 235 255
221 235 255
221 235 255
221 235 255
221 235 255
221 235 255
221 235 255
221 235 255
221 235 255
221 235 255
221 235 255
221 235 255
221 235 255
221 235 255
221 235 255
221 235 255
221 235 255
221 235 255
221 235 255
221 235 255
221 235 255
221 235 255
221 235 255
221 235 255
221 235 255
221 235 255
221 235 255
221 235 255
221 235 255
221 235 255
221 235 255
221 235 255
221 235 255
221 235 255
221 235 255
221 235 255
221 235 255
221 235 255
221 235 255
221 235 255
221 235 255
221 235 255
221 235 255
221 235 255
221 235 255
221 235 255
221 235 255
221 235 255
221 235 255
221 235 255
221 235 255
221 235 255
221 235 255
221 235 255
221 235 255
221 235 255
221 235 255
221 235 255
221 235 255
221 235 255
221 235 255
221 235 255
221 235 255
221 235 255
221 235 255
221 235 255
221 235 255
221 235 255
221 235 255
221 235 255
221 235 255
221 235 255
221 235 255
221 235 255
221 235 255
221 235 255
221 235 255
221 235 255
221 235 255
221 235 255
221 235 255
221 235 255
221 235 255
221 235 255
221 235 255
221 235 255
221 235 255
221 235 255
221 235 255
221 235 255
221 235 255
221 235 255
221 235 255
221 235 255
221 235 255
221 235 255
221 235 255
221 235 255
221 235 255
221 235 255
221 235 255
221 235 255
221 235 255
221 235 255
221 235 255
221 235 255
221 235 255
221 235 255
221 235 255
221 235 255
221 235 255
221 235 255
221 235 255
221 235 255
221 235 255
221 235 255
221 235 255
221 235 255
221 235 255
221 235 255
221 235 255
221 235 255
221 235 255
221 235 255
221 235 255
221 235 255
221 235 255
221 235 255
221 235 255
221 235 255
221 235 255
221 235 255
221 235 255
221 235 255
221 235 255
221 235 255
221 235 255
221 235 255
221 235 255
221 235 255
221 235 255
221 235 255
221 235 255
221 235 255
221 235 255
221 235 255
221 235 255
221 235 255
221 235 255
221 235 255
221 235 255
221 235 255
221 235 255
221 235 255
221 235 255
221 235 255
221 235 255
221 235 255
221 235 255
221 235 255
221 235 255
221 235 255
221 235 255
221 235 255
221 235 255
221 235 255
221 235 255
221 235 255
221 235 255
221 235 255
221 235 255
221 235 255
221 235 255
221 235 255
221 235 255
221 235 255
221 235 255
221 235 255
221 235 255
221 235 255
221 235 255
221 235 255
221 235 255
221 235 255
221 235 255
221 235 255
221 235 255
221 235 255
221 235 255
221 235 255
221 235 255
221 235 255
221 235 255
221 235 255
221 235 255
221 235 255
221 235 255
221 235 255
221 235 255
221 235 255
221 235 255
221 235 255
221 235 255
221 235 255
221 235 255
221 235 255
221 235 255
221 235 255
221 235 255
221 235 255
221 235 255
221 235 255
221 235 255
221 235 255
221 235 255
221 235 255
221 235 255
221 235 255
221 235 255
221 235 255
221 235 255
221 235 255
221 235 255
221 235 255
221 235 255
221 235 255
221 235 255
221 235 255
221 235 255
221 235 255
221 235 255
221 235 255
221 235 255
221 235 255
221 235 255
221 235 255
221 235 255
221 235 255
221 235 255
221 235 255
221 235 255
221 235 255
221 235 255
221 235 255
221 235 255
221 235 255
221 235 255
221 235 255
221 235 255
221 235 255
221 235 255
221 235 255
221 235 255
221 235 255
221 235 255
221 235 255
221 235 255
221 235 255
221 235 255
221 235 255
221 235 255
221 235 255
221 235 255
221 235 255
221 235 255
221 235 255
221 235 255
221 235 255
221 235 255
221 235 255
221 235 255
221 235 255
221 235 255
221 235 255
221 235 255
221 235 255
221 235 255
221 235 255
221 235 255
221 235 255
221 235 255
221 235 255
221 235 255
221 235 255
221 235 255
221 235 255
221 235 255
221 235 255
221 235 255
221 235 255
221 235 255
221 235 255
221 235 255
221 235 255
221 235 255
221 235 255
221 235 255
221 235 255
221 235 255
221 235 255
221 235 255
221 235 255
221 235 255
221 235 255
221 235 255
221 235 255
221 235 255
221 235 255
221 235 255
221 235 255
221 235 255
221 235 255
221 235 255
221 235 255
221 235 255
221 235 255
221 235 255
221 235 255
221 235 255
221 235 255
221 235 255
221 235 255
221 235 255
221 235 255
221 235 255
221 235 255
221 235 255
221 235 255
221 235 255
221 235 255
221 235 255
221 235 255
221 235 255
221 235 255
221 235 255
221 235 255
221 235 255
221 235 255
221 235 255
221 235 255
221 235 255
221 235 255
221 235 255
221 235 255
221 235 255
221 235 255
221 235 255
221 235 255
221 235 255
221 235 255
221 235 255
221 235 255
221 235 255
221 235 255
221 235 255
221 235 255
221 235 255
221 235 255
221 235 255
221 235 255
221 235 255
221 235 255
221 235 255
221 235 255
221 235 255
221 235 255
221 235 255
221 235 255
221 235 255
221 235 255
221 235 255
221 235 255
221 235 255
221 235 255
221 235 255
221 235 255
221 235 255
221 235 255
221 235 255
221 235 255
221 235 255
221 235 255
221 235 255
221 235 255
221 235 255
221 235 255
221 235 255
221 235 255
221 235 255
221 235 255
221 235 255
221 235 255
221 235 255
221 235 255
221 235 255
221 235 255
221 235 255
221 235 255
221 235 255
221 235 255
221 235 255
221 235 255
221 235 255
221 235 255
221 235 255
221 235 255
221 235 255
221 235 255
221 235 255
221 235 255
221 235 255
221 235 255
221 235 255
221 235 255
221 235 255
221 235 255
221 235 255
221 235 255
221 235 255
221 235 255
221 235 255
221 235 255
221 235 255
221 235 255
221 235 255
221 235 255
221 235 255
221 235 255
221 235 255
221 235 255
221 235 255
221 235 255
221 235 255
221 235 255
221 235 255
221 235 255
221 235 255
221 235 255
221 235 255
221 235 255
221 235 255
221 235 255
221 235 255
221 235 255
221 235 255
221 235 255
221 235 255
221 235 255
221 235 255
221 235 255
221 235 255
221 235 255
221 235 255
221 235 255
221 235 255
221 235 255
221 235 255
221 235 255
221 235 255
221 235 255
221 235 255
221 235 255
221 235 255
221 235 255
221 235 255
221 235 255
221 235 255
221 235 255
221 235 255
221 235 255
221 235 255
221 235 255
221 235 255
221 235 255
221 235 255
221 235 255
221 235 255
221 235 255
221 235 255
221 235 255
221 235 255
221 235 255
221 235 255
221 235 255
221 235 255
221 235 255
221 235 255
221 235 255
221 235 255
221 235 255
221 235 255
221 235 255
221 235 255
221 235 255
221 235 255
221 235 255
221 235 255
221 235 255
221 235 255
221 235 255
221 235 255
221 235 255
221 235 255
221 235 255
221 235 255
221 235 255
221 235 255
221 235 255
221 235 255
221 235 255
221 235 255
221 235 255
221 235 255
221 235 255
221 235 255
221 235 255
221 235 255
221 235 255
221 235 255
221 235 255
221 235 255
221 235 255
221 235 255
221 235 255
221 235 255
221 235 255
221 235 255
221 235 255
221 235 255
221 235 255
221 235 255
221 235 255
221 235 255
221 235 255
221 235 255
221 235 255
221 235 255
221 235 255
221 235 255
221 235 255
221 235 255
221 235 255
221 235 255
221 235 255
221 235 255
221 235 255
221 235 255
221 235 255
221 235 255
221 235 255
221 235 255
221 235 255
221 235 255
221 235 255
221 235 255
221 235 255
221 235 255
221 235 255
221 235 255
221 235 255
221 235 255
221 235 255
221 235 255
221 235 255
221 235 255
221 235 255
221 235 255
221 235 255
221 235 255
221 235 255
221 235 255
221 235 255
221 235 255
221 235 255
221 235 255
221 235 255
221 235 255
221 235 255
221 235 255
221 235 255
221 235 255
221 235 255
221 235 255
221 235 255
221 235 255
221 235 255
221 235 255
221 235 255
221 235 255
221 235 255
221 235 255
221 235 255
221 235 255
221 235 255
221 235 255
221 235 255
221 235 255
221 235 255
221 235 255
221 235 255
221 235 255
221 235 255
221 235 255
221 235 255
221 235 255
221 235 255
221 235 255
221 235 255
221 235 255
221 235 255
221 235 255
221 235 255
221 235 255
221 235 255
221 235 255
221 235 255
221 235 255
221 235 255
221 235 255
221 235 255
221 235 255
221 235 255
221 235 255
221 235 255
221 235 255
221 235 255
221 235 255
221 235 255
221 235 255
221 235 255
221 235 255
221 235 255
221 235 255
221 235 255
221 235 255
221 235 255
221 235 255
221 235 255
221 235 255
221 235 255
221 235 255
221 235 255
221 235 255
221 235 255
221 235 255
221 235 255
221 235 255
221 235 255
221 235 255
221 235 255
221 235 255
221 235 255
221 235 255
221 235 255
221 235 255
221 235 255
221 235 255
221 235 255
221 235 255
221 235 255
221 235 255
221 235 255
221 235 255
221 235 255
221 235 255
221 235 255
221 235 255
221 235 255
221 235 255
221 235 255
221 235 255
221 235 255
221 235 255
221 235 255
221 235 255
221 235 255
221 235 255
221 235 255
221 235 255
221 235 255
221 235 255
221 235 255
221 235 255
221 235 255
221 235 255
221 235 255
221 235 255
221 235 255
221 235 255
221 235 255
221 235 255
221 235 255
221 235 255
221 235 255
221 235 255
221 235 255
221 235 255
221 235 255
221 235 255
221 235 255
221 235 255
221 235 255
221 235 255
221 235 255
221 235 255
221 235 255
221 235 255
221 235 255
221 235 255
221 235 255
221 235 255
221 235 255
221 235 255
221 235 255
221 235 255
221 235 255
221 235 255
221 235 255
221 235 255
221 235 255
221 235 255
221 235 255
221 235 255
221 235 255
221 235 255
221 235 255
221 235 255
221 235 255
221 235 255
221 235 255
221 235 255
221 235 255
221 235 255
221 235 255
221 235 255
221 235 255
221 235 255
221 235 255
221 235 255
221 235 255
221 235 255
221 235 255
221 235 255
221 235 255
221 235 255
221 235 255
221 235 255
221 235 255
221 235 255
221 235 255
221 235 255
221 235 255
221 235 255
221 235 255
221 235 255
221 235 255
221 235 255
221 235 255
221 235 255
221 235 255
221 235 255
221 235 255
221 235 255
221 235 255
221 235 255
221 235 255
221 235 255
221 235 255
221 235 255
221 235 255
221 235 255
221 235 255
221 235 255
221 235 255
221 235 255
221 235 255
221 235 255
221 235 255
221 235 255
221 235 255
221 235 255
221 235 255
221 235 255
221 235 255
221 235 255
221 235 255
221 235 255
221 235 255
221 235 255
221 235 255
221 235 255
221 235 255
221 235 255
221 235 255
221 235 255
221 235 255
221 235 255
221 235 255
221 235 255
221 235 255
221 235 255
221 235 255
221 235 255
221 235 255
221 235 255
221 235 255
221 235 255
221 235 255
221 235 255
221 235 255
221 235 255
221 235 255
221 235 255
221 235 255
221 235 255
221 235 255
221 235 255
221 235 255
221 235 255
221 235 255
221 235 255
221 235 255
221 235 255
221 235 255
221 235 255
221 235 255
221 235 255
221 235 255
221 235 255
221 235 255
221 235 255
221 235 255
221 235 255
221 235 255
221 235 255
221 235 255
221 235 255
221 235 255
221 235 255
221 235 255
221 235 255
221 235 255
221 235 255
221 235 255
221 235 255
221 235 255
221 235 255
221 235 255
221 235 255
221 235 255
221 235 255
221 235 255
221 235 255
221 235 255
221 235 255
221 235 255
221 235 255
221 235 255
221 235 255
221 235 255
221 235 255
221 235 255
221 235 255
221 235 255
221 235 255
221 235 255
221 235 255
221 235 255
221 235 255
221 235 255
221 235 255
221 235 255
221 235 255
221 235 255
221 235 255
221 235 255
221 235 255
221 235 255
221 235 255
221 235 255
221 235 255
221 235 255
221 235 255
221 235 255
221 235 255
221 235 255
221 235 255
221 235 255
221 235 255
221 235 255
221 235 255
221 235 255
221 235 255
221 235 255
221 235 255
221 235 255
221 235 255
221 235 255
221 235 255
221 235 255
221 235 255
221 235 255
221 235 255
221 235 255
221 235 255
221 235 255
221 235 255
221 235 255
221 235 255
221 235 255
221 235 255
221 235 255
221 235 255
221 235 255
221 235 255
221 235 255
221 235 255
221 235 255
221 235 255
221 235 255
221 235 255
221 235 255
221 235 255
221 235 255
221 235 255
221 235 255
221 235 255
221 235 255
221 235 255
221 235 255
221 235 255
221 235 255
221 235 255
221 235 255
221 235 255
221 235 255
221 235 255
221 235 255
221 235 255
221 235 255
221 235 255
221 235 255
221 235 255
221 235 255
221 235 255
221 235 255
221 235 255
221 235 255
221 235 255
221 235 255
221 235 255
221 235 255
221 235 255
221 235 255
221 235 255
221 235 255
221 235 255
221 235 255
221 235 255
221 235 255
221 235 255
221 235 255
221 235 255
221 235 255
221 235 255
221 235 255
221 235 255
221 235 255
221 235 255
221 235 255
221 235 255
221 235 255
221 235 255
219 233 252
216 229 249
212 225 244
209 221 240
207 219 237
210 222 241
212 224 243
214 228 247
218 232 252
220 235 254
221 235 255
221 235 255
221 235 255
221 235 255
221 235 255
221 235 255
221 235 255
221 235 255
221 235 255
221 235 255
221 235 255
221 235 255
220 234 255
218 232 252
218 232 252
220 234 254
220 234 254
220 234 254
221 235 255
221 235 255
221 235 255
221 235 255
221 235 255
221 235 255
221 235 255
221 235 255
221 235 255
221 235 255
221 235 255
221 235 255
221 235 255
221 235 255
221 235 255
221 235 255
221 235 255
221 235 255
221 235 255
221 235 255
221 235 255
221 235 255
221 235 255
221 235 255
221 235 255
221 235 255
221 235 255
221 235 255
221 235 255
221 235 255
221 235 255
221 235 255
221 235 255
221 235 255
221 235 255
221 235 255
221 235 255
221 235 255
221 235 255
221 235 255
221 235 255
221 235 255
221 235 255
221 235 255
221 235 255
221 235 255
221 235 255
221 235 255
221 235 255
221 235 255
221 235 255
221 235 255
221 235 255
221 235 255
221 235 255
221 235 255
221 235 255
221 235 255
221 235 255
221 235 255
221 235 255
221 235 255
221 235 255
221 235 255
221 235 255
221 235 255
221 235 255
221 235 255
221 235 255
221 235 255
221 235 255
221 235 255
221 235 255
221 235 255
221 235 255
221 235 255
221 235 255
221 235 255
221 235 255
221 235 255
221 235 255
221 235 255
221 235 255
221 235 255
221 235 255
221 235 255
221 235 255
221 235 255
221 235 255
221 235 255
221 235 255
221 235 255
221 235 255
221 235 255
221 235 255
221 235 255
221 235 255
221 235 255
221 235 255
221 235 255
221 235 255
221 235 255
221 235 255
221 235 255
221 235 255
221 235 255
221 235 255
221 235 255
221 235 255
221 235 255
221 235 255
221 235 255
221 235 255
221 235 255
221 235 255
221 235 255
221 235 255
221 236 255
221 236 255
221 236 255
221 236 255
221 236 255
221 236 255
221 236 255
221 236 255
221 236 255
221 236 255
221 236 255
221 236 255
221 236 255
221 236 255
221 236 255
221 236 255
221 236 255
221 236 255
221 236 255
221 236 255
221 236 255
221 236 255
221 236 255
221 236 255
221 236 255
221 236 255
221 236 255
221 236 255
221 236 255
221 236 255
221 236 255
221 236 255
221 236 255
221 236 255
221 236 255
221 236 255
221 236 255
221 236 255
221 236 255
221 236 255
221 236 255
221 236 255
221 236 255
221 236 255
221 236 255
221 236 255
221 236 255
221 236 255
221 236 255
221 236 255
221 236 255
221 236 255
221 236 255
221 236 255
221 236 255
221 236 255
221 236 255
221 236 255
221 236 255
221 236 255
221 236 255
221 236 255
221 236 255
221 236 255
221 236 255
221 236 255
221 236 255
221 236 255
221 236 255
221 236 255
221 236 255
221 236 255
221 236 255
221 236 255
221 236 255
221 236 255
221 236 255
221 236 255
221 236 255
221 236 255
221 236 255
221 236 255
221 236 255
221 236 255
221 236 255
221 236 255
221 236 255
221 236 255
221 236 255
221 236 255
221 236 255
221 235 255
216 230 249
201 212 229
191 200 215
173 179 190
156 159 168
143 144 151
136 135 139
128 126 130
129 126 130
138 136 141
148 149 157
163 167 177
175 181 194
194 204 220
209 221 239
218 232 252
221 236 255
221 236 255
221 236 255
221 236 255
217 232 251
211 226 245
202 216 236
188 203 224
176 191 211
175 191 212
166 182 204
163 179 200
160 177 199
164 179 201
171 187 208
178 193 213
187 202 223
198 213 233
212 226 246
218 233 252
221 236 255
221 236 255
221 236 255
221 236 255
221 236 255
221 236 255
221 236 255
221 236 255
221 236 255
221 236 255
221 236 255
221 236 255
221 236 255
221 236 255
221 236 255
221 236 255
221 236 255
221 236 255
221 236 255
221 236 255
218 232 251
207 219 235
190 199 213
183 191 203
167 172 181
155 159 165
156 159 166
144 146 150
145 147 151
146 148 153
152 155 160
148 151 156
164 168 176
171 177 187
180 188 200
198 208 223
209 221 238
219 233 252
221 236 255
221 236 255
221 236 255
221 236 255
221 236 255
221 236 255
221 236 255
221 236 255
221 236 255
221 236 255
221 236 255
221 236 255
221 236 255
221 236 255
221 236 255
221 236 255
221 236 255
221 236 255
221 236 255
221 236 255
221 236 255
221 236 255
221 236 255
221 236 255
221 236 255
221 236 255
221 236 255
221 236 255
221 236 255
221 236 255
221 236 255
221 236 255
221 236 255
221 236 255
221 236 255
221 236 255
221 236 255
221 236 255
221 236 255
221 236 255
221 236 255
221 236 255
221 236 255
221 236 255
221 236 255
221 236 255
221 236 255
221 236 255
221 236 255
221 236 255
221 236 255
221 236 255
221 236 255
221 236 255
221 236 255
221 236 255
221 236 255
221 236 255
221 236 255
221 236 255
221 236 255
221 236 255
221 236 255
221 236 255
221 236 255
221 236 255
221 236 255
221 236 255
221 236 255
221 236 255
221 236 255
221 236 255
221 236 255
221 236 255
221 236 255
221 236 255
221 236 255
221 236 255
221 236 255
221 236 255
221 236 255
221 236 255
221 236 255
221 236 255
221 236 255
221 236 255
221 236 255
221 236 255
221 236 255
221 236 255
221 236 255
221 236 255
221 236 255
221 236 255
221 236 255
221 236 255
221 236 255
221 236 255
221 236 255
221 236 255
221 236 255
221 236 255
221 236 255
221 236 255
221 236 255
221 236 255
221 236 255
221 236 255
221 236 255
221 236 255
221 236 255
221 236 255
221 236 255
221 236 255
221 236 255
221 236 255
221 236 255
221 236 255
221 236 255
221 236 255
221 236 255
221 236 255
221 236 255
221 236 255
221 236 255
221 236 255
221 236 255
221 236 255
221 236 255
221 236 255
221 236 255
221 236 255
221 236 255
221 236 255
221 236 255
221 236 255
221 236 255
221 236 255
221 236 255
221 236 255
221 236 255
221 236 255
221 236 255
221 236 255
221 236 255
221 236 255
221 236 255
221 236 255
221 236 255
221 236 255
221 236 255
221 236 255
221 236 255
221 236 255
221 236 255
221 236 255
221 236 255
221 236 255
221 236 255
221 236 255
221 236 255
221 236 255
221 236 255
220 235 254
209 222 240
183 191 205
151 153 161
124 120 123
105 94 90
94 78 69
92 74 63
87 68 55
92 72 59
84 66 54
87 68 55
89 70 57
89 70 57
91 73 62
97 83 75
115 108 107
140 139 145
166 170 180
192 202 218
213 227 246
207 221 241
183 198 218
165 181 202
148 165 186
141 159 181
138 155 178
137 155 178
137 155 177
133 151 173
137 156 179
140 158 182
133 150 172
132 150 172
139 157 180
135 153 175
138 155 177
148 165 186
156 172 193
181 196 216
203 217 237
217 232 252
221 236 255
221 236 255
221 236 255
221 236 255
221 236 255
221 236 255
221 236 255
221 236 255
221 236 255
221 236 255
221 236 255
221 236 255
221 236 255
218 232 252
202 213 229
175 182 193
152 155 162
132 132 134
130 130 131
128 128 129
127 128 130
131 132 134
128 129 131
132 132 135
129 130 132
131 132 135
129 129 131
131 131 133
130 131 134
131 131 133
127 128 130
128 128 130
126 125 127
130 130 131
135 135 138
161 166 173
189 198 212
211 223 240
221 235 255
221 236 255
221 236 255
221 236 255
221 236 255
221 236 255
221 236 255
221 236 255
221 236 255
221 236 255
221 236 255
221 236 255
221 236 255
221 236 255
221 236 255
221 236 255
221 236 255
221 236 255
221 236 255
221 236 255
221 236 255
221 236 255
221 236 255
221 236 255
221 236 255
221 236 255
221 236 255
221 236 255
221 236 255
221 236 255
221 236 255
221 236 255
221 236 255
221 236 255
221 236 255
221 236 255
221 236 255
221 236 255
221 236 255
221 236 255
221 236 255
221 236 255
221 236 255
221 236 255
221 236 255
221 236 255
221 236 255
221 236 255
221 236 255
221 236 255
221 236 255
221 236 255
221 236 255
221 236 255
221 236 255
221 236 255
221 236 255
221 236 255
221 236 255
221 236 255
221 236 255
221 236 255
221 236 255
221 236 255
221 236 255
221 236 255
221 236 255
221 236 255
221 236 255
221 236 255
221 236 255
221 236 255
221 236 255
221 236 255
221 236 255
221 236 255
221 236 255
221 236 255
221 236 255
221 236 255
221 236 255
221 236 255
221 236 255
221 236 255
221 236 255
221 236 255
221 236 255
221 236 255
221 236 255
221 236 255
221 236 255
221 236 255
221 236 255
221 236 255
221 236 255
221 236 255
221 236 255
221 236 255
221 236 255
221 236 255
221 236 255
221 236 255
221 236 255
221 236 255
221 236 255
221 236 255
221 236 255
221 236 255
221 236 255
221 236 255
221 236 255
221 236 255
221 236 255
221 236 255
221 236 255
221 236 255
221 236 255
221 236 255
221 236 255
221 236 255
221 236 255
221 236 255
221 236 255
221 236 255
221 236 255
221 236 255
221 236 255
221 236 255
221 236 255
221 236 255
221 236 255
221 236 255
221 236 255
221 236 255
221 236 255
221 236 255
221 236 255
221 236 255
221 236 255
221 236 255
221 236 255
221 236 255
221 236 255
221 236 255
221 236 255
221 236 255
221 236 255
221 236 255
221 236 255
221 236 255
221 236 255
221 236 255
221 236 255
221 236 255
221 236 255
221 236 255
221 236 255
221 236 255
220 234 254
209 222 240
182 190 204
144 144 150
105 94 89
87 70 59
88 69 56
89 70 57
92 73 59
87 68 55
91 71 58
91 71 58
86 68 55
90 71 58
87 67 54
88 69 55
89 70 57
90 71 57
90 71 57
87 68 55
110 101 100
142 148 163
155 169 190
144 160 181
136 153 175
141 159 182
133 151 172
137 156 179
131 150 173
132 151 173
130 147 169
131 148 170
130 148 170
127 145 166
125 143 164
126 143 164
128 146 167
125 144 165
127 144 165
128 146 168
125 142 161
128 148 166
137 160 175
161 179 196
187 203 221
214 229 248
221 236 255
221 236 255
221 236 255
221 236 255
221 236 255
221 236 255
221 236 255
221 236 255
220 234 253
201 212 227
170 175 184
137 137 139
126 125 127
128 128 130
129 129 130
130 131 133
130 131 133
129 130 132
130 131 133
128 129 133
130 131 134
130 131 134
124 125 128
130 132 135
130 131 134
125 126 129
130 131 135
131 132 135
134 136 139
130 131 134
129 130 132
131 132 135
130 131 133
125 125 126
128 128 129
136 135 136
148 149 154
179 186 197
211 223 240
221 236 255
221 236 255
221 236 255
221 236 255
221 236 255
221 236 255
221 236 255
221 236 255
221 236 255
221 236 255
221 236 255
221 236 255
221 236 255
221 236 255
221 236 255
221 236 255
221 236 255
221 236 255
221 236 255
221 236 255
221 236 255
221 236 255
221 236 255
221 236 255
221 236 255
221 236 255
221 236 255
221 236 255
221 236 255
221 236 255
221 236 255
221 236 255
221 236 255
221 236 255
221 236 255
221 236 255
221 236 255
221 236 255
221 236 255
221 236 255
221 236 255
221 236 255
221 236 255
221 236 255
221 236 255
221 236 255
221 236 255
221 236 255
221 236 255
221 236 255
221 236 255
221 236 255
221 236 255
221 236 255
221 236 255
221 236 255
221 236 255
221 236 255
221 236 255
221 236 255
221 236 255
221 236 255
221 236 255
221 236 255
221 236 255
221 236 255
221 236 255
221 236 255
222 236 255
222 236 255
222 236 255
222 236 255
222 236 255
222 236 255
222 236 255
222 236 255
222 236 255
222 236 255
222 236 255
222 236 255
222 236 255
222 236 255
222 236 255
222 236 255
222 236 255
222 236 255
222 236 255
222 236 255
222 236 255
222 236 255
222 236 255
222 236 255
222 236 255
222 236 255
222 236 255
222 236 255
222 236 255
222 236 255
222 236 255
222 236 255
222 236 255
222 236 255
222 236 255
222 236 255
222 236 255
222 236 255
222 236 255
222 236 255
222 236 255
222 236 255
222 236 255
222 236 255
222 236 255
222 236 255
222 236 255
222 236 255
222 236 255
222 236 255
222 236 255
222 236 255
222 236 255
222 236 255
222 236 255
222 236 255
222 236 255
222 236 255
222 236 255
222 236 255
222 236 255
222 236 255
222 236 255
222 236 255
222 236 255
222 236 255
222 236 255
222 236 255
222 236 255
222 236 255
222 236 255
222 236 255
222 236 255
222 236 255
222 236 255
222 236 255
222 236 255
222 236 255
222 236 255
222 236 255
222 236 255
222 236 255
222 236 255
222 236 255
222 236 255
222 236 255
216 230 249
193 202 218
147 148 156
103 91 85
91 73 61
88 69 56
85 67 54
91 71 58
86 67 55
91 72 58
88 69 56
86 67 54
87 68 55
86 67 54
87 68 55
88 70 56
88 69 56
86 68 55
87 69 56
96 84 80
120 123 133
136 147 168
132 146 170
129 144 168
132 148 170
132 149 171
128 145 165
125 143 163
125 142 161
125 142 161
122 139 160
126 144 165
120 137 157
126 144 165
124 141 162
121 138 159
126 144 165
123 140 161
121 138 159
122 140 161
127 144 166
122 142 161
121 142 159
119 144 157
120 149 158
126 152 164
152 172 188
185 201 219
214 228 248
222 236 255
222 236 255
222 236 255
222 236 255
217 230 249
184 191 203
142 144 148
129 128 129
126 125 127
129 129 131
130 130 132
133 135 138
131 132 136
129 130 133
127 129 133
127 129 133
125 127 131
125 128 133
123 126 131
123 127 132
119 122 127
125 129 134
124 126 131
126 130 135
126 130 135
126 129 134
126 128 133
124 127 131
128 130 134
129 130 134
132 133 137
130 132 135
133 135 138
131 131 133
128 127 128
125 125 126
132 132 133
163 167 174
193 203 218
220 234 253
222 236 255
222 236 255
222 236 255
222 236 255
222 236 255
222 236 255
222 236 255
222 236 255
222 236 255
222 236 255
222 236 255
222 236 255
222 236 255
222 236 255
222 236 255
222 236 255
222 236 255
222 236 255
222 236 255
222 236 255
222 236 255
222 236 255
222 236 255
222 236 255
222 236 255
222 236 255
222 236 255
222 236 255
222 236 255
222 236 255
222 236 255
222 236 255
222 236 255
222 236 255
222 236 255
222 236 255
222 236 255
222 236 255
222 236 255
222 236 255
222 236 255
222 236 255
222 236 255
222 236 255
222 236 255
222 236 255
222 236 255
222 236 255
222 236 255
222 236 255
222 236 255
222 236 255
222 236 255
222 236 255
222 236 255
222 236 255
222 236 255
222 236 255
222 236 255
222 236 255
222 236 255
222 236 255
222 236 255
221 236 255
222 236 255
222 236 255
222 236 255
222 236 255
222 236 255
222 236 255
222 236 255
222 236 255
222 236 255
222 236 255
222 236 255
222 236 255
222 236 255
222 236 255
222 236 255
222 236 255
222 236 255
222 236 255
222 236 255
222 236 255
222 236 255
222 236 255
222 236 255
222 236 255
222 236 255
222 236 255
222 236 255
222 236 255
222 236 255
222 236 255
222 236 255
222 236 255
222 236 255
222 236 255
222 236 255
222 236 255
222 236 255
222 236 255
222 236 255
222 236 255
222 236 255
222 236 255
222 236 255
222 236 255
222 236 255
222 236 255
222 236 255
222 236 255
222 236 255
222 236 255
222 236 255
222 236 255
222 236 255
222 236 255
222 236 255
222 236 255
222 236 255
222 236 255
222 236 255
222 236 255
222 236 255
222 236 255
222 236 255
222 236 255
222 236 255
222 236 255
222 236 255
222 236 255
222 236 255
222 236 255
222 236 255
222 236 255
222 236 255
222 236 255
222 236 255
222 236 255
222 236 255
222 236 255
222 236 255
222 236 255
222 236 255
222 236 255
222 236 255
222 236 255
222 236 255
222 236 255
211 224 242
175 181 194
119 112 112
90 73 62
84 66 53
88 69 56
88 69 56
86 68 55
88 69 56
87 68 55
90 70 57
89 69 56
87 68 55
89 69 56
85 66 53
89 70 56
89 70 56
90 70 57
90 72 60
112 111 117
130 139 159
134 148 173
126 140 163
124 138 162
121 133 157
123 138 157
126 144 159
120 137 152
125 144 159
121 139 151
123 141 154
121 138 154
128 146 167
125 143 164
127 144 166
124 142 162
122 140 161
119 136 157
122 139 161
124 140 161
125 143 164
125 142 163
121 140 160
118 141 155
119 144 158
124 147 163
119 145 158
123 152 162
132 161 172
162 183 199
200 215 234
220 234 254
216 229 248
182 190 202
140 140 142
132 132 133
128 128 129
129 128 129
129 130 132
126 128 131
126 128 132
127 129 134
122 125 130
125 129 135
124 127 133
120 124 130
121 124 130
118 123 128
124 129 136
125 130 137
120 125 131
121 126 132
119 122 128
121 125 131
122 126 132
119 123 129
125 130 136
122 127 133
122 126 132
126 130 136
121 125 130
125 128 132
127 129 133
127 128 131
131 132 135
130 131 133
133 133 135
126 125 126
130 130 131
147 150 155
192 201 215
220 234 253
222 236 255
222 236 255
222 236 255
222 236 255
222 236 255
222 236 255
222 236 255
222 236 255
222 236 255
222 236 255
222 236 255
222 236 255
222 236 255
222 236 255
222 236 255
222 236 255
222 236 255
222 236 255
222 236 255
222 236 255
222 236 255
222 236 255
222 236 255
222 236 255
222 236 255
222 236 255
222 236 255
222 236 255
222 236 255
222 236 255
222 236 255
222 236 255
222 236 255
222 236 255
222 236 255
222 236 255
222 236 255
222 236 255
222 236 255
222 236 255
222 236 255
222 236 255
222 236 255
222 236 255
222 236 255
222 236 255
222 236 255
222 236 255
222 236 255
222 236 255
222 236 255
222 236 255
222 236 255
222 236 255
222 236 255
222 236 255
222 236 255
222 236 255
222 236 255
222 236 255
222 236 255
222 236 255
222 236 255
222 236 255
222 236 255
222 236 255
222 236 255
222 236 255
222 236 255
222 236 255
222 236 255
222 236 255
222 236 255
222 236 255
222 236 255
222 236 255
222 236 255
222 236 255
222 236 255
222 236 255
222 236 255
222 236 255
222 236 255
222 236 255
222 236 255
222 236 255
222 236 255
222 236 255
222 236 255
222 236 255
222 236 255
222 236 255
222 236 255
222 236 255
222 236 255
222 236 255
222 236 255
222 236 255
222 236 255
222 236 255
222 236 255
222 236 255
222 236 255
222 236 255
222 236 255
222 236 255
222 236 255
222 236 255
222 236 255
222 236 255
222 236 255
222 236 255
222 236 255
222 236 255
222 236 255
222 236 255
222 236 255
222 236 255
222 236 255
222 236 255
222 236 255
222 236 255
222 236 255
222 236 255
222 236 255
222 236 255
222 236 255
222 236 255
222 236 255
222 236 255
222 236 255
222 236 255
222 236 255
222 236 255
222 236 255
222 236 255
222 236 255
222 236 255
222 236 255
222 236 255
222 236 255
222 236 255
222 236 255
222 236 255
222 236 255
222 236 255
221 235 255
208 220 237
160 163 173
103 91 85
86 67 54
87 68 55
85 66 54
90 70 57
86 67 54
84 66 53
89 70 56
86 68 55
90 71 57
88 69 55
83 64 52
88 69 55
89 70 56
86 67 54
85 66 53
97 86 83
120 125 137
133 145 167
124 136 160
123 137 159
122 134 159
118 131 154
115 126 146
122 137 151
131 150 162
132 151 157
138 157 166
132 152 159
127 146 156
125 143 159
127 145 166
126 143 164
125 143 164
124 141 163
128 145 168
124 141 163
130 148 170
128 145 167
125 142 164
124 140 161
125 142 163
116 137 153
117 144 156
119 144 158
118 145 158
120 145 158
119 151 160
122 153 161
140 166 176
163 173 183
139 139 141
132 132 133
133 133 135
131 131 133
128 129 132
126 127 131
130 132 137
123 126 130
121 124 129
119 122 127
122 126 132
121 126 132
124 129 136
119 123 129
125 130 137
124 130 136
125 130 137
121 126 132
123 128 134
124 129 136
123 128 135
122 127 134
121 127 133
124 129 136
122 127 133
124 128 134
121 125 131
124 129 135
124 128 135
124 129 135
121 124 129
124 128 134
122 124 128
129 131 135
128 130 133
129 130 133
129 130 132
126 126 127
128 127 127
155 158 163
200 210 225
221 236 255
222 236 255
222 236 255
222 236 255
222 236 255
222 236 255
222 236 255
222 236 255
222 236 255
222 236 255
222 236 255
222 236 255
222 236 255
222 236 255
222 236 255
222 236 255
222 236 255
222 236 255
222 236 255
222 236 255
222 236 255
222 236 255
222 236 255
222 236 255
222 236 255
222 236 255
222 236 255
222 236 255
222 236 255
222 236 255
222 236 255
222 236 255
222 236 255
222 236 255
222 236 255
222 236 255
222 236 255
222 236 255
222 236 255
222 236 255
222 236 255
222 236 255
222 236 255
222 236 255
222 236 255
222 236 255
222 236 255
222 236 255
222 236 255
222 236 255
222 236 255
222 236 255
222 236 255
222 236 255
222 236 255
222 236 255
222 236 255
222 236 255
222 236 255
222 236 255
222 236 255
222 236 255
222 236 255
222 236 255
222 236 255
222 236 255
222 236 255
222 236 255
222 236 255
222 236 255
222 236 255
222 236 255
222 236 255
222 236 255
222 236 255
222 236 255
222 236 255
222 236 255
222 236 255
222 236 255
222 236 255
222 236 255
222 236 255
222 236 255
222 236 255
222 236 255
222 236 255
222 236 255
222 236 255
222 236 255
222 236 255
222 236 255
222 236 255
222 236 255
222 236 255
222 236 255
222 236 255
222 236 255
222 236 255
222 236 255
222 236 255
222 236 255
222 236 255
222 236 255
222 236 255
222 236 255
222 236 255
222 236 255
222 236 255
222 236 255
222 236 255
222 236 255
222 236 255
222 236 255
222 236 255
222 236 255
222 236 255
222 236 255
222 236 255
222 236 255
222 236 255
222 236 255
222 236 255
222 236 255
222 236 255
222 236 255
222 236 255
222 236 255
222 236 255
222 236 255
222 236 255
222 236 255
222 236 255
222 236 255
222 236 255
222 236 255
222 236 255
222 236 255
222 236 255
222 236 255
222 236 255
222 236 255
222 236 255
222 236 255
221 235 255
205 217 234
153 155 163
88 74 66
87 67 54
88 69 56
87 68 55
87 68 55
87 67 54
88 68 55
88 68 55
87 68 55
85 66 53
87 67 54
86 66 53
90 70 56
84 65 52
85 66 53
89 70 56
105 98 99
131 140 154
131 143 164
123 136 158
120 132 156
119 131 156
120 131 154
121 134 148
130 144 156
133 150 158
142 162 169
143 163 169
138 157 165
127 145 156
126 142 156
117 134 152
123 141 163
125 143 165
123 140 162
122 139 160
121 138 159
125 143 165
124 141 163
122 139 160
119 135 156
122 140 160
121 141 159
117 139 155
116 141 155
116 145 156
117 145 156
114 141 153
120 147 159
125 142 151
130 136 136
129 129 129
129 130 131
130 130 131
131 132 135
128 131 135
123 125 130
126 130 135
121 124 129
121 125 130
122 126 131
121 125 131
120 125 131
122 128 135
121 126 132
120 125 132
121 126 132
121 127 134
120 126 132
122 129 136
120 126 133
121 126 133
120 127 134
120 126 133
121 127 134
121 127 134
124 130 137
122 126 133
120 124 130
123 128 134
121 125 130
123 127 133
123 127 133
125 130 135
122 126 132
124 127 132
123 126 130
129 132 136
128 129 132
129 129 131
129 129 131
128 127 128
130 129 130
169 173 182
215 228 246
222 236 255
222 236 255
222 236 255
222 236 255
222 236 255
222 236 255
222 236 255
222 236 255
222 236 255
222 236 255
222 236 255
222 236 255
222 236 255
222 236 255
222 236 255
222 236 255
222 236 255
222 236 255
222 236 255
222 236 255
222 236 255
222 236 255
222 236 255
222 236 255
222 236 255
222 236 255
222 236 255
222 236 255
222 236 255
222 236 255
222 236 255
222 236 255
222 236 255
222 236 255
222 236 255
222 236 255
222 236 255
222 236 255
222 236 255
222 236 255
222 236 255
222 236 255
222 236 255
222 236 255
222 236 255
222 236 255
222 236 255
222 236 255
222 236 255
222 236 255
222 236 255
222 236 255
222 236 255
222 236 255
222 236 255
222 236 255
222 236 255
222 236 255
222 236 255
222 236 255
222 236 255
222 236 255
222 236 255
222 236 255
222 236 255
222 236 255
222 236 255
222 236 255
222 236 255
222 236 255
222 236 255
222 236 255
222 236 255
222 236 255
222 236 255
222 236 255
222 236 255
222 236 255
222 236 255
222 236 255
222 236 255
222 236 255
222 236 255
222 236 255
222 236 255
222 236 255
222 236 255
222 236 255
222 236 255
222 236 255
222 236 255
222 236 255
222 236 255
222 236 255
222 236 255
222 236 255
222 236 255
222 236 255
222 236 255
222 236 255
222 236 255
222 236 255
222 236 255
222 236 255
222 236 255
222 236 255
222 236 255
222 236 255
222 236 255
222 236 255
222 236 255
222 236 255
222 236 255
222 236 255
222 236 255
222 236 255
222 236 255
222 236 255
222 236 255
222 236 255
222 236 255
222 236 255
222 236 255
222 236 255
222 236 255
222 236 255
222 236 255
222 236 255
222 236 255
222 236 255
222 236 255
222 236 255
222 236 255
222 236 255
222 236 255
222 236 255
222 236 255
222 236 255
222 236 255
222 236 255
222 236 255
222 236 255
208 219 236
152 155 164
89 74 65
87 68 55
88 69 55
87 68 55
85 67 54
87 68 55
87 68 55
87 67 54
86 66 53
86 67 54
85 66 53
86 67 54
87 68 54
84 65 52
89 70 56
87 68 56
105 102 104
144 156 172
133 146 167
121 133 156
118 130 153
118 132 155
113 122 142
130 143 158
133 149 161
130 147 160
134 154 162
131 150 158
127 144 148
124 140 150
118 134 147
119 135 152
121 139 158
126 143 163
123 141 162
121 138 160
125 142 164
124 142 163
124 141 163
122 139 160
122 139 160
121 137 157
118 136 154
119 141 157
116 139 154
119 141 158
121 146 161
119 148 159
113 146 153
127 139 145
131 130 131
131 131 133
127 128 130
127 130 133
127 129 133
127 129 133
131 135 140
120 123 128
122 126 131
123 128 134
122 126 132
120 125 131
123 128 135
118 123 129
122 127 134
119 123 129
122 128 135
119 124 130
124 131 138
120 126 133
123 129 136
122 128 134
123 129 136
121 126 133
121 127 133
120 126 133
123 129 137
121 126 133
120 126 133
120 126 132
122 128 135
123 128 135
127 133 140
122 126 132
125 129 135
125 129 135
124 128 134
121 124 129
125 128 133
122 124 128
127 129 133
126 127 129
130 131 133
127 126 127
130 129 131
139 139 141
200 210 225
222 236 255
222 236 255
222 236 255
222 236 255
222 236 255
222 236 255
222 236 255
222 236 255
222 236 255
222 236 255
222 236 255
222 236 255
222 236 255
222 236 255
222 236 255
222 236 255
222 236 255
222 236 255
222 236 255
222 236 255
222 236 255
222 236 255
222 236 255
222 236 255
222 236 255
222 236 255
222 236 255
222 236 255
222 236 255
222 236 255
222 236 255
222 236 255
222 236 255
222 236 255
222 236 255
222 236 255
222 236 255
222 236 255
222 236 255
222 236 255
222 236 255
222 236 255
222 236 255
222 236 255
222 236 255
222 236 255
222 236 255
222 236 255
222 236 255
222 236 255
222 236 255
222 236 255
222 236 255
222 236 255
222 236 255
222 236 255
222 236 255
222 236 255
222 236 255
222 236 255
222 236 255
222 236 255
222 236 255
222 236 255
222 236 255
222 236 255
222 236 255
222 236 255
222 236 255
222 236 255
222 236 255
222 236 255
222 236 255
222 236 255
222 236 255
222 236 255
222 236 255
222 236 255
222 236 255
222 236 255
222 236 255
222 236 255
222 236 255
222 236 255
222 236 255
222 236 255
222 236 255
222 236 255
222 236 255
222 236 255
222 236 255
222 236 255
222 236 255
222 236 255
222 236 255
222 236 255
222 236 255
222 236 255
222 236 255
222 236 255
222 236 255
222 236 255
222 236 255
222 236 255
222 236 255
222 236 255
222 236 255
222 236 255
222 236 255
222 236 255
222 236 255
222 236 255
222 236 255
222 236 255
222 236 255
222 236 255
222 236 255
222 236 255
222 236 255
222 236 255
222 236 255
222 236 255
222 236 255
222 236 255
222 236 255
222 236 255
222 236 255
222 236 255
222 236 255
222 236 255
222 236 255
222 236 255
222 236 255
222 236 255
222 236 255
222 236 255
222 236 255
222 236 255
222 236 255
222 236 255
213 226 244
161 165 176
93 81 74
83 65 52
82 64 51
88 69 55
83 64 51
87 68 55
82 64 51
86 66 53
87 68 55
84 65 52
86 67 54
87 67 54
85 66 53
86 67 54
86 67 53
90 70 57
108 104 104
139 152 164
137 150 167
127 139 160
117 128 153
115 125 152
120 133 151
133 147 159
132 148 161
136 154 167
133 151 161
123 139 145
124 140 150
122 138 151
124 142 154
125 143 156
123 142 155
121 138 155
120 137 158
118 135 156
122 140 161
126 143 165
122 138 159
127 143 166
123 139 160
124 141 163
122 139 159
118 138 156
114 138 151
114 137 151
122 146 161
116 139 154
122 144 155
129 134 135
126 126 127
133 134 136
130 131 133
126 128 132
125 128 132
129 133 138
126 130 136
123 126 131
122 126 132
122 126 132
121 126 132
121 125 131
124 129 135
118 123 128
121 127 133
122 127 135
120 125 131
121 126 133
122 128 135
124 130 138
123 129 136
122 127 134
123 128 135
121 126 133
122 129 136
122 129 136
121 126 134
117 122 128
122 127 135
121 126 133
120 126 133
123 129 136
123 129 136
121 127 133
125 130 137
120 125 131
126 131 138
124 128 134
123 127 133
122 125 129
123 127 132
126 129 133
125 127 132
131 132 136
130 130 133
134 134 135
134 134 135
134 133 133
178 184 194
219 232 251
222 236 255
222 236 255
222 236 255
222 236 255
222 236 255
222 236 255
222 236 255
222 236 255
222 236 255
222 236 255
222 236 255
222 236 255
222 236 255
222 236 255
222 236 255
222 236 255
222 236 255
222 236 255
222 236 255
222 236 255
222 236 255
222 236 255
222 236 255
222 236 255
222 236 255
222 236 255
222 236 255
222 236 255
222 236 255
222 236 255
222 236 255
222 236 255
222 236 255
222 236 255
222 236 255
222 236 255
222 236 255
222 236 255
222 236 255
222 236 255
222 236 255
222 236 255
222 236 255
222 236 255
222 236 255
222 236 255
222 236 255
222 236 255
222 236 255
222 236 255
222 236 255
222 236 255
222 236 255
222 236 255
222 236 255
222 236 255
222 236 255
222 236 255
222 236 255
222 236 255
222 236 255
222 236 255
222 236 255
222 236 255
222 236 255
222 236 255
222 236 255
222 236 255
222 236 255
222 236 255
222 236 255
222 236 255
222 236 255
222 236 255
222 236 255
222 236 255
222 236 255
222 236 255
222 236 255
222 236 255
222 236 255
222 236 255
222 236 255
222 236 255
222 236 255
222 236 255
222 236 255
222 236 255
222 236 255
222 236 255
222 236 255
222 236 255
222 236 255
222 236 255
222 236 255
222 236 255
222 236 255
222 236 255
222 236 255
222 236 255
222 236 255
222 236 255
222 236 255
222 236 255
222 236 255
222 236 255
222 236 255
222 236 255
222 236 255
222 236 255
222 236 255
222 236 255
222 236 255
222 236 255
222 236 255
222 236 255
222 236 255
222 236 255
222 236 255
222 236 255
222 236 255
222 236 255
222 236 255
222 236 255
222 236 255
222 236 255
222 236 255
222 236 255
222 236 255
222 236 255
222 236 255
222 236 255
222 236 255
222 236 255
222 236 255
222 236 255
222 236 255
219 232 251
182 190 204
103 93 90
84 65 52
85 66 53
88 69 55
83 64 52
88 69 55
88 68 55
84 65 52
87 68 55
84 66 53
85 66 53
84 65 52
86 67 53
87 67 54
84 65 52
85 66 54
103 99 98
143 157 170
139 155 169
122 136 151
119 133 153
118 130 153
112 122 146
124 138 152
138 153 166
133 150 163
134 152 161
129 145 156
125 141 153
128 146 158
130 147 161
128 147 159
125 145 158
126 145 158
125 144 158
117 134 151
123 141 164
117 134 154
120 135 156
125 141 162
116 132 152
127 143 166
124 140 161
123 140 162
119 138 157
116 139 153
117 141 154
117 140 154
119 135 144
135 135 135
128 128 130
128 128 130
124 125 128
125 127 131
123 126 130
125 129 134
118 122 127
122 127 133
121 125 131
125 130 137
125 130 137
122 127 133
123 128 135
121 126 133
124 129 136
120 124 129
122 128 135
127 133 141
123 128 134
120 125 132
123 128 135
121 125 132
122 128 136
120 126 134
123 130 137
123 130 139
122 128 136
121 127 134
123 129 137
123 129 136
122 128 135
125 131 138
122 128 134
120 125 131
120 125 131
123 128 134
124 130 137
122 127 133
122 126 131
124 127 132
126 130 135
123 126 130
126 129 134
127 130 134
127 129 134
127 129 133
129 129 131
131 131 133
130 130 131
129 128 129
155 157 162
217 230 248
222 236 255
222 236 255
222 236 255
222 236 255
222 236 255
222 236 255
222 236 255
222 236 255
222 236 255
222 236 255
222 236 255
222 236 255
222 236 255
222 236 255
222 236 255
222 236 255
222 236 255
222 236 255
222 236 255
222 236 255
222 236 255
222 236 255
222 236 255
222 236 255
222 236 255
222 236 255
222 236 255
222 236 255
222 236 255
222 236 255
222 236 255
222 236 255
222 236 255
222 236 255
222 236 255
222 236 255
222 236 255
222 236 255
222 236 255
222 236 255
222 236 255
222 236 255
222 236 255
222 236 255
222 236 255
222 236 255
222 236 255
222 236 255
222 236 255
222 236 255
222 236 255
222 236 255
222 236 255
222 236 255
222 236 255
222 236 255
222 236 255
222 236 255
222 236 255
222 236 255
222 236 255
222 236 255
222 236 255
222 236 255
222 236 255
222 236 255
222 236 255
222 236 255
222 236 255
222 236 255
222 236 255
222 236 255
222 236 255
222 236 255
222 236 255
222 236 255
222 236 255
222 236 255
222 236 255
222 236 255
222 236 255
222 236 255
222 236 255
222 236 255
222 236 255
222 236 255
222 236 255
222 236 255
222 236 255
222 236 255
222 236 255
222 236 255
222 236 255
222 236 255
222 236 255
222 236 255
222 236 255
222 236 255
222 236 255
222 236 255
222 236 255
222 236 255
222 236 255
222 236 255
222 236 255
222 236 255
222 236 255
222 236 255
222 236 255
222 236 255
222 236 255
222 236 255
222 236 255
222 236 255
222 236 255
222 236 255
222 236 255
222 236 255
222 236 255
222 236 255
222 236 255
222 236 255
222 236 255
222 236 255
222 236 255
222 236 255
222 236 255
222 236 255
222 236 255
222 236 255
222 236 255
222 236 255
222 236 255
222 236 255
222 236 255
222 236 255
200 211 228
132 130 135
88 69 56
83 65 52
83 65 52
81 63 50
82 64 52
84 65 52
85 66 53
88 68 55
86 67 53
84 65 52
85 66 53
84 66 53
83 64 51
85 66 53
85 66 53
102 93 90
139 152 163
141 158 171
126 142 156
119 134 151
123 138 158
118 131 154
118 130 155
121 134 155
123 136 153
123 138 157
124 140 158
128 143 157
138 155 168
136 153 164
132 147 161
136 155 166
131 150 157
128 146 152
119 136 148
114 130 144
118 134 155
115 130 149
114 129 149
111 124 142
117 131 151
113 128 147
112 126 144
113 127 145
114 129 146
118 136 154
114 136 150
123 138 147
130 129 130
131 131 133
126 126 128
128 130 133
127 129 133
126 129 133
126 130 135
121 124 129
119 122 127
127 132 138
123 128 134
120 124 130
125 130 136
124 128 134
126 131 138
124 129 136
121 126 133
121 125 131
122 128 135
125 131 139
120 125 132
121 127 134
122 127 133
122 128 135
124 130 138
119 125 132
121 126 132
123 128 136
124 130 137
121 127 134
123 130 138
120 125 131
122 128 135
124 130 137
126 133 141
119 125 131
123 129 136
122 126 132
121 125 132
127 132 139
123 128 134
125 130 136
125 128 134
125 129 134
125 128 133
127 130 134
123 126 130
123 126 130
127 129 133
127 127 129
134 134 136
132 131 132
130 129 130
143 144 146
211 223 240
222 236 255
222 236 255
222 236 255
222 236 255
222 236 255
222 236 255
222 236 255
222 236 255
222 236 255
222 236 255
222 236 255
222 236 255
222 236 255
222 236 255
222 236 255
222 236 255
222 236 255
222 236 255
222 236 255
222 236 255
222 236 255
222 236 255
222 236 255
222 236 255
222 236 255
222 236 255
222 236 255
222 236 255
222 236 255
222 236 255
222 236 255
222 236 255
222 236 255
222 236 255
222 236 255
222 236 255
222 236 255
222 236 255
222 236 255
222 236 255
222 236 255
222 236 255
222 236 255
222 236 255
222 236 255
222 236 255
222 236 255
222 236 255
222 236 255
222 236 255
222 236 255
222 236 255
222 236 255
222 236 255
222 236 255
222 236 255
222 236 255
222 236 255
222 236 255
222 236 255
222 236 255
222 236 255
222 236 255
222 236 255
222 236 255
222 236 255
222 236 255
222 236 255
222 236 255
222 236 255
222 236 255
222 236 255
222 236 255
222 236 255
222 236 255
222 236 255
222 236 255
222 236 255
222 236 255
222 236 255
222 236 255
222 236 255
222 236 255
222 236 255
222 236 255
222 236 255
222 236 255
222 236 255
222 236 255
222 236 255
222 236 255
222 236 255
222 236 255
222 236 255
222 236 255
222 236 255
222 236 255
222 236 255
222 236 255
222 236 255
222 236 255
222 236 255
222 236 255
222 236 255
222 236 255
222 236 255
222 236 255
222 236 255
222 236 255
222 236 255
222 236 255
222 236 255
222 236 255
222 236 255
222 236 255
222 236 255
222 236 255
222 236 255
222 236 255
222 236 255
222 236 255
222 236 255
222 236 255
222 236 255
222 236 255
222 236 255
222 236 255
222 236 255
222 236 255
222 236 255
222 236 255
222 236 255
222 236 255
222 236 255
217 230 248
167 172 183
92 77 69
86 67 54
84 66 53
86 67 54
85 66 53
83 64 51
81 62 50
85 66 53
82 64 51
84 65 52
84 65 52
83 64 51
86 66 53
87 68 54
81 63 50
89 76 69
133 144 155
137 153 165
130 146 159
115 131 146
116 130 146
122 137 156
121 135 155
120 135 155
122 137 159
121 136 159
122 138 157
127 142 157
135 151 162
138 156 169
133 151 161
130 148 157
129 148 154
127 145 150
133 150 155
115 131 135
111 126 139
112 127 146
110 125 144
113 129 147
111 126 145
114 125 143
117 126 144
117 125 142
115 125 142
113 127 141
116 131 145
117 127 136
134 133 133
127 127 128
126 127 128
127 129 132
124 126 129
126 129 133
124 127 132
123 126 131
121 125 130
122 126 131
125 129 136
122 127 133
121 126 133
120 125 130
122 126 132
124 128 135
125 129 135
123 127 133
124 130 138
124 130 137
121 126 133
123 128 134
125 131 139
125 131 139
124 129 137
120 125 132
120 125 132
124 130 138
122 128 135
125 132 140
123 129 137
121 126 132
123 129 137
127 133 141
124 130 136
124 129 135
124 130 137
125 131 138
125 130 137
124 130 136
123 128 135
124 128 135
127 132 138
128 133 139
127 132 138
124 127 131
129 133 139
129 132 137
129 132 137
128 130 134
126 129 133
127 127 129
127 127 129
132 132 133
133 131 131
143 143 146
210 221 238
222 236 255
222 236 255
222 236 255
222 236 255
222 236 255
222 236 255
222 236 255
222 236 255
222 236 255
222 236 255
222 236 255
222 236 255
222 236 255
222 236 255
222 236 255
222 236 255
222 236 255
222 236 255
222 236 255
222 236 255
222 236 255
222 236 255
222 236 255
222 236 255
222 236 255
222 236 255
222 236 255
222 236 255
222 236 255
222 236 255
222 236 255
222 236 255
222 236 255
222 236 255
222 236 255
222 236 255
222 236 255
222 236 255
222 236 255
222 236 255
222 236 255
222 236 255
222 236 255
222 236 255
222 236 255
222 236 255
222 236 255
222 236 255
222 236 255
222 236 255
222 236 255
222 236 255
222 236 255
222 236 255
222 236 255
222 236 255
222 236 255
222 236 255
222 236 255
222 236 255
222 236 255
222 236 255
222 236 255
222 236 255
222 236 255
222 236 255
222 236 255
222 236 255
222 236 255
222 236 255
222 236 255
222 236 255
222 236 255
222 236 255
222 236 255
222 236 255
222 236 255
222 236 255
222 236 255
222 236 255
222 236 255
222 236 255
222 236 255
222 236 255
222 236 255
222 236 255
222 236 255
222 236 255
222 236 255
222 236 255
222 236 255
222 236 255
222 236 255
222 236 255
222 236 255
222 236 255
222 236 255
222 236 255
222 236 255
222 236 255
222 236 255
222 236 255
222 236 255
222 236 255
222 236 255
222 236 255
222 236 255
222 236 255
222 236 255
222 236 255
222 236 255
222 236 255
222 236 255
222 236 255
222 236 255
222 236 255
222 236 255
222 236 255
222 236 255
222 236 255
222 236 255
222 236 255
222 236 255
222 236 255
222 236 255
222 236 255
222 236 255
222 236 255
222 236 255
222 236 255
222 236 255
222 236 255
222 236 255
198 208 224
113 105 104
78 61 49
83 65 52
84 66 52
83 64 52
82 63 51
84 65 52
83 64 52
85 66 53
85 66 53
86 66 53
82 63 51
86 67 54
86 66 53
80 61 49
84 67 56
123 129 140
145 161 176
133 150 164
114 132 145
108 124 136
115 131 147
117 133 151
118 133 151
124 139 159
121 136 158
120 134 156
122 137 156
128 143 156
135 152 164
129 147 157
128 148 156
125 145 153
125 143 147
127 146 149
116 132 132
106 120 126
109 123 138
104 118 135
111 126 143
112 127 146
116 126 143
119 127 145
127 134 153
124 131 149
120 128 146
119 125 141
119 123 131
130 129 129
128 128 129
130 130 132
122 123 126
124 127 130
127 129 133
122 125 130
127 131 137
124 128 133
125 129 134
123 128 133
120 124 130
122 127 134
121 126 133
122 128 134
125 131 137
122 126 132
121 126 132
125 130 137
120 124 130
123 128 134
125 130 137
125 130 138
124 128 135
126 131 138
124 129 135
126 131 138
126 133 140
124 129 136
122 127 134
122 127 134
121 126 133
121 125 132
122 127 134
123 128 136
120 125 133
123 128 136
121 127 134
122 128 136
125 130 137
120 124 129
121 126 131
124 128 134
124 128 134
126 131 137
125 130 135
126 130 135
125 129 133
126 129 134
124 127 132
130 133 138
127 130 134
122 123 126
128 128 130
129 128 129
130 129 130
131 130 131
143 142 144
209 221 238
222 236 255
222 236 255
222 236 255
222 236 255
222 236 255
222 236 255
222 236 255
222 236 255
222 236 255
222 236 255
222 236 255
222 236 255
222 236 255
222 236 255
222 236 255
222 236 255
222 236 255
222 236 255
222 236 255
222 236 255
222 236 255
222 236 255
222 236 255
222 236 255
222 236 255
222 236 255
222 236 255
222 236 255
222 236 255
222 236 255
222 236 255
222 236 255
222 236 255
222 236 255
222 236 255
222 236 255
222 236 255
222 236 255
222 236 255
222 236 255
222 236 255
222 236 255
222 236 255
222 236 255
222 236 255
222 236 255
222 236 255
222 236 255
222 236 255
222 236 255
222 236 255
222 236 255
222 236 255
222 236 255
222 236 255
222 236 255
222 236 255
222 236 255
222 236 255
222 236 255
222 236 255
222 236 255
222 236 255
222 236 255
222 236 255
222 236 255
222 236 255
222 236 255
222 236 255
222 236 255
222 236 255
222 236 255
222 236 255
222 236 255
222 236 255
222 236 255
222 236 255
222 236 255
222 236 255
222 236 255
222 236 255
222 236 255
222 236 255
222 236 255
222 236 255
222 236 255
222 236 255
222 236 255
222 236 255
222 236 255
222 236 255
222 236 255
222 236 255
222 236 255
222 236 255
222 236 255
222 236 255
222 236 255
222 236 255
222 236 255
222 236 255
222 236 255
222 236 255
222 236 255
222 236 255
222 236 255
222 236 255
222 236 255
222 236 255
222 236 255
222 236 255
222 236 255
222 236 255
222 236 255
222 236 255
222 236 255
222 236 255
222 236 255
222 236 255
222 236 255
222 236 255
222 236 255
222 236 255
222 236 255
222 236 255
222 236 255
222 236 255
222 236 255
222 236 255
222 236 255
222 236 255
218 231 250
164 168 179
89 74 64
80 62 50
80 62 50
84 66 53
81 63 50
84 65 52
81 62 50
79 61 49
81 63 50
82 63 51
79 61 49
83 64 51
81 63 50
81 63 50
85 66 53
102 98 99
134 148 164
131 146 162
117 136 150
110 128 139
118 137 151
125 143 158
113 132 146
122 139 158
118 133 152
123 137 159
124 138 160
126 141 161
132 148 158
133 152 161
125 143 153
126 145 152
127 146 150
127 145 146
122 139 137
112 129 128
110 126 133
109 125 134
110 124 140
111 127 145
110 124 143
118 127 145
125 132 151
125 132 150
124 128 145
128 135 153
122 124 134
129 128 128
126 126 127
129 130 132
131 133 136
127 129 133
124 126 130
121 124 128
127 130 134
125 128 133
125 129 134
126 131 136
125 130 136
123 128 134
122 126 132
125 131 138
120 125 131
122 127 134
124 129 135
125 130 136
125 129 136
124 128 134
125 130 136
127 133 139
125 130 137
126 132 139
125 131 138
124 129 137
121 125 132
120 124 131
122 127 134
122 127 134
122 127 134
123 128 135
123 128 135
125 131 138
122 127 133
122 127 134
122 127 134
120 124 130
126 132 140
120 125 132
120 125 132
121 126 133
122 127 133
127 131 137
129 134 140
126 130 135
126 130 136
125 129 134
125 129 133
129 131 135
129 132 136
130 132 136
125 126 130
126 128 131
130 130 133
132 131 132
131 129 130
134 132 132
149 149 151
213 225 242
222 236 255
222 236 255
222 236 255
222 236 255
222 236 255
222 236 255
222 236 255
222 236 255
222 236 255
222 236 255
222 236 255
222 236 255
222 236 255
222 236 255
222 236 255
222 236 255
222 236 255
222 236 255
222 236 255
222 236 255
222 236 255
222 236 255
222 236 255
222 236 255
222 236 255
222 236 255
222 236 255
222 236 255
222 236 255
222 236 255
222 236 255
222 236 255
222 236 255
222 236 255
222 236 255
222 236 255
222 236 255
222 236 255
222 236 255
222 236 255
222 236 255
222 236 255
222 236 255
222 236 255
222 236 255
222 236 255
222 236 255
222 236 255
222 236 255
222 236 255
222 236 255
222 236 255
222 236 255
223 236 255
222 236 255
223 236 255
223 236 255
222 236 255
223 236 255
223 236 255
223 236 255
223 236 255
223 236 255
223 236 255
223 236 255
223 236 255
223 236 255
223 236 255
223 236 255
223 236 255
223 236 255
223 236 255
223 236 255
223 236 255
223 236 255
223 236 255
223 236 255
223 236 255
223 236 255
223 236 255
223 236 255
223 236 255
223 236 255
223 236 255
223 236 255
223 236 255
223 236 255
223 236 255
223 236 255
223 236 255
223 236 255
223 236 255
223 236 255
223 236 255
223 236 255
223 236 255
223 236 255
223 236 255
223 236 255
223 236 255
223 236 255
223 236 255
223 236 255
223 236 255
223 236 255
223 236 255
223 236 255
223 236 255
223 236 255
223 236 255
223 236 255
223 236 255
223 236 255
223 236 255
223 236 255
223 236 255
223 236 255
223 236 255
223 236 255
223 236 255
223 236 255
223 236 255
223 236 255
223 236 255
223 236 255
223 236 255
223 236 255
223 236 255
223 236 255
223 236 255
204 216 232
127 123 126
84 65 52
82 64 51
81 63 50
84 66 52
84 65 52
82 63 51
83 64 51
82 64 51
83 64 51
81 62 50
84 65 52
82 63 51
81 63 50
81 63 50
87 72 65
134 144 158
133 149 166
125 144 159
108 130 141
111 131 143
116 134 148
116 133 148
115 134 148
121 137 156
117 132 150
122 138 158
120 134 155
114 128 146
117 131 148
129 145 157
128 146 153
128 144 147
132 148 148
128 145 141
134 152 149
133 152 151
122 139 141
116 132 140
113 129 146
110 126 145
105 119 137
119 127 144
121 128 144
127 131 149
126 130 147
121 126 139
130 128 128
131 130 131
128 127 129
128 129 131
129 130 133
120 122 125
124 126 130
127 130 135
125 128 133
126 129 134
122 126 131
120 124 129
124 128 133
123 128 134
124 129 136
121 127 133
120 125 132
123 129 135
124 129 135
124 128 134
129 133 140
123 127 132
126 130 135
125 130 136
126 130 136
123 128 136
123 128 134
123 128 135
126 131 137
122 127 133
124 130 137
123 127 133
126 131 139
123 128 134
124 129 136
126 132 140
124 129 136
125 130 136
124 129 135
123 127 134
125 131 138
125 130 137
125 130 137
120 124 130
126 131 138
120 124 130
121 126 131
128 132 137
123 126 130
127 130 135
128 133 138
127 130 135
129 131 135
129 131 135
127 128 130
129 130 133
127 129 132
133 133 135
131 130 131
135 134 135
134 133 132
155 156 160
215 227 245
223 236 255
223 236 255
223 236 255
223 236 255
223 236 255
223 236 255
223 236 255
223 236 255
223 236 255
223 236 255
223 236 255
223 236 255
223 236 255
223 236 255
223 236 255
223 236 255
223 236 255
223 236 255
223 236 255
223 236 255
223 236 255
223 236 255
223 236 255
223 236 255
223 236 255
223 236 255
223 236 255
223 236 255
223 236 255
223 236 255
223 236 255
223 236 255
223 236 255
223 236 255
223 236 255
223 236 255
223 236 255
223 236 255
223 236 255
223 236 255
223 236 255
223 236 255
223 236 255
223 236 255
223 236 255
223 236 255
223 236 255
223 236 255
223 236 255
222 236 255
223 236 255
223 236 255
223 236 255
223 236 255
223 236 255
223 236 255
223 236 255
223 236 255
223 236 255
223 236 255
223 236 255
223 236 255
223 236 255
223 236 255
223 236 255
223 236 255
223 236 255
223 236 255
223 236 255
223 236 255
223 236 255
223 236 255
223 236 255
223 236 255
223 236 255
223 236 255
223 236 255
223 236 255
223 236 255
223 236 255
223 236 255
223 236 255
223 236 255
223 236 255
223 236 255
223 236 255
223 236 255
223 236 255
223 236 255
223 236 255
223 236 255
223 236 255
223 236 255
223 236 255
223 236 255
223 236 255
223 236 255
223 236 255
223 236 255
223 236 255
223 236 255
223 236 255
223 236 255
223 236 255
223 236 255
223 236 255
223 236 255
223 236 255
223 236 255
223 236 255
223 236 255
223 236 255
223 236 255
223 236 255
223 236 255
223 236 255
223 236 255
223 236 255
223 236 255
223 236 255
223 236 255
223 236 255
223 236 255
223 236 255
223 236 255
223 236 255
223 236 255
223 236 255
222 236 255
181 189 202
98 88 84
82 63 51
85 65 52
80 62 49
79 62 49
85 66 52
76 59 47
83 64 51
79 61 49
82 64 51
85 65 52
80 62 50
81 63 50
81 63 50
79 60 48
106 106 113
141 155 173
132 149 165
117 137 150
110 130 140
112 131 144
117 135 149
109 128 141
121 138 155
138 155 175
135 152 171
126 141 160
116 129 147
112 126 145
117 131 152
113 127 145
117 131 142
127 143 144
134 151 155
127 145 150
132 150 155
129 148 149
123 139 141
110 125 133
105 120 136
111 125 144
102 115 131
107 118 135
123 126 142
122 124 140
121 124 138
132 131 132
126 124 125
126 125 127
127 128 129
129 130 133
125 127 130
125 127 131
127 130 134
127 130 134
125 128 133
125 129 134
126 130 136
125 129 135
122 126 131
124 129 136
123 128 134
120 125 131
126 132 139
122 128 134
121 125 131
123 127 133
128 132 139
129 134 141
124 128 134
122 125 131
123 126 131
124 128 135
125 131 138
124 129 136
126 132 140
125 130 137
125 131 138
124 129 136
123 127 134
121 126 132
124 129 136
124 130 137
124 128 134
123 127 134
127 132 139
124 129 136
123 126 132
124 128 133
126 132 138
125 129 135
123 127 133
123 127 133
124 128 134
120 123 128
119 123 128
126 128 133
128 130 135
129 132 137
130 133 137
129 131 136
130 132 135
127 128 131
126 128 131
130 132 135
131 132 134
134 134 135
133 132 132
134 132 131
166 168 174
220 234 253
223 236 255
223 236 255
223 236 255
223 236 255
223 236 255
223 236 255
223 236 255
223 236 255
223 236 255
223 236 255
223 236 255
223 236 255
223 236 255
223 236 255
223 236 255
223 236 255
223 236 255
223 236 255
223 236 255
223 236 255
223 236 255
223 236 255
223 236 255
223 236 255
223 236 255
223 236 255
223 236 255
223 236 255
223 236 255
223 236 255
223 236 255
223 236 255
223 236 255
223 236 255
223 236 255
223 236 255
223 236 255
223 236 255
223 236 255
223 236 255
223 236 255
223 236 255
223 236 255
223 236 255
223 236 255
223 236 255
223 236 255
223 236 255
223 236 255
223 236 255
223 236 255
223 236 255
223 236 255
223 236 255
223 236 255
223 236 255
223 236 255
223 236 255
223 236 255
223 236 255
223 236 255
223 236 255
223 236 255
223 236 255
223 236 255
223 236 255
223 236 255
223 236 255
223 236 255
223 236 255
223 236 255
223 236 255
223 236 255
223 236 255
223 236 255
223 236 255
223 236 255
223 236 255
223 236 255
223 236 255
223 236 255
223 236 255
223 236 255
223 236 255
223 236 255
223 236 255
223 236 255
223 236 255
223 236 255
223 236 255
223 236 255
223 236 255
223 236 255
223 236 255
223 236 255
223 236 255
223 236 255
223 236 255
223 236 255
223 236 255
223 236 255
223 236 255
223 236 255
223 236 255
223 236 255
223 236 255
223 236 255
223 236 255
223 236 255
223 236 255
223 236 255
223 236 255
223 236 255
223 236 255
223 236 255
223 236 255
223 236 255
223 236 255
223 236 255
223 236 255
223 236 255
223 236 255
223 236 255
223 236 255
223 236 255
223 236 255
223 236 255
219 232 251
158 161 171
86 70 60
80 63 50
80 62 49
84 65 52
84 65 52
82 64 51
80 61 49
80 62 50
78 60 48
77 59 47
81 63 51
79 61 49
83 64 51
81 62 50
88 74 68
139 150 166
138 154 172
124 142 157
112 132 145
113 135 147
117 136 151
113 133 146
116 135 149
118 134 151
125 141 159
121 141 156
115 131 147
111 126 145
109 123 142
110 122 141
107 118 138
113 125 134
134 150 155
135 154 153
132 152 154
133 152 155
127 144 148
120 135 144
106 119 131
108 122 139
105 120 137
97 111 125
97 110 123
111 118 132
124 127 143
120 119 120
132 130 131
132 131 133
129 129 131
132 133 136
123 124 127
124 126 129
127 129 133
124 126 130
126 129 134
124 127 132
125 128 132
126 130 135
120 123 128
121 125 130
123 127 133
123 128 134
125 130 136
125 130 136
122 126 131
125 130 137
127 132 138
127 131 138
124 128 134
124 128 135
124 128 134
123 127 132
124 128 135
126 131 138
124 128 135
122 125 131
127 132 139
123 127 133
127 133 140
126 131 138
125 130 137
125 130 137
123 127 133
125 129 136
124 129 136
126 131 138
125 130 136
124 128 134
125 129 135
127 132 138
125 128 134
128 133 139
126 130 137
126 131 137
124 127 132
122 126 131
123 127 133
122 126 132
126 129 134
126 128 132
124 126 129
127 129 133
130 131 134
126 126 128
129 129 132
132 133 135
131 131 133
134 133 133
139 137 138
127 125 125
183 189 199
223 236 255
223 236 255
223 236 255
223 236 255
223 236 255
223 236 255
223 236 255
223 236 255
223 236 255
223 236 255
223 236 255
223 236 255
223 236 255
223 236 255
223 236 255
223 236 255
223 236 255
223 236 255
223 236 255
223 236 255
223 236 255
223 236 255
223 236 255
223 236 255
223 236 255
223 236 255
223 236 255
223 236 255
223 236 255
223 236 255
223 236 255
223 236 255
223 236 255
223 236 255
223 236 255
223 236 255
223 236 255
223 236 255
223 236 255
223 236 255
223 236 255
223 236 255
223 236 255
223 236 255
223 236 255
223 236 255
223 236 255
223 236 255
223 236 255
223 236 255
223 236 255
223 236 255
223 236 255
223 236 255
223 236 255
223 236 255
223 236 255
223 236 255
223 236 255
223 236 255
223 236 255
223 236 255
223 236 255
223 236 255
223 236 255
223 236 255
223 236 255
223 236 255
223 236 255
223 236 255
223 236 255
223 236 255
223 236 255
223 236 255
223 236 255
223 236 255
223 236 255
223 236 255
223 236 255
223 236 255
223 236 255
223 236 255
223 236 255
223 236 255
223 236 255
223 236 255
223 236 255
223 236 255
223 236 255
223 236 255
223 236 255
223 236 255
223 236 255
223 236 255
223 236 255
223 236 255
223 236 255
223 236 255
223 236 255
223 236 255
223 236 255
223 236 255
223 236 255
223 236 255
223 236 255
223 236 255
223 236 255
223 236 255
223 236 255
223 236 255
223 236 255
223 236 255
223 236 255
223 236 255
223 236 255
223 236 255
223 236 255
223 236 255
223 236 255
223 236 255
223 236 255
223 236 255
223 236 255
223 236 255
223 236 255
223 236 255
223 236 255
208 220 237
133 134 140
75 58 46
78 60 48
79 62 49
81 63 50
82 64 51
78 60 48
81 63 50
81 62 50
79 61 49
82 63 50
81 63 50
79 61 48
75 57 45
82 64 51
104 103 109
146 160 180
137 152 171
124 143 158
116 135 150
120 139 156
119 139 155
114 134 148
122 141 157
119 136 151
120 138 154
116 132 148
112 129 145
112 130 147
108 122 140
112 122 142
109 116 138
116 124 141
128 140 146
131 147 153
128 147 151
123 141 148
120 136 146
112 126 140
111 126 142
107 123 138
102 120 133
97 113 126
106 116 128
108 116 127
111 113 118
130 128 128
132 131 132
127 126 127
127 128 130
129 131 134
129 131 134
123 125 128
125 127 131
125 127 131
127 130 134
124 128 132
126 129 134
124 127 132
127 132 137
122 126 131
121 125 129
122 125 130
124 129 135
124 129 136
125 130 136
122 127 133
120 126 133
125 130 136
125 129 135
126 130 137
126 130 137
125 129 135
126 131 137
126 131 138
121 125 131
125 130 136
123 127 133
122 126 132
124 129 136
123 127 133
127 132 139
126 131 138
124 129 135
126 130 136
126 131 138
127 133 139
126 130 137
127 131 137
127 132 139
127 131 137
126 129 135
125 128 134
125 129 134
122 126 131
126 130 135
123 126 131
124 128 134
124 128 133
121 124 130
125 128 133
129 131 134
130 133 137
130 131 134
129 130 132
131 132 134
127 128 130
128 128 130
132 132 134
132 131 132
133 130 129
135 133 132
207 218 234
223 236 255
223 236 255
223 236 255
223 236 255
223 236 255
223 236 255
223 236 255
223 236 255
223 236 255
223 236 255
223 236 255
223 236 255
223 236 255
223 236 255
223 236 255
223 236 255
223 236 255
223 236 255
223 236 255
223 236 255
223 236 255
223 236 255
223 236 255
223 236 255
223 236 255
223 236 255
223 236 255
223 236 255
223 236 255
223 236 255
223 236 255
223 236 255
223 236 255
223 236 255
223 236 255
223 236 255
223 236 255
223 236 255
223 236 255
223 236 255
223 236 255
223 236 255
223 236 255
223 236 255
223 236 255
223 236 255
223 236 255
223 236 255
223 236 255
223 236 255
223 236 255
223 236 255
223 236 255
223 236 255
223 236 255
223 236 255
223 236 255
223 236 255
223 236 255
223 236 255
223 236 255
223 236 255
223 236 255
223 236 255
223 236 255
223 236 255
223 236 255
223 236 255
223 236 255
223 236 255
223 236 255
223 236 255
223 236 255
223 236 255
223 236 255
223 236 255
223 236 255
223 236 255
223 236 255
223 236 255
223 236 255
223 236 255
223 236 255
223 236 255
223 236 255
223 236 255
223 236 255
223 236 255
223 236 255
223 236 255
223 236 255
223 236 255
223 236 255
223 236 255
223 236 255
222 236 255
223 236 255
223 236 255
223 236 255
223 236 255
223 236 255
223 236 255
223 236 255
223 236 255
223 236 255
222 236 255
223 236 255
222 236 255
222 236 255
222 236 255
222 236 255
222 236 255
222 235 254
222 236 255
222 236 255
222 236 254
222 235 254
222 236 255
222 235 254
222 236 255
222 235 254
222 236 255
221 234 253
221 235 254
222 235 254
222 235 254
199 209 225
111 103 102
76 59 47
80 62 49
77 59 47
77 59 47
81 63 50
80 62 49
76 58 46
82 63 50
81 63 50
80 62 49
76 59 47
79 61 49
80 62 49
83 66 56
128 136 151
141 155 175
131 144 163
125 141 158
126 142 161
119 137 153
121 139 156
127 145 163
126 142 160
124 142 157
121 138 155
114 131 147
105 122 137
105 122 137
117 130 149
124 132 155
112 119 142
110 114 138
111 118 138
121 131 145
122 138 150
120 135 147
112 127 142
114 128 146
110 126 144
100 116 129
95 112 122
96 112 121
105 115 124
109 111 118
128 127 126
134 133 134
128 128 129
131 131 133
124 125 127
125 126 129
130 131 134
124 126 129
129 131 135
129 132 136
129 132 137
124 127 131
127 130 135
125 129 134
125 128 133
126 130 135
128 133 139
125 129 134
123 126 131
127 132 137
124 130 137
117 123 130
124 130 137
123 128 135
125 130 136
127 131 137
124 128 134
125 128 134
124 128 134
125 130 136
122 126 132
122 125 131
126 130 136
124 126 131
124 128 134
129 134 141
127 131 138
124 128 134
125 129 135
125 129 135
123 126 132
123 126 132
126 130 136
125 128 132
129 133 139
124 127 132
127 131 137
125 128 133
125 128 133
125 129 134
124 128 133
127 130 135
128 132 137
123 127 132
122 125 130
127 131 136
125 127 131
128 129 133
128 130 133
131 132 135
133 134 136
130 131 133
130 130 133
130 130 131
131 130 131
132 130 130
136 134 134
153 153 157
221 234 252
223 236 255
223 236 255
223 236 255
223 236 255
223 236 255
223 236 255
223 236 255
223 236 255
222 236 255
223 236 255
223 236 255
223 236 255
223 236 255
223 236 255
223 236 255
223 236 255
223 236 255
223 236 255
223 236 255
223 236 255
223 236 255
223 236 255
223 236 255
223 236 255
223 236 255
223 236 255
223 236 255
223 236 255
223 236 255
223 236 255
223 236 255
223 236 255
223 236 255
223 236 255
223 236 255
223 236 255
223 236 255
223 236 255
223 236 255
223 236 255
223 236 255
223 236 255
223 236 255
223 236 255
223 236 255
223 236 255
223 236 255
223 236 255
221 235 254
221 235 254
221 235 254
222 235 254
222 235 254
221 235 254
221 235 254
221 235 254
220 234 253
221 234 253
220 234 253
220 233 252
219 232 251
220 234 253
219 232 251
220 233 252
219 232 251
218 232 251
217 231 250
219 232 251
220 234 253
217 231 250
218 231 250
218 231 250
215 229 248
216 230 249
217 230 249
215 229 248
215 228 247
214 228 247
216 230 249
214 227 246
214 228 247
214 227 246
213 227 246
212 226 245
211 225 243
213 227 246
213 227 246
211 225 244
211 225 244
210 224 243
212 225 244
210 224 243
211 225 244
212 225 244
210 223 242
212 226 245
210 224 243
211 224 243
210 224 243
207 221 240
208 222 241
209 222 241
208 222 241
208 221 240
210 224 243
205 219 238
207 220 239
206 220 239
209 222 241
205 218 237
208 221 240
203 217 237
209 222 241
205 219 238
204 218 237
204 218 237
203 217 236
202 216 234
202 216 235
206 220 239
201 215 234
202 216 235
203 216 235
199 213 232
204 217 237
169 177 191
101 91 88
76 59 47
77 60 48
79 61 48
78 61 48
78 60 48
77 60 47
77 60 47
78 60 48
82 64 51
82 63 50
78 60 48
77 59 47
79 61 49
91 84 84
143 155 172
136 149 168
127 141 159
121 135 153
124 137 157
125 138 159
123 140 159
127 142 162
135 151 172
123 141 159
115 133 149
110 128 143
108 126 141
112 127 144
125 132 153
117 123 144
125 129 152
118 120 144
108 115 135
106 114 133
114 127 145
114 128 147
118 132 149
115 129 147
111 127 142
90 108 116
93 110 120
91 109 113
107 111 118
120 118 118
130 128 128
128 127 128
132 133 134
130 131 133
126 127 129
122 123 126
129 131 134
127 129 132
126 128 132
129 131 135
126 128 132
126 129 133
125 128 133
128 131 137
127 131 136
130 134 140
124 128 133
127 131 137
126 130 136
120 125 131
122 127 133
123 129 135
121 126 132
123 129 136
125 128 134
123 126 132
126 130 136
122 126 132
125 129 136
126 131 138
126 131 137
124 129 135
128 133 141
126 131 138
126 131 138
127 131 138
124 129 135
123 127 132
124 127 132
127 132 139
129 133 140
125 128 134
127 131 137
128 132 138
125 128 133
124 127 133
126 130 135
126 129 134
126 129 134
126 128 133
129 133 138
129 132 137
123 126 131
125 128 132
123 126 131
127 130 135
121 123 127
127 129 133
128 129 132
130 131 133
132 132 135
130 130 132
135 136 138
131 131 132
130 130 131
132 131 132
132 129 128
130 128 127
175 181 191
209 223 242
211 225 243
212 225 244
209 222 241
213 227 246
215 228 247
211 225 244
213 227 246
213 227 246
213 227 246
212 226 245
213 227 246
215 229 248
215 229 248
214 227 246
215 229 248
213 226 245
214 228 247
216 229 248
216 230 249
215 229 248
215 229 248
216 229 248
218 232 251
216 229 248
217 231 250
217 230 249
217 230 249
218 232 251
219 233 251
219 233 252
218 231 250
220 234 253
220 233 252
219 233 252
221 234 253
221 235 254
220 234 253
221 235 254
221 235 254
221 235 254
221 234 253
221 235 254
222 235 254
222 236 255
222 236 255
221 235 254
222 236 255
202 216 235
201 215 234
204 217 236
199 213 232
202 216 235
201 214 233
202 215 234
199 213 231
199 213 232
198 211 230
199 212 231
199 212 231
196 210 229
201 214 233
193 207 226
195 208 227
193 207 226
195 209 228
195 209 228
194 207 227
195 209 228
190 204 223
189 203 222
195 209 228
192 205 224
188 201 220
193 207 226
188 202 221
189 202 221
189 203 222
187 200 218
188 202 221
183 197 216
184 198 217
189 203 222
182 196 215
185 199 218
183 197 216
185 199 218
183 197 216
184 198 218
178 192 211
178 192 212
179 193 212
176 190 209
180 194 213
181 195 214
176 190 210
177 191 210
181 195 214
178 191 210
177 191 211
173 187 207
179 193 213
175 189 208
176 190 209
173 187 206
174 188 207
176 190 209
172 186 205
171 185 205
170 184 203
169 183 202
171 185 204
171 185 204
171 185 204
168 182 202
172 186 206
169 183 202
175 189 209
168 182 202
169 184 203
171 185 205
171 186 205
164 179 198
167 181 201
170 184 204
147 156 170
85 72 66
75 59 47
77 60 47
78 60 48
77 60 48
77 60 48
77 59 47
77 60 47
76 59 47
82 63 50
78 60 48
78 59 47
79 60 48
78 61 49
108 110 119
130 143 159
131 143 159
128 143 160
122 140 155
117 135 151
114 130 146
125 140 161
131 145 167
136 152 174
124 140 159
129 149 168
119 140 156
107 126 141
113 126 144
127 129 154
128 131 157
126 128 156
116 121 143
102 104 124
109 111 134
112 121 143
110 120 137
115 129 147
115 130 148
113 128 145
99 117 128
80 100 102
86 102 103
109 109 110
136 134 133
130 129 129
130 130 131
129 129 130
129 129 131
127 128 130
132 133 136
129 131 134
126 127 129
125 127 130
129 131 135
128 131 135
127 131 135
127 130 135
125 128 132
129 132 137
125 128 133
127 130 135
127 131 136
120 124 129
122 127 132
120 124 130
126 131 138
125 130 136
124 129 136
127 131 137
122 126 131
124 129 136
121 126 131
124 128 135
128 133 140
125 131 137
125 131 137
123 128 134
122 126 132
125 130 136
121 125 131
121 125 131
124 129 135
124 129 135
127 132 138
127 132 138
123 127 133
127 132 138
122 126 131
123 127 132
124 128 133
129 133 140
125 128 133
129 134 140
123 126 130
131 135 140
127 130 134
128 131 136
126 129 133
126 129 133
126 128 132
125 127 131
126 128 133
126 129 133
131 132 135
129 129 131
130 130 131
133 133 135
127 126 127
127 127 128
130 129 131
131 130 131
136 133 132
136 134 134
173 185 202
178 192 211
182 195 214
180 193 212
178 192 211
179 193 212
182 197 216
181 195 214
180 194 214
185 199 219
184 198 217
181 195 214
183 197 216
180 194 213
185 199 218
187 201 220
185 199 218
185 199 219
190 203 222
187 201 220
182 196 215
189 203 222
189 203 222
193 207 226
186 200 219
191 204 223
192 206 225
190 204 223
194 208 227
196 210 229
195 209 228
195 209 228
197 211 230
195 209 228
195 209 228
197 211 230
199 212 231
198 212 231
199 212 231
195 209 228
195 209 228
200 214 233
197 211 229
201 215 234
201 215 234
201 215 234
203 217 236
203 216 235
170 184 204
170 184 204
169 183 202
167 181 201
164 178 198
163 177 196
164 178 198
160 175 195
166 181 201
158 173 193
163 177 197
160 174 194
160 175 195
162 176 196
160 174 194
161 176 196
158 172 192
153 168 188
157 172 191
158 173 193
160 175 195
156 170 190
152 166 187
152 166 186
151 166 186
152 166 186
155 170 190
148 163 184
147 161 181
149 164 183
145 160 181
145 160 180
149 163 183
147 161 182
146 161 181
147 162 182
143 158 178
147 162 182
147 162 182
144 159 179
139 153 173
144 159 179
149 164 185
147 161 181
144 159 180
139 155 175
141 156 176
140 155 175
139 154 174
139 155 175
140 155 176
138 154 174
138 153 173
139 154 175
139 154 174
138 153 173
140 156 176
135 150 171
134 149 170
136 152 172
138 153 173
131 146 167
139 154 175
134 149 169
133 148 169
135 151 172
133 148 168
131 147 168
134 149 170
134 150 172
134 149 170
131 146 167
129 144 165
134 150 171
128 144 164
134 150 170
135 151 172
111 118 131
81 66 58
79 61 49
72 55 44
75 58 46
74 57 46
76 58 46
76 59 46
73 56 44
79 61 48
75 58 46
75 58 46
77 59 47
73 56 44
79 62 52
133 141 154
126 138 152
131 144 161
126 143 158
118 137 150
117 136 149
117 135 148
132 147 167
132 147 168
134 149 170
129 145 163
131 148 167
124 143 158
122 138 156
119 133 153
128 129 157
130 134 163
125 129 158
112 113 138
111 106 133
111 113 138
108 113 136
107 114 135
111 124 143
109 122 141
114 128 148
99 115 127
85 109 111
85 98 98
121 119 118
129 128 128
130 130 131
130 130 131
124 124 126
132 133 135
129 129 131
130 131 134
131 133 136
127 128 132
126 128 131
127 130 134
127 130 133
127 129 133
128 131 135
129 132 136
132 136 141
127 130 135
127 130 134
123 127 133
119 123 128
123 127 132
124 128 133
123 127 133
124 129 135
126 130 137
124 129 135
122 127 132
122 127 133
125 130 137
122 127 133
121 126 132
122 127 133
122 127 133
122 127 133
124 129 135
124 129 135
124 130 136
121 125 131
123 128 134
123 127 133
125 130 136
122 126 132
121 124 129
128 133 140
124 128 134
126 131 136
123 127 131
125 129 135
125 129 134
124 126 131
126 130 135
129 132 137
129 133 138
125 127 131
127 129 134
126 129 132
124 126 130
124 127 131
126 128 132
128 130 134
130 132 136
129 130 132
132 132 134
131 131 132
134 134 135
132 132 133
128 128 129
132 131 131
131 129 129
136 134 133
143 146 153
145 160 181
143 158 178
139 154 175
141 156 176
145 160 180
144 159 179
143 158 178
149 164 184
143 158 179
143 158 178
147 163 184
147 162 182
146 162 182
142 158 179
150 165 185
151 166 186
147 162 182
151 166 186
154 169 189
149 164 184
152 167 187
150 164 184
156 171 190
154 169 189
152 167 186
154 169 188
155 170 191
156 171 190
158 173 193
157 172 191
157 171 191
153 168 189
163 177 197
159 173 193
162 176 196
161 176 195
159 173 193
163 177 197
162 177 196
163 177 196
160 174 194
165 179 198
168 182 201
165 180 199
168 182 202
167 181 200
169 183 203
132 148 169
125 140 160
130 146 167
131 147 167
130 145 166
129 144 165
126 141 162
129 145 166
127 142 163
128 144 165
127 143 164
128 145 166
126 142 163
125 141 162
125 141 162
124 140 161
124 141 162
126 143 164
121 136 157
123 140 161
125 142 163
125 141 163
122 138 159
124 140 161
125 142 163
120 136 156
121 137 158
122 138 160
120 136 157
122 139 160
122 138 160
123 140 161
120 136 158
123 140 161
121 137 158
119 135 156
121 137 159
120 136 157
121 138 159
121 137 158
121 138 159
119 136 157
122 138 160
122 138 160
117 134 155
121 138 159
122 138 159
119 135 156
122 139 161
120 136 158
119 136 157
122 138 160
121 137 158
121 138 159
120 136 157
119 136 157
121 138 159
120 136 158
121 137 158
120 137 159
118 134 155
118 134 155
120 136 158
120 136 158
122 138 160
120 136 157
120 137 158
119 135 157
117 133 153
122 139 160
122 139 160
120 136 157
122 138 159
120 137 159
122 138 160
120 137 158
123 140 161
104 111 124
81 64 53
75 58 46
74 57 45
79 61 48
78 60 48
76 59 47
74 57 45
75 58 46
78 60 47
79 60 48
76 59 46
72 56 44
76 59 47
87 76 73
137 147 162
127 141 154
125 138 153
122 139 151
118 138 147
121 141 154
116 134 147
128 143 161
136 152 172
127 141 160
114 129 146
118 133 151
114 129 145
124 139 159
123 138 159
141 149 175
133 138 167
126 131 159
124 121 150
115 113 150
117 118 151
114 118 141
101 103 123
110 120 139
114 128 147
115 130 149
110 126 142
90 111 114
101 108 106
133 131 131
134 133 133
126 125 126
129 128 130
131 131 133
128 128 130
126 126 128
130 131 134
128 129 131
130 132 135
129 130 134
130 132 135
126 127 130
128 130 134
127 129 133
127 129 132
129 132 136
128 131 135
121 125 130
123 127 132
122 125 129
125 129 135
124 128 133
127 132 138
122 126 132
126 130 135
129 133 139
124 129 135
124 128 134
124 128 134
124 129 134
124 129 135
123 127 133
122 127 133
124 129 135
125 130 136
123 128 134
127 132 139
121 126 131
125 130 136
126 131 137
126 131 137
126 131 137
127 133 139
124 129 134
126 130 136
123 126 131
126 130 136
124 128 133
127 131 136
131 135 141
126 129 134
125 128 132
129 132 137
128 131 135
125 127 131
129 131 135
128 131 135
126 128 131
129 132 136
131 133 136
125 127 130
126 127 130
134 134 136
133 133 135
134 134 135
135 134 135
130 129 131
126 125 125
133 132 133
134 131 129
136 133 131
122 134 150
122 138 159
120 136 157
121 138 159
121 138 159
121 137 159
122 138 159
117 133 154
121 138 159
119 136 157
122 139 160
121 137 159
122 139 160
122 139 160
117 133 154
119 135 156
122 138 159
121 137 158
125 141 163
123 139 160
123 139 161
122 138 159
124 140 161
124 140 161
122 138 158
124 140 160
123 139 160
122 138 159
125 141 162
123 139 160
127 144 165
127 143 164
125 141 162
127 143 164
129 145 167
126 141 162
120 136 156
125 141 162
127 143 164
127 142 162
129 145 165
128 144 165
130 145 167
129 144 165
131 147 167
130 145 166
129 145 165
119 135 155
120 136 157
120 137 158
123 140 161
120 136 157
120 136 157
121 137 158
121 138 159
120 136 157
120 135 156
123 140 162
120 136 158
119 135 156
118 134 155
122 139 161
123 139 161
117 133 154
122 139 161
121 138 159
121 137 158
123 140 162
119 136 157
120 136 158
121 137 158
121 138 159
121 137 158
121 138 159
121 137 158
122 139 160
119 135 156
118 134 155
122 139 160
119 135 156
121 137 159
121 138 160
121 138 159
119 135 156
122 139 161
123 140 162
121 137 158
120 136 157
119 136 157
121 138 159
123 140 161
121 138 159
120 137 158
119 136 157
121 137 158
121 137 159
122 138 160
120 136 158
122 138 160
120 136 158
121 137 159
123 139 161
121 137 158
121 137 159
120 136 157
120 136 157
121 137 159
121 137 159
120 136 157
118 134 155
118 134 155
118 134 156
120 136 158
118 134 155
120 136 158
121 138 159
120 137 158
121 138 160
122 139 160
118 134 155
119 135 156
120 136 157
119 135 157
120 136 157
102 108 121
76 61 52
77 59 47
76 59 46
79 61 49
76 59 46
74 57 45
77 59 47
76 59 47
75 57 45
74 57 45
78 59 47
77 59 47
76 59 46
96 91 91
138 148 166
128 143 156
135 147 162
127 144 152
124 145 154
125 146 154
113 133 143
131 146 164
137 152 171
129 144 162
113 130 146
117 136 152
117 133 149
111 124 141
112 124 142
114 127 144
124 136 159
111 120 153
111 115 156
115 116 157
109 108 150
115 112 140
117 112 140
111 116 138
115 128 148
115 129 148
112 128 144
90 109 112
126 124 123
129 128 128
127 125 126
131 130 131
130 129 130
131 131 132
132 133 134
130 130 133
134 135 137
133 134 137
130 132 135
129 130 133
129 131 134
129 130 133
129 130 134
129 131 134
127 128 131
131 133 137
124 126 131
121 124 128
126 130 135
126 129 134
126 130 135
126 129 133
124 128 133
127 131 136
126 130 135
123 127 131
126 130 136
126 130 136
123 128 133
125 129 135
120 124 129
123 127 132
128 133 139
124 128 134
125 129 135
127 131 137
123 127 133
125 129 135
122 127 132
128 133 139
124 128 133
124 128 134
124 128 134
125 129 134
123 127 132
126 130 135
129 133 139
127 130 135
129 133 138
129 132 138
127 130 135
129 131 135
128 131 135
129 132 135
129 132 136
129 131 135
130 132 136
129 131 135
130 133 136
126 127 130
125 126 128
129 130 133
129 130 132
133 133 134
132 131 131
137 136 137
132 132 132
132 131 132
131 130 130
135 132 131
132 129 127
132 135 140
121 138 159
123 139 161
121 138 159
116 133 154
122 138 159
122 138 160
121 137 158
119 135 157
119 135 156
118 133 154
120 136 158
121 137 159
120 136 157
120 137 158
119 135 156
119 135 156
120 136 158
119 135 156
118 134 155
122 138 159
120 137 158
120 136 157
121 137 158
119 135 156
120 136 157
121 137 158
119 136 157
121 137 158
121 137 158
121 137 159
119 135 156
120 136 157
117 133 153
121 138 159
120 137 158
120 137 159
118 134 156
121 138 160
121 137 158
121 137 158
120 136 158
119 135 157
121 138 159
118 135 156
118 134 155
119 135 157
122 138 160
120 136 158
120 136 157
121 137 159
122 138 160
121 137 158
119 136 157
120 136 156
120 136 158
122 138 159
122 138 160
120 137 159
121 138 159
119 135 156
121 138 160
120 136 157
119 135 156
119 136 157
122 139 160
119 136 157
120 136 157
120 137 158
122 138 160
120 137 158
120 136 157
120 136 158
120 136 158
120 135 156
121 138 159
121 138 160
121 138 160
122 138 160
121 137 158
120 136 158
119 135 157
119 135 156
124 141 163
120 137 158
121 137 158
121 137 159
120 136 158
121 137 159
121 138 159
120 136 158
118 134 156
121 137 159
121 138 159
119 135 156
121 137 159
122 138 160
118 134 156
119 135 157
122 138 159
121 137 158
120 136 158
119 135 156
120 136 157
119 136 157
118 133 154
118 135 156
120 136 158
121 137 157
118 134 155
123 139 161
120 136 158
120 136 158
120 136 157
118 134 155
121 137 158
118 135 156
120 135 156
119 135 156
120 136 157
121 137 158
121 138 160
119 136 157
120 136 158
108 117 132
73 62 56
76 59 47
73 56 45
74 57 45
71 55 43
77 59 47
72 56 45
76 59 46
70 54 42
73 56 44
73 57 45
74 56 44
68 52 41
104 103 108
135 145 164
144 157 175
146 153 169
146 152 161
134 145 156
123 141 151
124 140 151
131 147 162
131 145 160
119 134 149
118 138 153
121 141 157
115 131 148
110 122 140
109 121 139
108 119 137
107 119 141
102 112 151
116 126 164
119 123 162
114 114 159
129 122 157
123 122 156
116 120 142
122 134 155
121 136 156
118 134 153
107 115 118
129 127 126
130 128 128
131 130 131
128 128 129
136 136 137
130 130 131
135 136 138
132 132 134
132 132 134
131 131 133
130 131 133
127 127 129
130 131 133
134 135 139
133 135 138
128 129 132
129 130 133
127 129 133
125 127 132
125 128 132
129 131 135
128 131 135
129 132 137
124 127 131
129 133 138
127 131 136
124 127 133
128 132 138
127 131 136
126 131 136
126 130 135
127 131 136
125 128 132
127 132 137
127 131 137
128 132 138
125 128 133
127 131 136
124 128 133
122 126 130
123 126 131
122 125 129
129 133 138
130 134 140
127 131 136
128 131 136
128 132 137
126 129 134
127 130 135
125 128 132
128 131 135
123 125 129
130 132 137
127 129 133
129 131 135
130 133 136
128 130 133
129 130 133
131 133 136
130 132 135
127 129 131
131 132 135
128 129 131
130 131 133
132 133 136
129 128 129
135 134 135
137 136 136
136 135 136
135 135 136
133 131 132
132 130 130
138 135 133
135 132 130
120 133 151
119 136 157
123 140 162
120 137 159
121 138 159
120 136 157
119 135 156
119 135 157
118 133 154
119 135 157
122 139 160
121 137 158
120 136 157
121 137 158
123 140 162
119 135 156
121 137 158
122 139 160
121 138 159
123 139 161
120 136 158
122 139 160
119 136 157
121 137 158
120 137 158
123 140 162
122 139 161
119 135 156
119 135 157
120 136 157
121 137 159
119 135 156
118 134 155
122 139 160
122 139 160
120 136 158
118 134 156
118 134 155
119 135 156
121 138 160
122 139 161
120 136 158
120 136 156
122 138 159
118 134 155
121 137 158
123 139 160
121 137 159
121 138 160
122 139 160
121 137 159
118 134 154
120 136 157
120 136 157
118 134 155
119 135 156
122 139 161
120 136 158
124 140 162
123 140 161
120 137 158
118 134 155
121 138 159
121 137 158
119 136 157
121 137 159
120 136 157
121 137 159
120 137 158
118 134 155
119 135 156
121 137 159
120 136 158
121 137 158
119 135 156
120 136 158
120 136 158
122 139 160
120 137 158
121 137 158
118 134 155
120 136 156
120 137 158
121 138 159
119 135 157
121 137 159
120 137 158
118 134 155
120 136 158
122 138 160
122 138 159
120 136 157
121 137 158
121 137 158
123 139 161
120 137 158
123 139 161
117 133 154
118 133 154
121 137 159
122 138 159
120 136 157
120 137 159
121 137 159
119 136 157
121 137 158
121 138 160
121 137 158
122 138 159
120 136 158
122 138 160
122 139 160
120 136 157
120 136 158
122 139 161
120 136 157
120 136 157
120 136 157
120 136 157
119 135 156
120 136 158
120 137 159
119 135 156
105 116 132
81 69 65
69 53 42
78 60 48
74 57 45
71 55 44
70 53 42
75 57 45
72 55 44
72 55 44
72 56 44
72 56 44
73 56 44
71 55 43
122 124 133
147 165 175
148 163 181
150 159 175
150 168 178
141 160 170
134 156 167
129 150 158
140 157 172
133 147 158
119 133 143
126 144 159
122 137 152
120 138 154
108 120 137
118 132 151
110 123 141
110 123 142
95 105 140
95 103 141
98 108 151
97 104 151
119 121 162
123 122 167
118 124 152
122 135 158
128 143 163
120 134 153
121 120 120
130 129 128
133 131 132
130 129 130
133 132 133
133 131 132
129 128 129
133 132 134
131 130 131
128 127 128
129 130 131
131 132 134
126 126 128
133 134 137
131 131 133
134 135 138
135 136 139
127 128 130
127 130 135
127 129 133
130 131 134
129 131 135
131 134 139
132 135 139
130 134 139
127 130 134
125 127 132
128 132 137
126 129 132
128 131 136
126 129 134
126 129 133
126 129 134
124 127 131
130 133 139
126 129 134
127 130 135
124 128 132
127 130 135
126 130 135
123 126 131
128 130 134
129 133 138
130 133 138
129 132 136
130 133 138
128 132 137
127 130 135
126 129 134
128 131 135
130 133 137
129 132 136
128 130 134
131 133 137
129 131 135
128 130 133
129 130 133
128 129 131
130 131 133
129 130 133
127 127 130
132 133 136
133 133 136
131 131 132
133 134 136
135 136 138
129 129 131
139 138 139
138 137 137
137 135 135
135 134 135
130 129 129
132 129 128
138 135 134
141 138 136
130 135 144
120 137 158
121 137 158
121 137 159
121 138 160
119 135 156
120 137 159
119 135 156
119 135 155
119 136 157
119 135 156
122 138 161
119 135 157
123 140 162
117 133 154
121 137 159
120 137 158
121 137 158
122 138 160
120 137 158
119 136 157
118 134 154
121 137 159
120 136 157
121 137 159
123 139 161
122 139 161
119 135 156
119 135 157
117 133 154
120 137 159
121 138 159
118 134 155
124 141 163
121 137 159
120 137 159
121 137 159
121 138 159
120 136 158
122 139 161
120 136 158
122 139 160
120 136 158
121 137 159
120 136 158
120 136 158
120 137 158
117 133 153
122 138 160
120 136 158
121 137 159
121 137 158
120 136 157
120 136 158
120 137 158
124 140 162
121 137 159
119 135 156
120 137 158
120 136 157
119 135 156
120 136 158
121 137 159
120 137 158
122 138 160
121 137 159
121 137 159
119 135 155
122 139 160
122 139 161
124 141 163
121 138 160
120 136 157
120 137 158
119 135 156
120 137 158
122 139 160
120 136 158
122 139 160
121 138 159
121 137 158
121 138 160
120 136 158
120 136 157
120 137 158
120 136 158
121 137 159
120 136 158
121 137 158
121 137 159
118 134 154
120 135 156
120 136 157
119 135 156
119 135 157
121 138 159
119 135 156
120 136 157
121 137 159
120 137 158
118 133 154
119 135 156
118 134 155
121 137 159
122 138 160
118 134 155
120 136 157
119 135 156
118 133 154
118 133 154
117 133 154
119 135 156
122 138 159
120 137 158
120 136 158
120 136 157
119 135 156
122 138 159
118 134 155
122 139 160
118 134 155
120 137 159
120 136 158
113 125 143
85 78 79
72 56 44
72 56 44
71 55 44
66 50 40
64 50 39
72 55 44
67 52 41
72 56 44
71 54 43
72 56 44
72 55 44
68 52 41
126 133 144
153 173 185
145 161 179
146 161 180
143 167 179
140 173 179
142 170 180
131 155 163
141 160 174
133 149 157
125 142 150
132 154 169
129 143 158
128 149 165
117 132 149
108 123 136
121 136 154
113 127 147
105 117 140
108 119 149
118 131 159
89 98 138
94 103 143
110 120 166
109 120 158
119 131 161
126 140 161
114 125 140
130 128 126
130 129 128
130 128 128
130 128 128
131 129 130
134 132 133
136 135 135
134 134 134
133 132 134
130 130 131
129 129 130
133 133 134
132 132 134
130 130 132
129 129 131
131 132 134
134 134 137
128 129 133
130 131 135
131 132 135
126 127 130
128 130 133
128 130 134
128 130 133
126 128 132
129 132 135
127 129 133
129 132 137
129 132 136
129 132 135
128 130 134
125 127 131
127 130 134
129 132 136
125 127 131
129 132 137
128 131 136
124 127 131
125 128 132
127 130 134
128 130 134
129 133 137
128 131 135
127 130 134
129 132 136
127 129 133
130 132 136
130 132 136
129 132 136
128 130 133
131 134 138
127 129 132
132 134 138
128 130 132
126 127 130
130 131 134
127 129 132
129 130 133
129 130 133
132 132 135
132 133 135
131 131 133
135 135 137
131 131 132
131 131 133
129 128 130
129 129 130
134 134 135
134 133 132
139 137 136
140 138 138
134 133 133
135 133 133
139 136 135
136 132 129
136 136 137
123 138 159
120 137 158
120 136 158
119 135 156
121 138 159
120 136 158
120 136 158
119 135 156
121 137 159
122 139 160
121 138 159
120 136 157
118 134 156
119 134 155
121 137 159
122 139 161
120 136 157
121 137 159
119 135 156
122 138 160
121 137 158
122 138 160
120 136 157
121 137 159
120 136 158
120 137 159
118 134 155
119 136 157
120 137 158
119 136 157
121 137 158
123 139 161
118 134 156
120 137 158
120 137 158
120 136 158
119 135 156
121 138 159
121 137 158
121 137 159
121 138 160
120 136 158
122 138 160
120 136 157
119 135 157
122 138 159
119 135 156
119 135 156
121 138 159
117 133 154
121 137 158
122 138 160
121 137 159
120 136 158
120 136 158
120 136 158
120 136 157
120 137 158
121 137 158
119 135 155
121 137 159
122 138 160
120 137 159
120 136 158
118 134 155
119 135 157
120 136 157
118 134 156
122 138 160
118 134 155
118 134 155
122 138 160
119 135 157
119 136 157
122 138 160
120 136 157
117 133 154
119 134 155
120 137 158
121 138 159
119 135 156
118 134 155
118 134 155
120 136 158
122 138 159
119 136 157
120 135 156
121 137 158
120 137 158
121 137 158
120 136 158
120 136 158
119 135 155
119 135 157
120 137 158
120 136 158
121 137 158
120 137 158
117 133 154
123 139 161
118 135 156
122 138 160
119 135 156
119 135 156
121 138 159
119 135 156
120 136 158
121 138 159
121 137 158
121 137 158
120 137 158
121 137 158
120 136 157
118 134 154
120 136 157
119 136 157
121 137 159
120 137 158
119 135 156
121 138 159
118 134 155
122 138 160
119 133 154
86 83 88
67 52 41
68 52 41
69 53 42
66 51 40
69 54 42
64 48 38
72 55 44
67 51 40
71 54 43
69 53 42
69 53 42
72 55 45
131 140 154
159 173 192
151 166 186
152 166 185
146 164 183
143 167 183
144 170 188
141 161 177
148 165 184
141 159 173
132 151 167
129 152 167
132 154 171
133 153 171
128 147 163
122 140 153
129 146 164
127 143 163
127 141 160
125 140 160
125 139 158
116 128 149
117 131 155
120 133 163
116 130 165
124 138 162
128 142 163
117 119 124
130 127 126
130 128 128
129 126 126
130 128 128
135 133 133
132 131 131
129 127 127
131 130 131
133 132 133
133 132 133
136 135 136
131 130 131
134 133 135
135 135 136
131 131 133
135 135 137
131 131 133
128 129 133
128 129 131
129 130 133
129 130 133
130 131 134
134 136 140
128 129 132
133 135 139
128 129 132
130 132 135
125 126 128
131 133 137
130 132 136
131 133 136
126 128 131
128 130 133
129 131 135
129 132 136
126 128 131
132 134 138
129 132 135
131 133 137
131 134 138
129 131 134
132 135 139
128 130 134
128 130 134
130 132 136
128 129 133
131 132 136
127 129 133
128 129 132
129 131 134
132 134 138
132 134 138
129 131 133
129 130 134
130 131 134
130 131 133
131 131 134
131 131 133
131 131 134
133 133 135
131 132 133
135 135 136
134 134 136
134 134 135
131 130 132
128 128 128
133 133 133
130 129 131
134 133 133
138 136 136
134 132 131
133 131 131
131 130 130
134 131 129
138 135 132
137 134 131
126 137 151
119 135 157
120 136 158
122 138 160
119 136 157
121 137 158
121 137 158
117 134 155
122 139 161
119 135 156
122 139 161
121 137 159
120 136 157
119 135 155
120 136 157
123 139 161
119 136 157
121 137 158
119 135 156
123 139 161
118 135 156
123 139 161
119 135 156
119 135 156
118 134 155
121 137 158
122 139 160
117 133 154
124 141 163
118 134 156
122 138 160
120 136 158
119 135 156
118 134 155
121 137 159
119 135 155
121 137 158
121 138 159
119 135 157
120 136 158
121 138 160
119 135 157
121 137 158
121 137 159
120 136 158
120 136 157
120 137 158
117 133 154
121 138 159
120 136 158
122 139 160
121 138 160
121 138 159
120 137 158
121 137 158
122 138 160
119 135 156
118 134 156
118 134 155
122 138 159
119 135 156
120 136 158
119 135 156
119 135 156
121 138 159
119 135 156
121 137 159
121 137 159
118 134 155
119 135 156
120 136 158
121 137 159
121 137 159
120 136 158
119 136 157
120 136 157
118 135 156
119 135 157
120 136 157
118 134 155
119 135 156
120 136 158
121 137 159
121 137 159
122 139 160
120 137 158
120 137 158
121 137 158
120 137 158
121 137 158
121 137 159
123 139 161
123 141 163
120 137 158
118 134 154
121 137 159
121 137 158
119 135 156
123 140 162
120 136 157
121 137 158
118 135 156
121 137 158
118 134 155
120 136 158
116 132 153
121 138 159
121 137 159
120 136 157
121 137 158
119 135 156
119 136 157
120 137 158
121 138 159
118 134 155
122 138 159
121 137 158
120 136 157
121 137 159
121 138 160
119 135 156
122 139 160
118 133 153
99 104 115
71 57 48
69 54 43
64 50 39
66 51 41
72 55 44
68 53 41
70 54 42
68 53 42
70 54 42
68 52 41
68 53 42
70 56 48
145 154 168
166 179 198
157 171 190
154 168 188
152 166 185
154 168 187
149 163 183
147 162 182
149 164 184
143 157 176
138 152 172
138 153 174
135 150 170
137 153 173
131 147 166
133 149 169
134 150 170
130 145 165
129 144 163
128 143 163
129 143 163
127 142 162
131 146 166
131 147 167
128 144 164
131 147 167
122 137 156
128 126 125
129 127 127
131 130 130
133 131 131
127 125 124
134 132 132
132 130 130
135 133 133
134 132 132
136 135 135
136 135 136
134 132 132
134 133 134
134 133 134
134 134 135
133 132 133
137 137 138
128 129 132
127 127 129
131 132 134
133 134 137
133 135 138
132 133 135
133 135 138
129 129 131
130 131 134
131 132 135
130 131 134
132 133 135
133 135 138
131 132 135
131 133 135
131 133 136
131 133 136
128 130 133
131 133 136
130 132 135
127 129 132
131 132 135
133 136 140
129 130 134
127 129 132
128 129 133
128 130 133
126 128 130
131 132 135
134 136 140
131 133 136
129 131 133
132 133 136
134 136 139
132 134 137
131 132 135
129 131 134
133 134 136
133 134 136
130 131 133
134 134 137
130 131 133
131 131 132
134 134 136
133 132 133
134 134 136
134 134 135
136 135 137
131 130 130
134 133 134
134 134 135
131 130 131
133 132 133
140 138 137
138 135 134
133 131 130
132 130 130
136 133 132
134 131 129
139 135 133
128 131 137
120 137 158
121 137 158
121 137 158
123 139 161
120 136 158
119 135 157
119 135 156
118 134 154
122 138 160
120 137 159
120 137 158
121 138 159
119 135 156
119 135 156
117 133 154
120 136 158
118 135 156
121 137 159
119 135 157
120 136 158
120 136 157
120 136 158
121 138 160
121 137 159
121 138 159
119 135 156
120 136 158
119 135 156
121 137 158
122 138 160
123 140 162
119 135 157
122 138 160
121 137 159
122 138 160
118 135 156
119 135 156
121 138 159
119 136 157
120 136 158
118 134 155
120 136 157
121 137 158
121 137 158
120 136 157
121 137 158
121 137 158
120 137 158
120 136 157
119 136 157
122 139 161
121 137 158
119 136 157
122 139 161
119 135 156
121 137 158
120 136 157
118 135 156
119 134 155
122 139 161
121 137 159
120 136 157
118 134 155
117 133 154
120 136 157
122 138 160
120 137 158
119 136 157
121 137 159
119 135 156
121 137 158
118 135 156
117 133 154
121 138 160
120 136 158
120 136 158
123 139 161
121 137 159
119 135 156
120 136 158
120 137 158
122 139 160
118 133 154
120 137 158
120 136 157
123 139 160
120 137 158
121 137 159
120 137 158
119 135 156
123 140 162
121 136 157
119 135 156
120 136 157
121 137 158
118 134 156
120 137 158
122 138 160
117 134 155
120 136 158
121 137 159
119 135 156
120 137 158
120 136 157
121 137 159
121 137 159
122 139 161
121 138 159
120 136 158
120 136 158
120 137 158
121 138 159
119 136 157
122 138 160
119 135 156
121 138 159
120 136 157
120 136 158
122 138 160
121 138 159
122 138 159
119 135 156
107 118 134
76 65 60
67 51 40
68 53 41
68 53 42
67 52 41
65 50 39
70 54 43
65 50 39
70 53 42
69 54 42
69 53 42
72 58 50
161 170 185
195 208 226
192 206 224
190 203 222
191 204 223
185 199 218
176 190 208
169 182 201
167 181 200
170 184 204
169 183 202
165 179 199
156 171 190
158 172 192
153 167 187
147 161 181
146 160 179
141 156 175
146 161 181
141 155 175
143 157 177
138 153 172
139 154 174
133 148 169
135 150 169
135 149 169
122 132 146
131 128 126
134 131 130
135 133 132
135 133 133
134 131 130
132 130 130
133 131 130
133 131 131
134 132 132
136 134 135
136 135 135
134 132 132
137 135 136
135 133 133
134 132 133
137 136 137
132 131 132
129 128 130
133 132 133
133 132 133
130 129 131
133 133 136
135 136 138
130 130 132
135 135 137
133 133 135
134 134 135
132 132 134
132 131 133
133 134 136
129 129 131
126 126 128
130 131 134
132 133 136
129 129 132
131 133 136
130 130 132
134 136 139
136 138 141
132 133 136
134 136 139
136 139 143
131 132 135
129 130 132
128 129 131
133 134 137
132 133 135
128 129 131
131 132 135
133 134 136
134 135 137
132 132 135
132 133 135
134 134 136
134 136 138
131 132 133
132 132 134
132 132 134
136 137 139
135 134 136
132 132 133
138 137 139
134 133 135
132 131 132
136 135 136
135 134 135
136 135 136
132 130 131
134 134 135
135 134 135
138 135 134
136 134 133
133 130 128
136 134 134
138 136 135
133 130 128
136 132 130
131 130 131
119 135 156
118 134 155
120 136 157
121 137 158
121 137 159
120 136 157
118 134 155
121 138 159
120 136 157
120 136 158
118 135 156
120 136 158
122 138 160
119 136 157
122 139 160
121 137 159
119 135 156
121 138 159
120 136 157
120 136 158
119 134 155
123 139 161
121 138 159
118 134 155
121 137 158
120 136 157
119 135 156
118 134 155
120 136 158
119 135 156
121 138 159
122 138 159
120 136 157
121 137 159
119 135 156
122 139 160
119 136 157
119 135 156
120 136 156
121 137 158
122 138 160
119 136 157
117 133 154
121 137 158
119 135 157
122 139 161
125 142 163
119 135 156
122 138 159
123 140 161
119 135 156
120 137 158
122 139 160
119 135 157
122 138 159
119 136 157
120 137 158
120 136 157
121 138 159
121 138 159
120 136 158
119 135 156
118 134 155
120 136 157
123 139 161
122 138 160
118 134 155
121 138 159
118 134 155
121 138 159
120 136 158
121 138 159
119 135 156
120 137 158
119 135 156
119 136 157
122 139 161
121 137 158
121 137 158
119 135 156
123 140 162
121 138 160
122 138 160
120 136 158
120 136 158
121 137 158
121 137 158
122 138 160
119 135 156
121 138 159
121 137 159
121 138 159
121 137 158
123 140 162
119 135 156
119 135 156
122 138 160
122 139 160
119 135 157
119 135 156
122 138 159
117 134 155
119 136 157
123 139 161
119 135 156
119 135 156
123 139 161
120 136 158
118 135 156
121 137 158
121 138 159
121 137 159
118 135 156
120 136 157
118 134 155
118 134 156
120 137 158
121 138 160
120 136 157
118 134 155
122 138 160
119 136 157
116 130 150
84 84 89
71 55 43
65 50 39
68 53 41
65 50 39
67 52 41
66 51 40
64 49 38
63 48 38
68 53 41
62 48 38
70 57 49
156 165 179
199 213 232
197 211 229
200 213 232
206 220 239
207 221 240
206 219 238
207 220 239
208 222 241
205 219 238
208 222 241
207 221 241
208 222 241
206 220 239
207 221 241
205 219 238
204 218 237
201 214 233
197 211 229
198 211 230
197 210 229
195 208 227
199 212 232
196 210 228
196 210 229
194 208 227
143 148 154
134 131 129
134 131 130
128 126 125
128 126 125
136 134 133
136 134 133
138 136 135
135 133 132
136 135 135
137 135 136
138 136 136
133 130 130
136 134 134
135 133 134
136 135 136
139 138 138
130 130 131
134 134 135
131 130 130
132 131 132
132 131 132
134 134 135
131 131 132
136 135 137
134 134 135
132 131 132
139 139 141
134 133 135
133 133 134
135 135 136
133 132 134
132 133 135
135 136 139
134 136 138
136 137 140
132 132 134
132 132 135
132 133 134
132 133 135
131 132 135
132 133 136
133 133 135
130 131 133
133 133 135
133 135 138
132 133 135
134 135 137
134 134 137
132 132 134
133 133 134
137 138 140
133 133 134
136 136 137
131 130 131
136 136 138
132 133 134
131 130 130
135 135 136
132 131 132
137 136 137
137 136 137
134 133 134
137 136 137
133 131 132
136 135 136
135 133 133
136 134 133
136 135 135
130 128 128
134 132 132
136 134 133
139 137 136
135 132 130
132 129 128
135 133 132
139 135 134
142 138 135
138 135 132
121 133 151
122 138 159
120 136 157
119 135 156
119 135 157
122 138 160
120 137 159
120 137 158
121 137 159
120 136 157
121 138 159
118 134 155
118 133 154
121 137 159
120 136 157
121 137 158
119 136 157
119 135 156
121 137 159
121 137 158
120 136 157
121 137 159
120 136 158
123 140 162
119 135 157
120 137 158
119 134 155
122 139 161
118 134 155
120 136 157
119 135 156
121 137 158
120 136 157
120 136 158
120 136 157
121 137 158
121 137 158
122 138 159
123 140 162
120 137 158
122 139 161
120 136 157
120 137 158
123 140 162
118 135 156
118 134 155
120 136 156
121 137 159
120 136 157
119 135 157
118 134 155
124 141 163
122 138 159
120 136 156
119 135 157
120 136 158
119 136 157
121 137 159
120 136 158
120 136 157
121 138 159
121 137 158
119 135 157
120 136 157
122 139 161
123 140 162
120 137 159
120 136 158
121 138 160
118 134 155
120 136 157
120 136 157
122 138 159
120 136 157
119 135 156
122 138 160
118 134 155
119 135 156
120 136 158
121 138 159
119 135 156
118 134 155
119 135 156
120 136 158
122 139 160
120 137 158
119 135 157
120 137 158
122 138 160
117 133 154
122 138 160
119 136 157
122 138 160
121 138 159
121 137 158
121 137 158
117 134 155
122 139 161
119 135 156
121 137 159
120 136 158
120 137 158
117 133 153
122 139 161
121 138 159
120 136 158
117 132 153
119 135 156
121 137 157
122 138 160
123 140 161
121 137 159
119 135 156
118 134 155
119 135 155
118 134 155
121 138 159
119 135 156
122 139 161
118 135 156
120 136 157
118 134 155
119 134 155
97 104 116
67 54 46
65 50 40
63 49 39
63 48 38
63 48 38
64 50 39
63 48 38
63 49 39
68 52 41
64 50 39
67 52 41
151 160 174
194 208 227
199 213 233
200 214 233
205 219 239
204 218 237
206 220 240
206 220 240
206 220 239
203 217 236
211 225 245
214 228 248
214 228 247
213 227 247
213 227 247
212 226 245
212 227 246
215 229 248
213 227 246
215 229 248
213 227 246
213 226 246
213 227 246
213 227 246
214 228 247
210 223 242
135 134 135
137 133 131
133 131 130
135 133 132
136 133 132
138 136 135
134 131 130
141 138 137
142 139 138
134 132 131
133 131 131
137 134 134
134 131 131
134 131 131
137 135 135
138 136 135
135 134 134
130 129 130
138 137 137
137 136 137
130 129 129
133 132 132
133 132 133
132 130 131
136 135 136
134 133 134
138 138 139
139 139 141
136 135 135
135 134 135
136 135 136
133 132 133
134 134 135
135 136 138
137 138 140
135 135 137
131 131 132
132 132 134
135 135 137
135 135 137
134 134 136
132 132 133
135 136 138
132 132 134
132 132 134
134 135 137
131 132 133
134 134 136
133 132 133
139 139 141
132 132 133
129 128 128
136 135 136
135 134 135
130 129 130
132 131 132
135 135 136
135 135 136
134 133 134
136 135 136
134 132 133
135 133 133
138 136 137
138 137 137
137 136 136
137 135 134
139 137 137
140 139 139
134 132 131
134 132 131
134 132 131
136 135 134
138 135 134
138 134 132
139 136 134
140 138 137
139 136 134
138 134 131
137 133 130
123 131 143
121 137 159
121 137 158
117 133 154
119 135 157
120 136 157
120 136 157
120 136 157
121 137 159
121 138 159
119 136 157
120 136 157
120 136 157
122 138 159
121 137 158
122 138 159
120 136 157
120 136 158
119 135 156
120 136 158
121 137 159
119 135 156
118 134 155
119 136 157
122 138 159
121 137 159
122 139 161
121 137 158
118 134 155
120 136 157
120 137 158
120 136 158
120 137 159
120 136 157
120 137 158
121 137 159
119 135 156
119 135 157
121 138 159
120 137 158
120 137 158
120 137 158
120 136 157
121 138 159
120 136 157
122 138 159
121 137 159
121 138 159
121 137 158
122 138 160
119 135 155
119 135 155
117 133 153
121 137 159
118 135 156
123 139 161
119 135 156
118 134 155
119 135 156
121 137 158
121 137 158
120 136 157
120 136 158
119 134 155
118 134 155
119 136 157
121 138 159
122 138 160
119 135 156
120 136 157
122 139 161
118 134 155
120 136 157
119 135 156
119 136 158
118 134 155
119 135 157
121 137 158
121 137 159
122 138 159
120 136 158
121 137 158
121 138 160
119 136 157
118 134 156
118 134 155
121 137 159
119 136 157
118 133 154
119 136 157
119 135 157
118 134 155
122 138 159
117 132 153
120 136 157
121 137 158
121 138 159
120 136 158
119 135 156
118 134 155
119 136 157
117 133 154
124 141 163
121 137 159
119 135 156
123 140 161
122 138 160
122 139 160
121 138 159
119 135 156
119 135 156
123 140 161
122 138 160
121 137 158
119 135 156
118 134 155
122 139 161
120 136 157
122 138 159
121 138 159
119 135 156
121 137 158
119 136 157
108 121 139
77 73 76
59 45 36
63 49 38
61 47 37
57 44 35
60 46 36
63 49 38
62 48 37
64 49 38
62 49 38
65 51 40
132 139 150
184 199 218
194 208 228
199 214 233
202 217 236
199 213 233
200 214 234
200 214 234
199 213 233
200 215 235
209 224 244
210 224 245
210 225 245
212 226 247
211 225 246
213 228 248
209 224 244
210 224 244
212 226 246
210 225 245
212 226 246
213 228 248
213 227 247
211 225 245
211 225 245
198 211 228
134 131 128
133 130 128
129 126 125
137 134 132
133 130 128
136 134 133
138 135 134
138 136 134
136 133 132
140 137 136
139 136 135
134 131 130
137 134 133
140 137 136
140 138 138
139 136 136
133 131 132
132 130 130
138 137 137
136 134 134
136 135 136
134 133 133
130 128 129
134 132 133
135 134 134
140 139 140
138 137 138
139 138 138
135 134 134
137 136 137
139 138 139
133 132 133
134 133 133
134 134 135
134 133 134
133 132 133
132 131 132
136 136 138
134 133 134
136 136 138
133 133 134
136 136 137
135 134 135
133 133 134
136 136 137
134 134 136
136 136 137
136 135 136
136 135 137
136 135 136
139 138 140
135 134 135
132 131 131
132 131 131
135 134 135
136 136 137
136 135 136
134 132 132
138 137 138
139 138 139
137 135 136
134 132 133
135 133 133
137 135 134
134 131 130
139 137 137
140 138 138
142 140 139
134 131 130
135 133 132
135 133 133
137 135 134
139 137 135
137 133 131
141 138 137
136 133 131
135 132 130
144 139 137
142 138 135
124 128 135
119 135 156
121 138 159
122 139 161
122 138 159
118 134 155
120 136 157
119 135 157
123 139 161
120 136 157
121 137 159
119 135 156
120 136 158
120 136 157
120 136 157
121 138 159
120 136 157
117 133 153
120 137 158
123 140 162
120 136 157
120 136 158
119 135 156
120 136 157
119 136 157
118 133 154
119 135 156
120 136 158
119 135 155
118 134 155
119 135 155
122 138 159
119 135 156
119 135 156
121 137 158
120 137 159
118 135 156
119 135 156
119 136 157
120 136 157
122 139 160
120 136 158
120 137 158
118 134 155
123 140 161
121 138 159
120 136 157
121 137 158
118 134 155
122 139 160
119 135 156
120 137 158
119 135 156
119 135 156
121 137 158
119 135 157
120 136 158
120 137 159
122 138 160
120 136 157
118 135 156
119 136 157
122 138 160
120 136 158
118 134 155
121 137 158
122 139 161
119 136 157
121 137 159
119 136 157
120 136 157
117 133 153
122 139 160
119 134 155
123 139 161
119 135 156
117 133 153
122 138 159
119 135 156
116 131 152
119 136 157
120 136 158
119 135 156
121 137 158
123 139 161
120 136 158
120 136 158
118 134 155
118 134 155
119 135 156
119 135 156
121 137 158
120 136 157
117 134 155
120 136 157
119 136 157
121 138 160
120 137 158
121 138 160
122 138 159
120 136 158
121 138 159
121 138 159
119 135 156
120 136 158
123 139 161
119 136 157
117 133 154
119 135 156
121 137 159
118 134 155
120 137 158
121 137 158
120 137 158
121 137 158
118 134 156
120 137 158
119 136 157
117 133 154
120 136 158
118 135 156
118 134 155
122 139 160
119 135 157
93 100 112
64 54 50
62 48 38
60 46 36
57 44 34
64 49 38
63 48 38
63 48 38
60 47 36
60 47 36
61 47 37
118 122 131
183 197 216
199 214 235
197 212 232
197 212 231
199 214 234
201 216 236
199 213 234
200 215 235
199 213 234
206 221 243
209 225 246
210 225 245
209 224 245
210 225 246
210 225 246
207 222 242
209 224 245
210 225 246
209 223 244
211 225 245
210 225 246
209 223 243
211 225 246
211 226 247
185 195 209
136 132 129
133 130 129
135 132 131
132 129 127
134 131 129
143 140 138
136 132 130
140 136 134
140 137 135
140 137 135
137 133 132
141 137 136
137 133 132
137 135 134
137 134 133
140 137 136
130 128 129
133 131 130
136 134 134
140 138 138
137 135 134
134 131 131
137 134 134
141 139 140
136 135 135
137 134 134
137 135 134
138 136 136
140 138 137
139 138 138
139 138 138
136 134 134
138 138 139
133 132 132
136 135 136
136 135 136
136 135 136
138 138 139
138 137 138
134 133 133
137 136 137
134 133 133
139 138 138
135 134 135
135 134 135
136 135 136
134 133 134
137 137 138
136 134 134
135 134 134
139 138 138
136 134 135
138 136 137
139 138 138
135 133 133
136 135 135
137 136 136
134 133 132
136 134 133
139 137 137
143 141 141
137 134 134
135 132 132
140 137 137
142 140 140
141 138 138
137 134 134
136 133 132
140 137 136
139 136 135
137 134 133
137 134 133
139 136 134
145 142 140
141 137 135
142 139 137
133 130 128
139 135 133
139 134 131
126 126 128
120 136 157
121 137 159
123 139 161
119 135 156
120 137 158
118 134 155
119 135 157
119 136 157
120 136 157
121 137 158
120 137 158
121 138 159
120 136 157
120 137 158
122 138 160
118 135 156
119 136 157
119 136 157
121 137 158
121 137 158
117 132 153
122 139 160
120 136 158
120 137 159
118 134 156
122 138 160
120 136 157
118 134 155
120 136 158
121 137 159
119 135 156
120 136 157
122 138 159
120 137 158
120 136 158
118 134 155
118 134 154
120 136 158
121 137 158
119 135 156
117 133 153
121 138 159
118 134 156
120 136 157
121 138 160
119 135 156
120 137 158
119 135 156
119 135 156
118 134 155
120 137 158
122 138 160
122 139 161
118 135 156
119 136 157
120 136 158
122 139 160
119 135 156
120 136 157
121 138 159
122 138 159
122 138 160
120 136 157
121 137 158
119 135 157
122 139 160
121 137 159
120 137 158
120 136 157
122 139 160
121 137 158
121 137 158
119 135 156
120 136 157
119 135 156
118 134 156
117 133 154
120 135 156
118 134 155
119 135 156
122 138 160
120 137 158
119 136 157
118 134 155
120 136 157
120 136 157
120 137 158
118 134 155
118 134 155
118 134 155
118 134 155
120 137 158
120 137 158
121 137 158
121 137 159
121 137 159
122 138 160
121 138 160
123 140 162
121 138 159
118 134 155
120 137 158
120 136 157
121 137 159
120 136 157
122 139 161
119 135 156
120 136 157
122 138 160
120 136 158
118 134 155
122 138 160
120 136 158
121 137 158
120 136 157
115 129 149
111 122 142
106 117 136
106 118 137
120 136 157
118 134 154
121 137 159
117 134 155
113 127 146
83 83 89
60 47 40
60 46 36
54 42 33
62 47 37
60 46 36
64 50 39
66 51 40
61 48 37
62 49 38
98 98 102
179 194 213
190 207 226
194 209 230
196 211 231
196 211 231
198 213 234
198 213 234
201 216 237
197 211 233
204 218 240
208 223 246
208 223 245
210 226 248
211 227 248
207 223 244
209 224 245
210 226 247
212 228 249
207 222 243
210 225 246
210 225 246
210 225 246
209 224 244
207 221 242
169 177 189
134 130 127
133 129 127
134 132 130
139 136 133
137 133 131
137 133 131
137 133 131
139 136 134
134 130 128
141 137 135
138 134 132
143 139 138
137 133 132
141 138 136
137 133 131
140 136 135
135 132 132
137 134 133
137 134 133
138 135 134
136 133 132
136 133 132
138 136 135
136 134 133
139 136 135
137 134 133
138 134 133
136 133 132
140 138 137
135 133 133
143 141 141
139 137 137
134 132 132
135 133 132
137 136 136
135 132 132
138 136 136
136 134 134
135 133 133
137 135 135
140 138 139
140 139 139
135 134 134
135 133 133
134 132 132
139 137 137
138 137 137
133 131 131
135 133 133
136 134 134
138 136 136
140 138 138
141 139 139
137 135 135
136 135 134
137 136 135
137 135 133
139 138 137
137 135 134
138 136 136
135 132 131
140 137 136
138 135 134
139 136 135
136 133 132
138 135 134
136 133 131
140 137 136
139 136 134
139 136 134
135 132 130
135 132 130
137 135 133
144 140 138
139 135 132
135 132 129
138 135 132
140 137 134
141 136 132
128 126 124
119 136 157
120 136 157
120 136 157
122 138 160
119 135 156
120 137 158
120 136 157
120 136 158
118 134 155
121 138 159
122 139 160
118 134 155
121 138 160
120 136 158
121 137 158
122 138 159
118 134 155
121 137 158
118 134 155
121 137 159
118 133 154
120 136 158
121 138 159
120 136 157
121 137 158
121 137 159
121 137 158
119 135 156
120 136 157
123 139 161
119 135 157
123 140 161
120 136 158
119 135 156
120 136 158
121 137 158
119 135 156
120 136 157
118 134 156
124 140 162
120 136 158
118 135 157
121 137 159
119 136 157
120 136 157
118 134 154
119 134 155
119 136 157
119 135 156
119 135 156
119 135 156
121 137 159
119 135 156
118 134 156
121 137 159
120 136 157
120 136 157
120 136 156
120 136 158
120 136 157
118 135 156
121 137 158
122 138 160
119 135 156
120 137 158
121 138 159
121 138 159
122 138 159
121 137 159
118 134 155
118 134 155
123 140 162
121 137 158
122 138 160
123 139 160
120 137 158
120 136 156
120 137 158
118 134 155
119 135 156
119 135 156
120 136 157
122 139 161
122 138 160
121 137 159
120 137 159
120 136 158
118 134 155
119 135 156
118 134 155
120 137 158
120 136 158
120 136 158
120 136 157
121 138 159
121 137 159
117 132 153
119 135 156
121 137 158
120 137 159
121 137 158
119 134 155
120 136 157
122 139 160
119 135 156
117 133 154
119 135 156
120 137 158
119 136 157
121 137 158
119 136 157
123 139 160
117 132 153
119 135 155
105 114 132
82 78 93
67 54 67
61 46 59
68 62 75
89 95 111
111 124 144
120 136 157
121 137 158
120 136 157
104 114 129
74 71 74
57 43 34
54 42 32
56 43 34
55 43 33
57 45 35
56 44 34
58 45 35
59 47 36
81 79 79
165 179 197
184 201 220
191 207 227
193 208 229
196 212 233
198 214 235
197 212 232
198 214 236
192 207 227
196 211 232
207 222 245
208 224 246
206 222 244
208 224 246
208 225 247
208 224 246
210 226 248
207 223 245
208 224 246
208 224 245
211 227 249
211 226 248
211 226 248
210 225 247
147 153 162
141 137 134
134 131 129
135 132 130
138 134 131
136 132 130
138 135 132
137 133 131
140 135 132
139 135 132
138 134 132
141 137 134
143 138 136
141 137 136
143 139 138
143 139 137
140 137 137
136 133 132
142 139 138
138 135 133
141 138 137
137 133 132
139 136 136
139 135 134
140 137 135
137 134 132
141 138 138
142 138 136
143 140 139
141 138 137
138 135 133
140 137 136
142 140 140
137 134 133
135 133 132
137 135 135
137 135 135
138 135 135
138 137 136
134 131 130
139 137 136
135 133 132
141 139 139
138 136 136
137 135 134
136 134 133
139 137 136
137 135 134
142 140 139
139 137 137
139 137 136
142 140 140
140 137 137
140 138 137
139 136 135
139 137 136
138 136 135
138 136 135
139 137 136
141 139 139
140 138 137
144 142 140
137 134 133
138 135 133
139 136 135
137 133 131
137 134 131
142 138 136
138 134 133
138 135 132
136 132 130
135 131 129
136 132 130
137 135 133
141 138 134
141 138 134
139 136 133
141 138 135
136 132 129
137 131 127
126 123 121
113 135 152
120 136 158
120 136 157
120 136 157
123 139 161
121 138 159
120 137 158
119 135 157
119 135 156
119 135 156
119 135 157
118 134 155
123 140 162
121 138 159
123 140 162
122 139 161
118 134 155
120 136 157
123 139 161
120 136 157
120 137 158
120 136 157
122 138 160
122 138 160
121 137 158
120 136 157
122 138 160
119 136 157
118 134 155
120 137 158
120 136 157
123 139 161
121 137 158
119 135 156
119 135 156
119 135 157
123 140 162
118 135 156
121 137 159
122 138 160
121 137 158
119 136 157
121 138 159
120 137 158
117 133 154
119 135 156
123 139 161
121 138 160
120 137 158
121 138 159
123 139 161
116 132 153
120 136 158
122 139 160
121 137 159
119 136 157
120 136 158
119 135 156
120 137 155
108 125 131
105 122 121
102 119 119
109 126 131
116 132 150
121 137 159
121 138 160
122 138 160
120 136 157
120 137 158
119 136 157
121 138 159
119 134 155
121 137 158
121 137 159
119 135 157
120 136 158
119 136 157
120 137 158
120 137 158
120 136 158
121 137 159
123 140 162
119 135 156
120 136 157
121 137 158
117 133 153
122 139 160
120 136 157
119 136 157
118 134 155
119 136 157
112 129 152
105 125 153
103 123 151
109 126 150
117 133 156
123 140 162
120 136 158
119 135 156
120 136 157
122 138 160
120 136 158
121 137 158
118 134 155
118 134 155
118 134 155
121 137 158
123 139 160
119 136 157
118 134 155
119 135 156
122 139 161
121 137 158
106 116 135
72 59 73
53 21 36
52 19 34
47 17 30
47 18 31
50 34 44
83 88 103
115 131 151
118 134 154
122 139 161
116 132 152
91 100 113
66 58 56
56 43 33
55 43 33
52 40 31
53 42 32
54 42 33
55 45 34
53 44 32
60 53 45
144 156 172
182 198 218
187 202 224
188 203 225
195 212 234
194 209 231
193 209 230
201 217 239
194 210 232
196 212 234
204 220 243
206 223 246
205 221 244
207 224 246
206 223 245
207 224 246
206 223 245
207 223 246
208 225 247
209 225 248
208 224 247
208 224 247
210 226 248
208 224 246
123 127 135
133 128 125
130 126 124
135 131 129
136 132 129
133 128 125
141 136 133
141 137 134
140 135 132
141 136 134
146 141 138
141 137 134
140 135 132
145 140 137
140 136 133
144 139 136
135 132 131
140 137 135
139 135 133
141 137 135
141 138 137
142 138 137
137 134 132
141 138 136
141 138 136
142 138 136
138 134 132
138 134 132
140 136 134
143 140 138
142 138 137
138 134 133
139 137 136
136 133 131
139 136 134
142 139 138
139 137 136
137 135 133
142 140 139
139 137 136
138 136 135
138 135 133
141 138 137
145 142 142
143 141 140
137 134 132
139 137 135
136 133 132
137 135 133
141 138 137
141 138 137
140 137 135
137 133 131
139 135 133
138 135 133
141 138 137
142 139 138
138 135 134
139 136 134
138 136 133
140 137 135
139 135 133
139 136 133
143 139 137
139 135 133
139 135 132
138 134 132
139 135 132
141 138 136
140 136 134
133 129 126
138 135 133
139 135 133
135 132 129
142 138 134
139 134 131
137 133 130
139 135 132
137 133 130
146 141 137
121 118 116
113 141 155
119 136 157
121 137 158
120 136 157
121 137 159
119 135 156
121 137 159
121 137 159
119 136 157
120 136 157
123 139 161
122 138 159
120 137 158
119 135 156
121 138 160
120 136 156
120 136 157
118 135 156
123 140 161
122 139 161
121 137 158
120 137 158
119 135 156
119 135 156
119 135 156
120 136 157
119 135 156
121 137 158
121 138 159
119 135 156
122 138 160
118 134 155
119 135 156
121 137 159
118 134 156
121 137 158
121 138 159
122 138 160
120 137 158
121 137 159
120 136 157
120 137 158
119 135 156
119 136 157
120 136 157
121 137 159
119 136 157
120 137 159
119 136 157
122 139 160
120 137 158
121 137 159
119 135 156
122 138 160
123 140 162
118 134 154
121 137 159
115 132 147
97 114 106
82 99 66
79 98 48
76 94 41
81 99 59
92 109 96
112 128 141
118 134 154
120 136 157
119 136 157
119 135 156
122 138 159
123 139 160
121 138 159
120 137 158
119 135 157
119 136 157
119 136 157
120 136 157
118 134 155
120 136 157
120 137 158
119 135 156
121 137 159
121 138 159
119 135 156
123 140 161
120 136 157
121 137 159
119 135 156
119 136 157
117 133 154
100 119 148
80 104 141
76 103 142
73 100 141
77 102 138
88 109 139
107 124 147
122 138 159
117 134 155
123 139 161
117 133 154
120 136 157
120 136 157
121 137 159
117 134 155
120 137 158
121 138 160
120 136 157
119 135 156
120 136 157
120 137 158
121 137 159
116 130 151
86 84 100
55 26 39
52 29 34
50 34 32
47 37 31
43 32 28
39 25 25
54 51 61
99 111 129
118 134 155
119 136 157
121 137 159
113 127 147
90 96 107
61 53 51
49 38 29
53 41 32
53 41 32
54 43 33
50 42 31
56 62 48
53 76 59
116 136 141
173 190 210
189 205 227
185 200 222
190 207 229
194 210 232
195 211 233
196 212 235
194 210 232
197 212 235
200 216 239
204 220 244
205 222 245
205 221 245
205 223 246
205 222 246
204 221 244
207 224 247
206 223 246
206 223 246
207 224 248
207 224 247
208 224 247
207 224 247
108 111 116
120 117 115
135 131 129
137 133 130
137 132 129
140 135 132
140 135 131
143 138 135
143 138 135
138 133 130
142 137 135
139 134 131
139 134 131
143 138 134
143 138 135
142 137 133
139 135 134
146 142 140
144 140 138
139 135 133
142 138 136
145 141 140
141 137 135
141 137 135
143 139 137
139 134 131
138 133 131
143 139 136
144 139 137
144 141 139
142 138 136
141 138 136
140 136 134
141 138 136
137 134 131
139 136 135
136 132 130
140 137 135
140 136 135
142 139 137
139 135 133
139 136 134
139 135 134
138 134 132
141 137 136
138 135 133
141 138 137
141 137 136
137 133 131
139 135 133
138 135 133
142 138 137
140 137 135
140 137 136
142 140 138
142 139 137
139 136 134
140 137 135
138 135 132
139 135 133
141 138 136
140 137 135
141 138 136
140 135 132
144 140 137
142 137 134
140 134 132
139 134 132
139 135 132
141 136 134
138 134 131
141 137 134
138 134 131
137 134 132
137 134 130
144 140 137
141 137 133
137 133 130
139 135 131
145 140 135
111 109 108
104 128 140
122 138 160
119 135 155
118 133 154
120 136 158
121 137 159
121 138 159
119 135 156
121 137 158
122 139 161
121 137 159
120 136 157
118 134 155
120 136 158
120 137 158
123 139 160
121 137 158
119 134 155
120 136 158
122 145 159
122 158 159
120 166 155
119 165 154
120 159 155
122 145 159
123 140 161
120 136 157
121 138 159
120 136 157
121 137 158
122 139 160
120 136 158
120 137 159
119 136 157
119 135 156
119 136 157
121 138 159
119 135 157
120 137 159
122 138 159
121 137 158
120 136 157
122 138 159
118 135 156
121 138 160
120 136 158
121 137 159
121 137 159
120 136 158
119 135 156
119 135 156
121 137 158
116 132 156
113 128 154
116 131 155
118 135 157
115 131 148
97 113 105
75 92 46
76 94 36
70 86 33
73 91 35
73 90 34
74 90 40
83 99 80
112 128 142
117 133 154
122 138 160
120 137 158
120 136 157
120 136 157
119 135 156
121 137 159
119 136 157
120 136 157
118 134 155
119 135 156
118 134 155
121 137 158
119 136 157
117 133 153
119 136 157
118 134 156
120 136 157
121 137 159
120 137 158
119 135 156
121 137 159
119 136 158
101 120 148
75 101 139
66 95 136
65 94 135
63 90 130
61 88 127
61 86 120
78 104 123
102 127 132
108 131 138
114 134 147
118 135 155
121 137 159
118 134 155
121 138 159
120 136 157
121 137 159
119 135 156
120 136 157
120 136 158
119 135 156
119 135 156
118 135 156
111 123 143
71 64 78
51 36 33
52 50 34
50 54 32
48 54 31
46 51 30
44 47 28
39 35 30
86 95 109
117 132 153
123 139 161
119 135 156
120 136 157
111 125 145
86 91 102
56 51 51
51 39 31
49 38 30
46 41 32
59 82 64
61 112 89
64 123 97
91 139 125
165 185 203
180 196 218
187 203 226
190 207 230
192 209 232
193 209 232
193 209 231
194 211 234
192 208 231
196 212 234
202 219 242
204 221 245
202 219 243
205 222 247
204 221 245
205 222 246
204 221 245
206 224 248
205 223 247
207 224 248
206 223 247
205 223 246
207 224 248
91 92 96
90 88 89
128 124 122
142 137 134
142 137 133
139 134 130
142 136 132
144 139 136
138 132 128
141 136 132
141 135 132
144 138 135
143 137 133
143 137 134
139 133 129
145 139 136
136 132 130
144 140 137
144 140 137
147 143 140
140 134 131
144 139 136
140 135 131
145 140 137
145 140 136
143 138 134
145 139 136
143 137 134
143 138 135
143 137 133
149 144 142
144 140 137
145 141 139
144 139 137
146 143 141
145 141 139
143 138 136
146 141 139
142 137 135
144 140 137
145 140 138
141 137 134
144 140 137
144 140 138
140 135 132
143 138 135
144 140 138
141 137 134
140 136 133
143 139 136
141 136 134
145 140 138
141 137 135
142 137 135
139 135 132
141 137 135
141 137 133
140 136 133
141 137 134
142 138 136
141 137 134
144 140 138
143 139 136
143 138 135
141 135 132
142 137 134
143 138 135
143 137 134
139 134 131
144 139 136
137 133 130
137 132 129
134 130 126
140 136 133
143 138 134
143 138 134
144 140 136
136 132 129
138 134 130
139 134 130
80 80 82
101 120 133
120 137 158
120 136 157
119 135 155
120 137 158
120 136 158
122 138 159
121 137 158
120 136 157
120 136 157
119 135 155
120 137 158
120 136 157
117 133 154
120 136 158
120 136 157
120 136 157
120 137 158
121 151 156
124 181 158
120 191 156
114 192 154
113 191 153
114 188 150
119 179 152
119 153 153
118 133 153
116 122 146
107 106 131
111 110 136
114 120 143
119 131 153
119 135 156
122 138 159
118 134 155
119 136 157
120 136 157
120 137 158
120 136 157
122 138 160
120 136 157
121 137 159
119 135 156
113 128 156
119 136 157
121 138 159
118 134 155
122 138 160
120 136 157
119 135 156
113 129 156
90 101 145
73 82 139
61 69 133
61 69 132
83 94 139
95 109 127
78 94 68
72 89 34
69 85 33
69 86 33
67 83 31
67 83 32
69 85 32
72 88 43
98 114 116
116 132 152
119 135 157
120 136 158
120 136 158
121 137 158
118 134 155
119 135 156
118 134 154
121 137 158
118 135 156
119 135 156
118 134 155
120 137 159
118 134 155
121 137 159
122 138 160
117 133 154
121 137 158
120 136 157
120 135 156
121 137 159
120 137 158
112 129 153
79 102 136
65 93 133
62 89 128
63 91 130
62 88 125
57 86 113
56 99 83
57 110 57
57 109 44
63 115 52
72 115 73
91 119 112
114 132 148
118 135 156
118 134 155
121 137 158
121 137 159
117 133 154
121 138 160
119 134 155
119 135 157
120 136 157
115 130 150
107 120 139
69 68 76
50 52 32
48 54 31
50 57 33
49 55 32
47 54 32
43 51 31
42 49 32
78 87 97
114 129 150
119 135 156
119 135 156
118 134 155
118 134 155
111 125 145
86 93 106
57 52 54
47 38 31
51 70 55
63 119 95
66 131 103
68 134 107
72 134 110
144 170 183
175 193 215
184 201 224
188 205 228
190 207 230
193 209 233
193 209 233
194 210 234
193 209 233
193 210 233
192 209 233
199 216 240
201 219 243
202 220 244
203 221 246
203 220 245
206 223 248
206 224 248
206 224 249
205 223 248
207 225 249
206 224 249
203 220 243
85 85 88
80 79 80
88 89 91
120 116 114
142 136 132
145 139 135
141 136 132
141 135 131
144 138 133
147 142 138
143 137 132
144 137 133
147 141 137
144 138 134
147 141 137
144 137 133
139 133 130
147 142 138
141 135 131
147 142 138
143 137 133
142 136 132
146 140 136
145 139 135
142 135 131
148 142 138
147 141 137
146 139 136
148 143 139
144 138 134
147 142 139
141 135 131
142 137 134
142 137 134
147 142 139
144 140 137
141 136 133
145 141 138
140 135 132
142 137 134
142 136 133
143 138 135
146 141 138
143 138 134
142 138 135
142 137 134
142 137 134
146 141 138
145 140 136
144 139 136
139 134 131
143 138 134
145 140 136
144 138 135
146 142 139
145 141 137
143 138 135
143 138 135
143 138 134
146 141 137
145 141 138
145 140 137
146 141 137
140 134 131
142 136 132
145 139 135
142 135 131
145 139 135
143 138 134
142 136 133
138 133 130
142 138 135
141 136 133
141 136 133
137 132 128
144 139 135
139 134 129
135 131 127
137 132 129
99 98 97
77 78 80
101 115 129
119 135 157
118 135 156
119 135 156
120 136 157
120 136 158
119 135 156
119 136 157
118 134 155
118 135 156
120 137 158
123 139 161
120 136 158
117 133 154
117 133 154
121 137 159
118 135 156
120 144 155
121 179 151
119 197 153
116 196 155
112 192 153
111 191 153
114 193 155
118 194 153
116 167 143
106 107 123
98 70 104
96 64 100
95 62 97
96 67 101
101 84 113
112 117 139
120 136 158
120 137 158
120 136 158
119 135 156
121 137 158
118 134 155
120 137 158
121 138 159
119 135 155
121 137 158
104 122 148
122 138 160
120 136 157
123 139 161
120 136 157
119 135 156
113 128 156
72 82 136
29 32 123
14 14 121
14 14 123
13 13 118
21 22 121
43 50 110
62 75 71
67 82 31
67 83 31
66 82 31
66 82 31
65 80 30
64 79 30
64 79 30
88 104 94
118 134 154
117 133 154
116 132 153
119 135 157
118 134 155
119 135 156
122 138 160
120 136 157
120 137 159
120 136 158
117 132 153
121 137 158
117 133 154
120 136 157
119 135 156
118 134 155
122 139 161
116 132 153
118 134 155
117 133 154
120 136 157
118 135 156
106 125 150
68 91 126
59 84 121
60 86 123
56 81 115
55 90 112
46 104 81
45 121 64
44 116 50
47 111 37
50 106 21
51 106 20
53 102 35
85 116 103
115 133 150
119 135 156
120 136 157
119 135 156
118 134 155
115 131 151
118 134 155
118 135 156
120 136 158
116 131 151
111 125 144
75 83 86
47 53 30
46 52 30
48 54 31
42 55 36
33 56 40
25 56 42
25 55 41
50 73 72
88 105 118
113 130 149
117 133 154
115 131 151
116 132 153
114 130 151
109 124 144
78 95 113
47 78 96
44 94 99
58 126 115
65 132 109
69 135 108
64 131 103
100 141 135
172 189 212
181 198 221
184 200 224
192 210 234
189 205 228
192 208 232
194 211 235
191 209 232
195 212 236
190 207 231
198 216 241
199 217 242
200 217 243
202 220 245
201 219 244
202 220 245
203 221 246
203 221 246
205 223 248
204 222 247
206 224 249
202 220 244
75 76 74
66 65 70
77 78 79
81 81 83
94 92 92
124 120 117
141 134 130
146 139 135
142 135 130
146 139 134
150 142 137
146 139 133
145 138 133
148 141 137
148 142 137
143 136 131
146 140 137
143 137 132
146 139 135
143 137 132
143 136 131
147 140 136
147 141 136
145 138 134
149 143 138
146 139 134
145 139 134
146 140 135
147 141 137
148 142 138
144 138 134
144 139 135
142 136 133
147 142 139
145 139 136
140 134 130
139 133 129
146 141 138
147 142 139
143 137 133
147 141 138
144 138 134
141 135 131
144 138 134
142 137 133
141 136 132
143 138 135
145 140 136
145 140 136
143 138 134
144 138 135
142 136 132
147 142 139
146 140 137
146 140 136
146 140 136
145 140 136
147 142 139
144 139 135
142 137 133
145 140 136
140 134 130
143 138 134
143 137 133
142 137 133
145 139 134
145 138 133
148 142 137
145 139 134
144 137 133
141 135 131
146 141 137
137 131 127
146 140 137
144 139 135
145 138 134
137 132 128
128 124 122
88 88 89
81 81 83
76 77 80
100 112 126
118 134 155
118 134 155
119 136 157
119 136 157
120 137 158
121 138 160
121 137 158
121 138 159
121 137 159
119 135 156
119 135 156
118 135 156
120 136 157
121 137 159
122 139 161
119 135 156
121 162 154
124 196 151
124 199 155
118 196 152
115 193 151
115 193 152
118 192 153
112 180 142
101 118 112
93 60 94
93 58 93
92 57 92
95 59 95
97 61 98
96 60 96
97 79 108
114 122 144
117 133 155
116 132 154
116 132 153
118 134 155
120 137 158
119 136 157
119 135 157
120 137 158
121 138 159
84 137 120
118 136 155
118 134 155
118 134 155
119 135 156
115 130 153
77 87 132
17 19 114
13 13 117
14 14 121
13 13 116
13 13 117
13 13 115
13 13 114
34 42 94
57 70 48
64 77 31
65 79 33
63 75 33
57 69 28
58 72 28
60 74 28
83 97 91
117 133 153
116 132 153
120 137 158
121 137 159
122 138 160
121 137 159
117 133 154
119 135 156
120 136 157
117 134 155
117 133 154
121 137 158
116 132 153
117 133 154
119 135 157
118 134 155
117 133 153
121 137 159
118 134 154
119 135 156
116 132 152
120 136 158
100 117 141
62 86 120
56 80 114
56 80 113
48 100 106
34 119 93
25 129 83
23 131 84
23 135 86
28 128 78
39 119 62
45 104 33
47 99 19
54 97 44
94 117 117
115 130 150
118 133 154
117 133 154
118 134 156
117 133 154
120 136 156
115 131 152
117 132 153
115 130 150
106 121 139
63 73 72
43 57 43
45 60 47
39 61 48
24 56 43
18 56 43
18 55 43
19 56 44
18 55 43
32 62 55
77 94 103
109 124 143
114 129 149
113 128 148
106 125 146
77 115 140
48 101 130
18 95 126
17 95 125
21 100 128
34 104 120
52 117 109
62 127 101
77 133 114
155 174 193
179 196 221
184 202 226
185 203 227
188 205 229
190 208 232
188 205 230
189 206 231
190 208 233
188 205 229
192 209 234
196 215 240
202 221 247
198 217 243
199 218 243
201 220 246
201 220 246
204 223 249
202 221 247
204 222 248
205 224 250
198 215 241
65 74 66
63 63 64
66 75 64
76 76 77
82 82 85
83 83 84
88 86 87
99 95 94
117 111 109
134 128 124
144 137 133
149 141 136
147 140 134
148 141 135
152 145 140
146 139 135
144 137 132
148 142 138
146 140 135
148 142 137
144 137 132
146 139 134
147 140 136
146 139 134
148 142 137
150 143 138
149 142 138
148 141 136
149 142 138
143 137 132
145 139 135
146 141 137
146 140 136
148 142 138
150 145 141
143 137 133
144 138 134
144 139 135
145 139 135
148 142 138
148 143 139
143 136 132
144 138 134
143 138 133
145 140 136
144 139 135
146 141 137
146 141 137
145 140 136
146 141 137
143 138 133
145 140 136
143 137 132
145 139 134
146 139 135
147 141 136
147 140 135
148 143 139
144 139 135
144 139 135
146 140 136
145 139 135
141 135 130
149 143 139
145 139 135
149 143 139
143 137 132
147 140 135
145 139 134
150 144 140
144 137 133
144 138 134
145 138 133
141 135 131
130 125 122
112 108 106
90 89 90
76 77 79
78 79 81
79 79 81
77 78 81
94 107 121
115 134 154
114 132 152
119 136 157
117 135 156
117 134 154
118 135 156
112 127 149
105 118 143
91 101 132
86 94 124
102 114 142
110 124 148
119 135 156
121 137 158
117 133 153
119 137 157
104 153 133
99 163 116
108 175 130
116 187 142
119 190 146
116 185 143
87 137 106
84 105 93
87 67 89
87 54 88
87 54 87
87 54 87
90 56 90
87 54 87
90 56 90
82 54 85
71 69 91
63 73 90
60 70 88
71 81 99
94 107 127
116 132 153
121 137 158
117 133 153
119 135 156
120 137 158
43 143 73
106 138 142
120 137 158
120 136 158
120 136 157
103 117 143
39 44 115
13 13 111
12 12 106
12 12 110
13 13 112
13 13 114
13 12 110
12 12 108
22 16 105
54 46 77
67 48 61
69 40 67
69 36 68
64 43 59
58 58 43
59 69 38
90 105 109
118 134 153
117 133 154
120 137 158
120 136 157
118 135 156
118 134 154
117 133 153
116 132 153
118 134 155
121 137 158
119 135 156
120 137 158
118 133 154
119 134 155
120 135 156
117 132 153
118 134 155
120 136 158
120 136 157
120 136 157
119 135 156
117 133 154
108 124 147
68 88 118
51 73 105
45 97 101
27 125 86
21 129 82
21 129 82
21 131 84
22 134 86
21 133 84
21 124 78
34 116 63
44 97 26
45 95 18
79 108 95
112 129 147
114 129 150
114 130 150
115 131 152
115 130 150
114 129 149
116 132 153
115 130 151
112 128 148
95 116 132
57 98 103
46 100 104
46 103 107
41 96 98
34 83 83
21 59 51
18 54 42
17 53 41
17 53 41
16 49 38
29 57 50
80 95 106
105 118 136
98 112 130
73 108 132
22 93 123
13 96 126
13 97 128
13 96 127
13 92 121
13 93 124
25 97 120
53 118 109
61 124 97
109 143 144
171 186 210
181 198 223
182 201 226
187 206 231
189 208 233
186 204 229
192 210 236
189 207 232
190 208 233
190 208 233
193 211 236
193 212 238
197 217 243
197 217 243
200 220 246
200 220 246
202 221 248
199 219 245
202 222 249
201 220 247
198 216 243
67 75 70
59 51 45
72 76 58
75 82 77
81 80 82
86 85 87
82 80 80
86 84 85
84 83 85
85 84 85
86 84 85
94 91 90
104 100 99
118 113 110
129 123 120
133 127 123
138 131 126
142 135 130
143 136 131
148 141 137
150 144 139
145 138 132
147 139 134
151 144 138
147 140 134
148 141 136
147 140 135
147 139 134
149 142 137
145 139 134
141 134 129
148 142 137
145 139 134
146 140 135
147 141 136
144 138 133
149 142 138
143 135 130
144 137 132
146 140 135
149 143 138
147 140 135
149 142 137
147 141 136
145 140 135
149 144 139
145 140 136
142 136 132
145 139 135
143 137 133
145 139 134
144 138 133
146 140 135
145 139 134
142 135 130
142 135 130
150 144 140
147 140 135
147 140 136
145 139 135
148 142 137
146 139 134
147 141 136
147 140 135
144 138 133
143 136 131
147 140 134
143 136 131
141 135 130
131 126 123
125 120 117
115 112 110
105 102 101
89 87 88
84 83 84
82 81 82
81 80 81
77 78 81
78 78 80
81 81 82
81 81 83
89 104 117
112 131 150
112 131 150
118 136 156
117 134 155
117 135 155
106 121 144
75 80 116
47 41 96
41 32 90
44 34 95
48 42 97
62 63 105
96 107 134
116 132 154
118 135 156
118 135 155
93 133 121
72 123 88
75 126 93
81 136 101
81 136 100
80 130 96
50 83 55
71 59 72
85 53 84
81 50 81
81 50 81
82 51 81
86 53 85
82 51 82
67 45 73
36 32 55
20 28 49
19 27 48
20 28 49
21 29 51
26 34 54
69 79 97
109 125 145
119 135 156
119 135 157
118 134 155
50 135 52
93 138 111
119 137 152
116 132 151
117 133 154
94 107 139
22 24 99
11 12 100
11 11 99
12 12 104
12 12 102
12 12 105
12 12 106
17 11 102
49 9 88
69 8 75
67 4 70
67 4 70
71 4 74
69 4 72
66 14 68
66 53 67
100 113 128
118 135 156
117 132 153
117 133 154
117 133 154
113 127 146
109 121 139
109 122 140
119 134 155
117 132 152
118 134 155
119 136 157
118 134 156
114 129 149
104 112 129
96 97 112
95 96 109
94 97 111
109 118 136
117 132 153
114 130 150
117 132 153
117 134 155
115 130 152
85 101 126
50 79 99
29 112 83
20 126 80
20 128 80
20 129 81
20 125 78
20 126 80
19 124 78
19 124 78
22 120 74
36 99 42
42 89 17
71 100 82
111 127 143
114 129 149
112 127 148
115 130 151
111 126 146
112 127 147
110 125 144
107 122 141
84 115 127
56 109 116
47 107 112
47 109 114
46 107 112
46 106 111
46 106 110
38 93 95
22 61 53
17 51 39
16 50 39
16 48 38
15 46 36
48 67 68
87 100 114
82 104 123
34 87 112
35 91 119
25 84 112
19 93 122
13 92 121
12 90 118
12 89 117
13 91 119
30 96 112
54 113 94
68 116 99
145 165 182
173 189 214
180 198 223
185 203 229
186 204 229
188 207 233
186 205 230
188 206 231
188 206 232
187 204 229
187 205 230
191 210 236
191 210 236
197 217 244
200 220 247
199 219 246
199 219 246
203 223 250
199 218 246
198 217 245
198 217 245
79 81 84
60 48 46
71 59 60
64 81 63
78 79 80
70 67 79
84 83 84
86 85 86
85 84 84
82 81 82
88 87 88
88 86 87
86 84 85
85 84 84
84 83 83
85 83 83
86 84 85
86 84 84
89 86 85
102 98 96
110 106 104
111 107 105
115 111 108
121 115 111
124 117 113
130 124 119
135 129 125
140 134 130
138 131 126
138 132 127
146 139 135
140 134 129
143 136 131
144 137 131
147 140 135
149 143 138
147 140 135
146 139 133
148 141 136
147 140 135
147 140 135
143 136 130
151 144 139
148 142 137
146 139 133
146 140 135
146 140 135
145 139 134
146 140 135
144 137 131
149 143 139
144 137 131
150 143 137
148 141 136
147 141 135
144 137 131
140 133 128
141 135 130
136 130 126
133 127 123
129 123 119
126 120 116
118 114 111
113 109 106
107 104 102
105 102 101
96 94 94
88 87 88
84 84 86
81 80 81
81 80 82
80 79 81
83 81 83
83 82 83
82 80 81
83 82 83
80 79 81
79 81 84
76 76 78
81 82 84
72 67 67
93 108 122
111 129 148
112 130 149
116 134 154
116 133 154
106 122 144
61 64 100
40 30 88
39 30 86
40 31 88
42 32 91
37 28 81
39 30 86
50 47 93
93 104 131
120 137 159
117 133 153
98 133 129
70 125 90
70 125 91
66 128 86
67 124 88
58 109 74
46 86 54
68 57 69
78 48 78
80 49 79
78 48 77
83 52 83
83 52 83
68 44 72
31 29 50
18 25 43
19 27 48
19 27 48
20 29 50
19 27 47
20 28 48
22 30 50
74 85 103
118 133 154
118 134 155
120 136 158
119 146 70
123 149 77
128 151 94
122 142 119
121 139 148
91 103 129
27 31 95
10 11 91
11 11 98
11 11 98
12 12 103
12 11 101
12 11 100
44 9 88
66 5 71
64 4 65
70 4 73
64 4 66
67 4 69
68 4 71
61 4 63
69 24 73
94 96 118
113 127 147
115 131 152
110 123 140
99 102 111
86 77 74
79 66 58
82 71 67
89 85 87
97 103 114
112 126 145
117 133 154
111 122 141
88 81 92
76 61 67
74 55 59
72 53 58
74 55 59
76 64 71
90 92 105
115 129 148
118 134 155
114 130 151
115 131 152
102 117 138
72 104 110
24 117 78
20 123 78
20 122 78
19 118 74
19 121 75
19 119 75
19 122 77
18 117 73
21 114 70
39 91 55
57 74 46
70 75 74
104 113 131
106 118 137
111 125 145
108 123 143
108 122 141
108 123 142
106 119 138
94 117 132
54 107 112
48 109 114
46 105 109
43 100 104
46 105 109
43 101 105
43 101 104
44 102 105
35 85 86
18 52 43
15 46 36
14 45 35
13 41 32
32 51 48
84 93 106
93 101 120
103 106 130
107 108 132
105 107 130
94 103 127
53 89 115
16 88 116
13 93 122
11 83 109
18 86 108
42 98 91
50 102 80
88 117 116
159 175 198
175 193 219
180 199 224
185 204 230
185 202 229
187 205 231
184 203 229
186 205 230
190 209 235
186 205 230
190 210 236
191 211 238
191 211 237
197 218 246
197 218 246
200 220 248
197 217 245
195 215 243
198 218 246
199 219 248
91 91 98
57 45 43
62 40 41
50 59 76
69 65 63
60 55 71
83 82 83
69 75 84
75 72 76
87 85 85
85 84 85
87 86 86
88 86 86
88 86 86
87 86 87
84 81 81
85 83 84
85 83 84
87 85 85
85 84 85
85 83 84
85 83 83
88 87 87
88 86 86
87 85 86
87 85 86
87 85 86
84 82 83
84 84 85
85 85 86
83 83 84
88 88 89
88 87 88
88 87 88
89 88 88
96 94 94
98 96 96
101 100 99
102 100 99
105 102 101
101 99 98
101 99 98
104 102 101
102 100 99
103 102 101
100 98 96
100 98 97
103 101 101
100 99 98
96 95 96
91 90 90
94 93 93
94 93 94
89 88 88
90 89 89
86 85 86
89 88 90
84 84 86
82 82 83
80 80 81
82 82 84
83 82 83
84 83 85
83 82 83
85 84 85
82 82 83
81 79 80
83 83 84
83 83 85
80 80 82
84 83 85
80 79 80
81 80 82
83 81 83
81 79 80
85 84 86
80 80 83
78 80 83
80 76 75
82 81 83
75 64 67
100 114 130
113 131 150
115 133 152
116 132 152
115 132 152
81 89 115
38 30 83
37 28 81
37 28 82
39 30 84
39 29 85
39 30 85
40 30 87
40 30 86
63 65 102
110 125 147
121 138 159
111 134 146
79 127 103
64 125 83
65 123 85
60 118 78
57 111 74
53 99 65
64 70 66
69 43 69
74 45 73
74 46 74
75 47 75
73 46 74
44 32 53
19 25 44
18 25 43
18 26 45
19 26 46
18 26 45
19 26 45
19 27 47
20 28 48
41 49 65
104 118 138
118 134 155
121 137 159
128 150 75
125 147 72
123 146 70
124 147 72
121 141 88
104 120 124
44 50 92
10 10 85
10 10 90
11 11 93
11 10 92
11 11 94
26 10 93
57 5 67
66 4 68
64 4 66
66 4 69
64 4 66
66 4 68
63 4 64
60 3 61
62 4 64
68 47 77
101 112 131
99 109 122
80 72 70
77 60 48
79 62 48
76 60 47
76 60 47
74 58 45
78 62 49
89 89 95
104 115 133
75 66 73
70 51 55
74 55 59
72 53 57
74 54 58
70 51 55
71 52 56
72 53 58
86 84 95
109 122 142
110 126 146
108 123 143
105 120 139
81 115 116
23 114 72
18 116 71
18 116 71
18 111 69
19 118 74
18 113 70
16 109 65
33 106 69
65 78 73
78 52 72
85 46 75
80 46 72
84 52 80
86 67 90
99 102 122
109 123 143
106 121 140
107 121 140
105 119 138
75 111 121
46 103 107
41 96 99
43 100 104
41 96 99
40 94 98
43 100 104
42 99 103
43 99 103
40 95 98
25 64 61
13 40 31
13 40 31
11 37 29
55 61 66
121 116 136
134 127 152
131 126 154
135 129 159
130 122 149
133 127 154
116 111 133
77 93 114
21 83 108
11 83 109
13 78 101
35 82 79
50 76 58
62 72 58
121 123 136
169 185 209
174 193 219
178 197 223
185 205 232
186 206 233
184 204 230
186 205 232
187 206 232
188 207 234
190 211 237
191 211 238
187 207 234
194 214 242
195 216 244
195 216 245
195 216 244
196 217 245
198 218 247
196 216 245
116 119 130
70 63 62
58 38 34
56 52 73
62 52 42
60 57 61
81 79 79
57 56 61
66 60 64
85 83 84
87 85 86
80 71 66
85 81 80
87 85 84
82 78 78
74 65 64
86 83 83
86 84 84
87 86 87
88 87 88
87 86 86
85 83 83
89 88 89
83 82 82
84 82 83
86 85 85
82 81 81
84 84 85
83 82 83
82 82 83
81 81 82
84 84 85
82 82 83
81 81 82
83 83 85
84 84 85
80 81 82
85 84 85
84 83 84
84 83 84
83 83 84
86 85 86
84 83 85
86 86 88
81 81 82
82 82 83
82 82 83
82 82 83
86 87 88
83 84 85
83 83 84
83 83 84
81 81 82
84 84 85
86 85 87
85 85 87
82 82 84
81 80 81
82 81 82
80 80 82
83 83 85
82 81 82
81 80 81
83 83 84
82 81 81
81 81 83
85 85 87
83 83 84
82 82 84
81 81 82
84 84 87
82 82 84
84 82 83
83 83 85
84 83 84
78 76 78
74 72 75
68 67 70
79 65 57
81 80 82
73 61 61
112 127 146
117 134 154
118 135 155
119 136 157
112 128 149
60 62 97
35 26 76
36 27 79
38 29 82
37 28 80
37 28 80
36 28 79
37 29 82
39 30 85
45 41 86
100 113 136
115 132 151
115 133 152
98 128 129
72 120 93
57 118 74
51 108 65
49 109 62
54 116 69
66 98 78
68 53 72
66 41 66
67 41 67
66 43 66
63 48 65
37 38 50
32 37 48
27 32 46
19 27 46
17 24 42
17 25 43
19 27 46
18 25 43
17 24 41
20 27 45
90 103 121
119 135 156
119 135 156
120 142 67
122 144 69
124 145 73
125 147 70
117 138 65
115 134 87
83 95 114
17 19 76
10 10 83
9 9 82
9 9 82
10 10 87
36 9 82
60 4 63
63 4 63
61 4 61
59 3 60
57 3 56
58 3 59
58 3 59
57 3 58
56 3 57
58 18 62
90 92 111
86 81 82
70 54 42
76 60 46
74 58 45
77 60 47
74 57 45
75 58 46
72 56 44
72 57 46
71 63 63
62 45 48
66 48 52
69 51 54
69 50 54
71 52 56
70 51 55
68 49 53
70 51 55
70 54 59
93 101 117
112 128 149
103 118 138
99 113 132
81 111 114
25 109 72
17 107 66
17 107 67
16 107 64
17 105 65
17 109 66
32 97 63
71 59 67
79 42 69
83 42 73
84 43 74
78 41 70
81 42 71
75 38 65
80 51 76
95 96 116
106 120 139
104 119 138
103 121 139
61 100 108
40 93 97
39 93 95
42 96 99
41 95 99
40 94 97
38 90 93
39 90 93
38 89 92
38 90 92
25 63 61
12 37 28
11 35 27
31 41 39
109 101 118
140 131 156
134 125 152
135 128 157
131 123 152
131 122 149
133 122 147
138 128 152
120 115 136
53 82 104
10 74 97
34 72 92
64 60 60
82 47 34
87 44 30
94 57 53
136 139 155
160 174 197
171 189 215
179 199 226
182 201 227
187 207 234
186 206 233
184 204 231
184 204 231
188 209 236
186 207 234
190 211 239
189 209 236
190 210 237
190 211 238
193 214 243
195 217 246
196 217 246
194 215 244
123 129 144
78 69 69
62 52 50
60 55 69
59 50 44
42 40 35
78 77 78
67 65 67
67 63 65
81 79 79
75 73 78
66 47 33
78 68 62
86 85 86
74 65 64
59 35 29
85 82 82
87 85 85
83 82 82
87 86 87
85 84 85
84 82 82
84 82 82
89 87 88
85 84 84
86 83 83
82 80 80
81 81 83
83 83 85
85 85 86
82 82 83
82 82 84
84 84 85
80 80 81
83 84 85
82 83 84
85 86 88
85 85 87
85 85 86
85 85 87
81 81 82
85 85 86
85 85 87
86 86 88
83 83 84
84 84 87
83 83 85
81 80 81
81 80 82
83 82 84
83 83 84
81 81 82
84 84 86
83 83 84
83 82 83
81 81 82
81 81 82
83 83 85
83 83 84
83 82 83
83 83 85
83 83 85
82 82 84
81 80 81
82 82 83
85 85 86
82 83 85
83 84 86
82 82 83
78 78 80
80 79 80
81 80 82
85 85 87
82 80 81
84 84 85
65 58 63
70 67 71
50 45 49
70 54 46
80 81 83
71 70 62
112 127 146
115 132 152
117 133 154
115 131 152
108 123 144
50 50 86
36 27 77
35 26 75
37 28 80
35 26 75
36 27 76
34 26 74
34 26 74
33 25 73
40 33 82
89 104 123
106 125 139
104 126 137
104 126 135
86 118 112
72 112 93
54 104 67
51 102 64
67 109 85
85 115 109
79 89 98
61 47 64
57 47 60
55 54 60
52 54 57
53 56 59
56 59 63
52 55 59
45 48 54
25 30 43
16 22 39
17 23 40
18 25 43
17 23 40
21 28 45
88 101 118
117 133 153
118 135 156
118 139 64
116 137 64
119 140 68
113 133 63
122 142 70
115 134 67
108 125 113
74 84 111
31 36 77
10 11 70
8 8 71
8 8 74
35 16 74
57 3 58
60 4 61
68 13 61
79 21 64
83 24 62
83 24 63
80 23 62
66 15 57
54 7 53
55 8 56
76 67 81
74 59 47
70 54 42
71 56 44
73 57 44
69 53 42
73 57 44
71 55 43
67 52 40
69 53 42
60 46 37
56 41 42
61 44 48
66 48 52
68 49 53
67 49 53
69 50 53
65 47 51
65 47 50
66 48 52
84 86 99
111 126 146
113 129 150
107 122 142
100 122 135
52 107 86
17 107 66
15 100 61
16 101 63
15 101 61
19 95 58
61 77 67
79 42 69
78 40 68
77 39 67
73 37 63
75 38 65
79 41 69
80 41 70
75 38 65
79 54 77
101 110 129
105 120 139
101 118 135
59 98 105
38 89 92
40 91 95
37 86 89
38 89 92
37 82 84
53 93 97
60 89 93
54 89 92
39 86 90
27 67 66
11 33 26
10 33 26
67 64 72
128 116 136
140 129 153
140 132 158
138 130 157
135 125 150
141 130 156
135 122 144
137 125 148
130 119 140
91 96 114
32 69 89
68 55 62
91 44 32
89 42 29
84 40 28
87 42 29
96 74 77
143 148 167
165 179 203
172 190 216
178 198 226
180 201 228
182 202 229
182 202 229
185 206 234
188 209 237
186 208 235
187 208 235
188 208 236
188 208 236
188 209 237
188 208 236
190 210 239
190 211 241
193 215 244
149 162 182
71 64 65
65 57 56
69 65 67
63 57 55
42 42 41
65 66 68
82 80 81
83 82 83
82 81 82
45 46 67
53 41 47
69 47 35
82 72 69
80 75 74
61 48 44
80 77 75
81 81 79
85 84 84
81 80 80
84 83 83
89 88 90
85 83 83
87 86 86
87 85 86
84 83 83
83 82 83
82 81 81
81 81 83
82 81 82
83 83 85
83 83 84
81 80 81
85 85 87
83 84 85
80 80 81
81 81 82
79 79 80
82 82 84
86 87 88
82 82 83
84 84 85
82 82 83
82 82 83
84 85 87
83 83 84
79 78 79
81 81 82
84 84 87
84 84 87
80 80 81
82 83 85
80 80 81
84 84 85
84 85 87
81 81 82
83 83 85
81 81 83
82 82 84
79 79 81
83 83 85
82 82 84
79 78 80
83 82 84
81 81 83
80 80 81
84 84 86
84 84 86
82 83 85
79 78 80
81 80 82
79 78 79
81 79 80
83 82 84
76 80 81
52 42 46
66 64 67
42 33 38
72 62 59
74 74 75
69 81 69
115 131 151
119 136 157
113 129 150
116 132 153
107 122 143
53 55 85
33 25 72
33 25 71
32 24 69
36 27 78
33 25 72
32 25 70
33 25 71
34 26 74
39 36 73
92 105 126
111 130 147
105 124 138
101 121 132
92 115 121
90 112 118
80 103 103
76 101 98
81 103 105
90 109 115
83 99 106
60 64 71
51 53 55
53 56 59
50 52 55
50 52 54
52 55 58
52 55 57
51 53 56
47 49 54
24 28 41
17 24 41
16 23 39
16 23 39
32 39 53
99 113 131
118 134 155
119 135 156
113 134 62
117 138 65
113 134 62
113 133 61
113 132 63
108 126 58
102 119 86
93 106 124
71 81 101
42 49 74
38 43 69
38 43 67
54 55 76
57 21 59
79 21 61
98 31 69
98 32 68
99 32 68
98 32 68
97 31 67
94 30 64
86 25 63
56 24 53
69 56 58
71 55 42
69 54 42
66 51 39
65 50 38
69 53 42
67 52 40
63 48 37
65 50 39
66 51 40
59 45 35
51 38 36
60 44 47
62 45 48
63 45 49
66 48 51
64 47 50
66 48 51
64 47 50
59 43 46
76 73 82
107 122 141
111 127 147
110 126 146
106 123 141
82 114 114
33 95 68
15 95 58
14 95 57
14 95 57
30 93 62
71 47 64
75 38 65
77 39 67
79 40 69
70 35 60
76 38 66
73 37 63
76 38 65
75 37 64
74 38 64
87 82 101
107 123 142
105 122 140
70 101 111
36 84 87
35 82 85
38 82 85
83 95 100
121 104 114
131 106 119
135 110 125
132 111 124
110 96 106
63 60 62
20 32 26
33 44 46
81 79 90
122 110 129
132 117 139
138 126 150
141 129 153
140 127 151
129 114 136
125 109 129
126 113 134
122 111 131
102 95 111
70 59 68
85 41 29
82 39 27
86 41 28
83 40 27
83 40 28
85 41 29
98 78 83
144 151 172
164 181 206
172 192 219
177 198 226
177 198 226
181 201 229
182 203 231
183 205 233
184 206 234
187 208 237
188 209 238
184 205 233
185 206 235
184 205 233
187 207 236
187 207 236
188 209 238
158 173 196
69 63 65
73 68 66
76 73 74
78 76 77
49 49 49
51 52 53
81 79 80
83 82 83
83 82 84
42 41 57
48 41 46
64 41 29
65 44 34
81 77 76
81 80 79
57 66 44
52 68 45
81 82 80
85 83 84
86 85 86
81 79 80
86 85 86
83 83 84
85 83 84
85 84 85
83 82 82
83 83 84
81 81 82
82 83 85
81 81 82
82 83 84
83 83 85
83 83 84
87 87 89
81 81 83
81 82 83
82 82 83
85 85 87
84 84 85
81 81 82
80 79 80
83 82 83
80 80 81
82 82 84
83 83 85
83 84 86
82 82 84
84 84 87
78 78 80
80 80 82
81 81 83
82 81 82
84 84 85
84 83 84
82 82 84
82 81 82
82 82 83
79 79 80
80 80 82
83 83 85
81 81 83
82 82 84
82 82 84
81 80 82
80 80 81
82 81 83
78 78 79
79 79 80
81 80 81
79 79 81
82 81 82
82 81 83
82 83 83
71 83 85
55 54 56
66 65 68
44 38 40
70 68 69
73 71 69
83 90 92
114 130 151
114 129 150
116 132 154
114 130 151
111 126 147
70 77 103
30 23 66
31 23 66
32 24 69
33 25 71
32 24 69
31 24 67
32 24 69
35 26 74
55 58 85
106 122 142
113 130 149
113 129 149
112 129 148
108 125 144
109 126 144
110 126 145
106 122 139
97 111 128
102 117 134
76 85 95
52 55 58
50 56 54
57 75 57
63 83 61
56 68 56
50 56 53
51 54 56
50 52 53
51 53 56
42 44 50
19 24 38
15 21 36
16 22 38
60 70 84
105 120 140
114 129 150
116 132 153
113 132 63
107 125 57
111 130 61
106 124 57
104 122 57
101 119 54
104 120 84
91 105 120
85 98 115
80 90 107
83 96 111
85 97 113
87 98 116
85 54 79
96 31 65
95 30 65
96 31 66
97 32 67
89 28 60
97 31 66
98 31 67
94 30 64
92 43 73
76 64 69
67 52 40
66 51 39
66 51 39
63 49 38
67 52 40
65 50 39
67 52 40
61 47 36
58 44 34
57 43 34
44 31 30
49 34 36
53 38 41
61 44 47
58 42 44
62 44 47
60 43 46
58 42 45
55 40 43
72 70 79
109 124 143
111 128 147
108 125 144
106 123 141
102 121 136
76 106 107
32 87 62
14 84 51
11 81 45
39 67 49
69 36 59
74 37 64
73 37 63
70 35 59
71 35 61
74 37 64
71 36 61
71 36 62
72 36 61
69 34 59
79 66 85
109 124 144
109 125 145
85 105 119
37 77 80
40 75 77
95 95 102
141 115 128
136 111 127
132 109 127
130 108 126
134 113 131
130 106 121
128 97 108
99 79 86
62 69 77
89 85 98
111 97 115
118 102 121
123 109 128
124 110 130
121 106 125
111 95 112
96 75 89
106 91 108
110 99 117
89 80 91
83 49 48
81 37 26
79 37 26
79 37 26
77 37 25
77 37 25
81 39 27
76 36 25
93 76 82
145 154 175
167 184 211
172 194 222
174 196 224
178 200 229
179 200 228
182 204 233
179 201 229
160 177 203
137 149 170
115 121 138
118 124 143
131 141 161
166 183 210
181 202 230
185 206 235
173 192 219
62 56 59
95 92 93
81 80 82
78 77 78
62 60 60
42 42 43
77 74 75
74 47 56
82 76 79
58 56 61
49 44 49
62 46 39
60 39 26
81 76 75
82 81 80
57 62 41
48 62 38
68 73 61
85 83 84
84 83 85
80 80 82
80 79 81
83 83 84
86 86 88
80 79 80
83 83 84
81 81 83
81 81 83
80 79 80
81 81 82
82 82 83
80 80 82
83 83 85
80 79 80
80 79 80
81 82 83
80 80 81
82 82 83
84 84 85
81 81 82
82 82 83
83 84 85
81 81 83
84 85 87
83 83 85
82 82 84
83 84 86
81 82 84
81 81 84
82 82 84
80 80 82
83 82 84
83 83 85
86 86 88
80 79 81
82 81 83
81 81 83
80 81 82
80 81 83
81 81 83
81 81 82
82 83 85
81 80 81
82 81 81
81 81 82
79 78 79
81 81 82
81 81 83
81 82 84
79 79 81
82 81 83
82 82 83
72 74 74
57 61 60
60 57 63
42 37 52
59 56 58
74 72 74
72 62 55
74 83 94
108 123 144
109 124 144
113 129 151
111 127 147
113 129 150
101 114 137
43 44 71
29 22 63
29 21 62
28 21 60
29 22 63
29 22 63
26 20 57
40 38 72
91 102 125
114 130 151
116 132 153
113 129 149
114 130 151
116 133 153
117 133 154
114 130 150
113 129 149
112 127 148
107 122 141
62 75 75
70 109 58
88 144 68
96 159 73
96 161 74
93 156 71
86 140 67
69 101 61
49 53 52
52 53 55
47 48 51
27 30 39
17 22 36
52 60 73
96 109 128
115 131 152
119 135 157
120 132 154
105 124 56
107 126 58
107 126 58
102 119 55
104 122 55
100 117 54
102 118 96
108 124 143
112 129 149
110 126 146
111 127 147
110 126 147
105 110 130
93 36 65
98 31 66
97 31 66
98 31 67
91 29 61
93 30 64
92 29 63
92 30 63
89 28 60
93 31 66
75 41 55
64 49 38
60 46 36
62 48 37
60 46 36
59 45 35
59 45 35
59 46 35
61 47 37
58 45 35
51 39 30
37 26 25
48 34 37
58 42 45
59 43 45
59 42 45
54 38 41
55 39 43
58 36 38
60 27 29
65 37 41
75 57 64
78 68 77
89 92 104
97 112 126
97 114 129
85 103 113
67 90 91
47 77 66
30 69 50
45 59 52
68 35 58
72 36 62
71 36 61
71 35 60
67 33 57
66 33 56
70 35 61
66 33 57
68 34 59
67 34 57
78 66 84
104 120 140
105 121 139
104 121 140
69 95 105
88 85 91
146 115 127
138 109 124
135 109 126
131 108 126
130 108 126
129 108 125
133 108 124
135 104 115
132 99 109
97 87 98
82 85 98
89 74 91
97 83 100
100 86 104
100 84 103
97 82 100
85 69 83
78 57 70
83 67 81
97 86 103
87 73 84
78 39 30
78 36 25
82 39 27
77 36 25
73 34 24
72 34 24
75 36 25
72 34 24
77 39 30
96 79 85
146 158 181
166 187 214
171 194 222
175 197 226
176 198 227
174 195 223
124 133 153
80 73 86
73 63 75
71 60 76
70 55 84
69 48 91
69 53 95
121 126 159
162 177 209
176 197 226
80 80 89
86 85 87
81 79 81
80 78 79
72 71 73
42 38 36
70 62 64
69 29 41
71 38 48
68 65 67
58 54 53
62 55 53
55 42 34
73 69 68
81 79 79
64 66 55
46 53 33
58 61 54
77 77 79
79 79 81
79 78 80
80 80 82
82 82 85
83 83 84
83 83 85
82 82 84
84 85 87
81 81 82
81 82 83
84 84 85
80 79 81
84 85 87
81 81 83
84 84 86
81 80 81
81 81 83
81 81 83
83 83 84
81 81 81
84 84 85
84 85 86
84 84 86
82 81 83
80 80 82
80 80 81
84 84 87
83 84 86
79 79 81
81 80 82
82 82 85
83 83 85
84 84 85
83 82 83
83 83 84
81 80 82
83 83 85
80 80 83
80 80 81
81 81 83
82 82 84
81 80 82
81 81 83
80 79 80
83 82 84
82 81 83
80 79 81
79 78 79
81 81 83
80 79 80
80 80 83
77 76 77
80 79 81
60 62 62
60 61 62
45 41 58
49 47 60
70 65 68
69 53 57
66 54 43
50 52 76
100 114 135
112 127 149
110 118 143
100 93 126
96 84 119
99 82 121
80 66 101
51 37 74
25 20 52
24 18 52
26 20 57
26 21 54
44 46 70
81 91 111
111 126 147
114 130 151
116 132 153
112 128 148
112 128 149
115 130 151
114 130 151
115 131 153
115 131 152
111 126 146
106 129 134
92 143 77
101 165 76
93 158 69
92 158 67
95 159 71
99 164 73
97 161 72
99 163 75
72 116 58
51 56 52
44 44 46
39 42 48
62 70 83
96 109 126
111 126 146
112 128 148
114 130 151
118 114 136
103 122 54
101 119 54
99 116 53
97 115 53
93 108 49
96 113 57
108 123 125
112 128 148
114 130 151
115 132 152
111 127 147
112 126 147
97 82 102
93 29 62
92 29 61
89 28 59
90 29 61
88 28 60
85 27 57
84 30 78
69 41 129
49 43 146
49 45 148
47 46 148
43 48 131
52 44 81
56 43 40
57 44 34
56 43 33
56 43 33
54 41 32
53 41 32
51 39 31
56 51 50
42 39 44
41 29 31
47 33 36
50 36 38
51 36 38
52 35 38
57 25 26
64 9 4
65 8 2
64 8 2
63 8 2
63 8 2
62 9 2
68 43 47
89 96 108
97 114 129
91 108 122
92 108 122
92 110 123
86 97 111
67 43 63
64 32 54
69 35 60
67 33 57
66 33 57
64 32 55
65 33 56
61 30 52
71 49 68
81 67 85
85 82 100
106 122 140
106 122 141
102 119 137
97 113 130
133 108 119
150 116 128
144 113 128
140 112 128
136 111 128
130 106 122
133 108 124
133 107 122
137 106 117
140 110 122
128 103 115
92 95 110
83 74 91
82 70 93
81 71 100
76 67 98
77 68 102
76 67 98
76 64 92
80 66 84
83 72 87
78 70 82
72 37 31
71 33 22
73 34 23
74 35 24
75 36 24
72 34 24
72 34 24
72 34 24
69 33 23
74 36 25
94 83 91
141 156 179
158 179 206
170 193 222
171 193 223
120 129 150
73 64 76
66 57 68
69 54 81
65 38 95
64 32 99
64 32 98
59 30 91
60 30 93
60 33 92
97 95 133
101 106 124
72 67 68
80 78 79
79 77 78
76 74 75
64 62 63
73 69 71
63 23 37
66 24 39
79 69 73
75 74 75
73 71 70
73 70 69
78 76 76
80 79 79
68 67 65
51 49 45
60 59 58
72 72 73
78 77 79
77 76 78
82 82 85
82 82 84
81 80 82
82 82 82
80 79 80
82 82 84
78 78 80
80 79 81
82 83 85
82 82 84
82 83 84
80 80 81
81 81 82
83 83 85
82 83 84
83 83 84
84 84 85
82 81 82
82 82 83
80 80 81
82 83 85
81 81 82
81 82 83
82 83 85
82 83 85
78 79 81
82 82 84
79 79 80
82 82 83
81 80 81
80 79 80
84 85 86
84 83 84
82 81 81
83 83 84
79 79 80
81 82 84
82 83 85
82 82 84
80 80 82
82 82 84
83 83 84
81 81 82
80 79 80
80 80 82
82 82 84
81 80 82
78 78 80
83 82 84
79 79 81
73 73 75
58 57 57
63 62 66
32 25 44
60 59 67
67 50 54
67 55 57
63 52 43
37 39 69
86 91 116
95 74 115
88 36 100
87 27 97
89 28 100
86 27 95
90 29 101
82 26 93
65 30 77
35 31 49
35 37 54
46 50 66
75 84 100
95 107 125
100 113 132
104 119 138
108 123 144
107 122 141
108 123 143
111 126 147
110 125 146
112 128 148
114 130 151
111 129 145
97 147 96
90 154 64
94 157 69
92 154 67
94 157 69
92 157 68
94 160 69
94 159 68
97 161 71
96 160 71
72 113 58
45 50 50
57 71 73
80 102 108
86 107 116
94 112 125
105 120 138
108 123 142
123 92 115
97 115 51
95 113 49
91 108 47
90 106 47
85 100 46
99 115 97
108 124 141
111 127 146
110 126 146
110 125 144
112 127 147
106 118 137
96 69 90
88 27 58
89 28 60
86 27 58
87 28 58
85 27 58
71 35 109
34 45 160
27 48 170
27 49 168
26 46 164
26 47 165
26 47 168
29 47 165
40 43 121
51 41 52
54 42 32
50 38 30
50 38 30
49 38 30
49 43 42
89 98 112
82 93 108
45 43 48
41 29 32
44 31 33
49 34 36
56 22 23
62 9 5
63 8 2
62 8 2
62 8 2
62 8 2
60 8 2
62 8 2
59 7 2
63 32 36
102 111 129
110 126 146
112 128 148
114 130 150
111 126 146
82 79 96
63 31 54
60 29 50
63 31 53
63 31 53
64 34 56
88 80 99
119 129 150
131 147 170
134 150 174
128 145 168
132 149 170
110 125 144
102 117 135
93 101 115
137 104 112
153 117 128
150 117 129
145 113 126
134 104 116
140 110 124
142 112 125
137 109 121
142 113 124
135 105 117
124 96 108
92 90 105
76 73 99
78 70 106
75 67 102
76 67 103
71 64 98
72 64 98
74 66 100
75 66 99
78 69 92
96 102 119
76 52 52
72 33 23
68 32 22
68 32 22
71 33 23
65 31 21
70 34 23
69 33 23
71 34 24
64 30 21
75 57 60
103 117 133
131 149 171
155 175 203
135 150 173
72 62 74
70 60 71
65 49 79
58 30 87
60 30 94
57 29 90
56 28 87
56 28 88
61 30 95
59 29 91
60 30 92
64 50 85
67 59 59
80 74 74
76 74 74
78 75 75
76 76 77
78 77 78
63 37 44
63 24 37
66 47 52
78 76 77
77 75 76
81 80 80
82 81 82
79 78 79
75 75 76
75 73 75
76 77 78
75 74 75
81 81 83
81 80 82
79 79 81
78 77 80
79 79 81
79 78 79
82 82 83
82 82 83
80 79 80
84 85 87
81 81 82
84 85 87
81 82 83
82 82 84
78 78 80
76 76 77
82 82 83
82 82 83
79 79 80
79 80 82
79 79 80
78 78 78
83 84 85
81 81 83
80 81 82
81 81 83
81 81 83
80 80 82
81 82 84
81 81 81
83 83 83
86 87 88
83 83 84
83 83 83
81 80 81
83 82 82
82 82 84
79 79 81
82 83 85
81 81 82
81 81 83
81 81 83
80 80 81
80 80 81
80 80 81
82 83 85
83 83 85
77 77 78
80 81 83
80 80 82
82 82 84
79 80 82
78 77 79
74 74 75
58 55 59
30 22 43
70 70 73
62 27 33
66 54 53
55 46 52
39 31 64
77 35 89
86 27 95
87 27 97
84 26 93
85 27 94
87 27 96
86 27 95
86 27 95
92 29 101
82 56 95
89 99 117
87 98 116
93 105 123
100 113 132
101 115 135
102 116 136
108 122 143
111 126 147
110 126 146
112 127 148
112 128 149
114 129 150
115 131 152
107 141 126
91 150 68
90 151 65
86 148 62
94 153 68
88 152 63
93 149 64
96 148 64
97 151 67
96 159 70
90 155 68
77 133 73
51 101 82
52 107 88
50 107 87
54 112 92
57 114 95
63 108 97
97 119 129
120 83 106
86 102 45
87 103 46
80 95 40
82 99 49
89 104 88
106 121 134
111 127 145
107 122 139
107 121 140
109 124 142
105 119 137
106 118 137
92 62 83
79 28 51
86 32 57
84 30 57
83 26 56
69 35 107
33 49 168
26 47 167
25 45 160
25 45 161
27 48 164
27 48 166
24 44 157
25 45 161
25 45 159
34 42 129
46 36 39
44 33 25
43 33 27
45 40 40
75 83 94
94 106 122
96 108 125
76 84 98
45 44 49
32 25 27
40 20 21
59 8 3
60 7 2
59 7 2
63 8 2
61 8 2
59 7 2
63 8 2
57 7 2
57 7 2
58 7 2
74 57 65
107 121 140
115 131 152
112 128 149
109 124 144
102 112 132
64 45 63
55 27 46
55 27 47
63 41 59
116 123 141
128 144 165
129 145 169
126 143 166
124 141 164
125 142 164
123 141 163
130 148 170
116 131 151
99 105 121
115 84 89
132 97 105
130 96 104
143 110 119
132 100 110
143 110 120
121 89 98
110 80 87
125 93 102
113 84 95
114 89 101
75 64 90
74 66 100
75 67 102
71 63 97
75 67 102
71 63 96
69 61 93
71 63 96
72 63 96
70 63 95
94 102 123
82 75 84
67 31 21
66 30 21
62 29 20
61 28 19
66 31 22
62 29 20
58 27 19
65 31 22
62 30 22
81 82 91
105 121 138
106 121 139
120 137 157
88 92 107
67 57 68
66 55 71
58 33 86
58 29 90
57 28 88
55 27 86
55 28 87
53 26 82
55 27 85
56 28 87
59 30 91
54 29 82
72 64 66
84 58 53
79 77 78
81 81 82
78 76 76
78 76 77
69 63 65
55 26 30
62 46 49
72 70 71
78 76 76
78 78 79
80 78 80
79 78 80
80 79 82
78 76 78
77 77 80
80 80 83
80 80 82
80 80 82
78 78 80
81 81 83
80 80 82
77 77 78
80 79 81
82 82 83
82 82 83
84 84 86
84 84 85
82 82 84
82 82 84
81 82 83
79 80 81
80 80 82
80 80 81
81 82 84
79 80 81
79 80 81
80 80 81
83 82 84
86 85 88
84 82 84
83 82 85
82 82 84
81 81 83
79 79 80
85 85 86
83 82 83
82 81 82
85 85 87
82 82 83
81 80 81
82 82 83
80 79 80
83 82 82
80 81 82
80 81 82
78 78 80
79 80 81
82 82 84
82 82 83
82 82 84
82 83 85
80 80 81
80 80 82
80 80 82
80 80 82
80 79 80
79 78 79
81 79 80
79 77 79
75 73 75
51 47 53
48 45 51
66 62 65
59 36 38
65 58 57
48 47 63
63 27 75
82 25 88
83 25 91
83 25 91
82 25 91
83 26 92
86 27 95
84 26 92
85 26 93
85 26 92
83 27 90
102 99 128
115 131 152
111 127 147
112 127 148
113 128 150
113 128 149
111 127 147
115 131 152
114 130 151
116 132 153
115 131 152
114 130 152
115 132 152
99 144 101
86 144 62
84 145 60
80 135 56
100 128 52
118 107 48
127 94 45
128 85 41
126 90 43
126 102 48
104 116 64
63 107 85
49 103 83
52 107 86
51 106 86
51 107 88
52 109 88
51 107 86
56 110 91
96 88 89
74 87 52
70 83 44
71 82 61
75 86 78
88 100 106
93 106 116
103 117 131
106 120 135
104 118 133
107 122 139
106 120 137
95 102 111
82 72 69
79 71 61
76 70 60
78 70 62
80 63 64
58 60 135
29 47 158
25 45 157
25 45 161
24 44 156
24 43 155
25 45 160
24 43 154
25 45 158
24 43 156
24 43 155
31 35 97
39 36 37
43 44 48
60 65 72
65 72 82
67 74 85
64 71 81
68 75 86
70 77 88
64 70 81
57 34 39
55 7 2
58 7 2
57 7 2
59 7 2
57 7 2
58 7 2
60 7 2
56 7 2
59 7 2
58 7 2
57 9 6
100 109 127
115 130 151
110 125 146
111 126 146
105 119 139
95 104 123
65 56 71
50 27 44
101 106 123
132 147 169
129 145 168
129 146 169
127 145 169
127 145 168
129 147 170
126 143 166
123 140 161
121 136 156
123 134 153
93 75 84
94 64 71
82 51 56
104 75 83
100 72 80
106 75 82
89 57 68
86 55 64
88 59 68
87 59 68
90 70 90
75 66 100
69 60 92
72 64 97
72 63 96
70 62 95
72 63 95
75 66 101
71 62 95
73 64 97
70 61 94
75 71 99
90 93 107
64 42 42
62 29 20
58 26 18
61 28 19
61 29 20
58 27 19
56 26 18
57 27 18
64 47 49
100 112 129
110 125 144
111 126 145
109 123 142
72 66 78
65 55 66
61 46 73
52 26 82
60 30 92
54 27 82
56 28 86
54 27 85
55 27 85
51 25 80
54 27 85
53 26 82
51 25 79
65 56 72
81 51 44
80 71 71
78 76 76
80 78 79
76 76 78
74 72 73
58 48 48
56 48 48
70 67 67
79 78 80
79 78 80
79 79 81
80 80 82
80 80 82
80 79 81
78 77 79
78 78 80
78 77 79
80 79 81
80 79 81
78 77 79
80 80 82
77 77 78
82 82 84
81 80 82
81 80 81
79 79 80
78 79 81
84 84 86
81 81 82
80 80 81
81 81 82
80 81 82
79 79 80
82 83 84
81 82 84
81 81 83
81 79 80
81 78 80
83 80 83
81 78 80
82 80 82
80 77 78
80 78 79
82 82 85
81 80 81
80 78 78
82 81 82
84 84 85
82 82 82
81 80 80
83 83 84
84 83 84
81 81 82
82 81 82
83 83 85
80 80 81
79 78 80
81 81 83
80 78 78
80 79 80
81 80 82
76 75 76
80 80 82
78 77 77
76 75 77
78 77 79
79 77 79
79 77 78
79 78 80
72 70 72
47 42 45
64 62 65
56 44 47
69 59 62
60 57 59
36 27 55
72 22 77
81 25 87
83 26 91
85 26 93
77 23 83
82 26 90
83 26 90
81 25 87
82 25 89
81 25 88
85 27 93
86 56 99
114 128 150
116 133 154
117 133 155
116 133 154
113 129 149
117 133 154
116 132 153
114 129 150
116 132 152
114 130 151
115 131 152
115 134 151
86 139 77
83 141 60
89 136 58
115 102 46
125 81 38
126 82 39
128 85 41
128 84 40
127 85 40
132 88 42
128 84 40
120 88 49
73 98 74
48 101 81
50 104 83
49 103 82
48 101 81
50 107 85
52 108 88
53 107 86
91 104 111
90 102 109
89 101 108
93 106 116
100 113 126
104 118 133
104 119 133
111 126 143
111 126 144
102 114 128
82 83 81
78 72 61
73 69 58
76 71 60
78 73 61
77 73 62
78 73 61
76 71 61
66 65 96
33 47 144
24 42 150
24 43 152
24 43 153
24 43 152
24 42 150
24 43 154
25 45 157
26 45 157
34 48 139
84 94 112
87 98 112
94 106 122
96 107 124
93 105 122
100 112 130
99 112 130
100 113 131
99 112 129
61 38 43
54 7 2
54 7 2
56 7 2
54 7 2
53 6 2
54 7 2
53 7 2
58 7 2
56 7 2
53 6 2
55 7 2
82 82 95
105 119 139
104 117 136
100 112 130
100 112 130
91 101 117
78 85 98
75 79 90
137 151 171
132 147 168
125 141 162
128 144 166
129 146 168
126 142 165
126 143 165
127 144 166
122 138 159
125 140 160
123 136 155
116 114 129
92 67 77
91 64 72
93 65 74
95 65 74
90 65 74
90 64 73
90 61 70
92 64 73
93 64 73
76 62 87
69 61 94
70 62 94
68 60 91
65 56 86
71 62 95
68 60 92
69 61 93
69 61 93
67 59 90
64 55 85
66 58 88
87 93 112
86 89 102
62 47 51
52 24 16
49 22 15
53 25 17
53 24 17
50 26 21
58 44 47
95 103 118
105 118 136
105 119 137
106 120 138
101 113 131
67 61 72
64 55 65
52 33 72
52 26 81
54 27 82
49 24 77
50 25 77
51 25 78
53 26 82
47 23 72
51 25 79
52 26 81
53 26 82
55 39 74
73 55 52
76 56 52
81 79 79
81 79 80
81 80 81
75 73 74
71 68 69
66 61 62
74 71 72
75 74 75
75 74 75
74 74 75
79 78 80
79 79 81
81 80 81
82 81 84
74 74 76
78 78 81
79 79 81
77 77 79
80 80 82
75 75 77
80 80 82
81 81 82
81 81 83
81 81 83
79 78 78
81 80 82
79 79 80
83 83 84
81 80 82
81 81 82
79 79 80
77 78 79
78 78 78
83 83 85
80 77 79
80 77 79
82 80 83
83 81 83
81 78 80
80 78 80
81 79 80
80 77 79
82 78 80
83 81 83
82 82 83
82 82 82
81 81 82
81 80 81
81 81 82
83 83 84
82 81 82
82 82 83
82 82 84
78 78 79
82 82 84
80 81 82
81 81 82
82 82 84
79 78 78
78 78 79
80 79 81
77 76 77
77 78 80
78 77 79
77 75 77
80 78 80
80 78 79
76 74 75
74 73 75
64 64 67
62 59 61
51 34 35
70 70 72
51 48 56
49 24 62
72 21 78
74 22 80
76 23 82
77 23 84
77 24 84
79 24 85
79 24 84
80 24 85
76 23 82
74 22 78
77 23 82
79 36 87
110 122 143
119 135 156
113 129 150
115 132 153
116 132 153
114 130 151
116 133 154
112 128 148
114 130 150
114 130 151
115 130 151
110 127 145
86 132 81
77 129 52
112 95 42
121 78 37
123 81 38
128 87 42
127 84 40
128 84 40
127 84 40
127 84 40
128 82 38
132 87 41
125 92 50
63 97 75
48 98 76
47 97 77
49 102 81
49 102 82
47 101 80
49 103 82
111 126 144
113 129 147
111 126 144
111 127 146
112 127 146
112 128 147
113 129 149
116 132 152
108 122 139
83 80 74
78 73 61
76 70 58
78 72 61
74 69 58
75 70 58
73 67 56
76 71 59
75 70 58
74 69 58
66 63 87
25 41 142
22 39 143
23 40 144
23 41 148
22 39 144
23 41 146
22 38 145
22 39 143
29 44 140
105 119 145
108 122 142
109 123 143
112 127 148
114 129 150
107 121 141
113 129 149
112 127 147
106 120 140
57 37 43
52 6 2
58 7 2
52 6 2
56 7 2
52 6 2
57 7 2
54 7 2
52 6 2
52 6 2
50 6 2
47 6 1
80 77 90
112 126 147
108 121 141
103 117 136
102 115 134
100 111 129
97 108 125
106 116 132
131 145 164
130 143 163
136 151 172
129 144 165
124 139 160
129 145 168
131 147 169
129 144 165
124 139 159
116 129 146
115 127 145
108 113 128
93 68 77
92 62 70
91 62 70
92 62 71
88 62 71
88 58 66
91 63 71
93 66 75
90 59 68
70 58 85
67 59 89
68 60 91
68 60 91
70 62 93
71 62 94
67 59 90
68 59 90
62 55 84
67 58 88
61 53 82
66 58 89
75 76 96
88 95 109
74 77 88
57 51 56
42 29 29
40 24 23
40 29 30
53 49 55
70 73 83
89 98 113
89 99 114
92 102 118
101 113 131
99 111 129
65 62 73
58 49 60
49 29 69
54 26 81
50 24 76
48 23 73
49 24 75
49 24 76
51 25 78
52 26 81
51 25 79
49 25 77
47 23 74
48 23 74
69 60 66
73 45 36
82 70 61
79 74 71
80 77 78
74 73 74
75 73 74
73 71 71
76 74 75
74 73 74
76 75 77
76 75 77
80 80 82
82 82 83
79 77 77
83 81 81
80 78 78
74 69 69
80 78 80
78 77 79
78 77 79
82 83 84
83 83 85
80 81 82
79 79 80
80 79 80
79 79 81
78 78 80
80 79 79
82 81 83
82 81 82
82 82 84
77 77 77
80 81 82
78 78 79
79 77 78
81 79 82
80 78 79
79 77 79
82 80 82
80 78 80
81 79 80
81 79 82
81 79 81
81 79 81
80 77 78
81 79 79
84 84 86
78 76 77
79 79 81
79 79 80
82 81 81
79 78 80
81 81 82
77 76 76
80 80 81
78 78 80
80 79 80
82 82 83
76 75 75
83 83 84
77 77 79
80 80 81
80 80 81
79 79 81
82 80 82
80 78 80
75 74 76
77 76 77
77 75 77
73 73 75
70 70 73
66 64 66
62 58 59
73 73 76
60 33 77
56 38 69
76 23 82
75 22 81
74 22 80
73 22 80
74 22 79
72 22 77
73 22 78
73 22 79
75 22 79
74 22 79
74 22 79
72 22 77
109 118 141
115 131 151
115 131 152
113 128 148
115 131 151
115 131 152
111 127 147
115 131 152
113 129 150
108 123 142
108 123 142
108 123 141
83 128 84
97 113 49
120 77 37
121 77 36
120 76 35
125 82 39
120 77 36
121 78 37
121 78 37
123 78 36
125 81 38
127 82 38
124 79 37
107 84 48
46 91 72
49 100 81
44 95 74
47 99 79
47 101 80
46 97 76
118 134 155
116 133 153
115 131 151
117 133 153
114 130 150
116 132 153
116 132 152
114 130 151
92 94 95
79 74 62
73 68 57
76 70 59
78 72 61
75 69 58
74 68 57
73 68 57
77 72 60
69 63 52
70 65 54
70 64 53
49 51 108
21 37 134
22 39 137
22 38 139
22 39 138
23 40 141
22 40 136
21 38 134
29 43 131
101 115 146
116 132 153
116 131 152
109 124 144
114 129 149
110 125 145
114 129 150
114 129 150
114 129 150
57 45 51
49 6 2
49 6 2
51 6 2
50 6 2
49 6 2
51 6 2
52 6 2
53 6 2
54 7 2
48 6 1
48 6 2
86 90 105
112 127 147
112 127 147
114 129 150
117 132 154
112 127 148
112 127 147
123 136 156
124 135 152
121 129 145
117 125 141
128 140 158
130 143 163
128 142 163
125 139 159
126 139 158
114 127 144
112 123 140
106 116 131
100 104 117
91 70 80
90 60 68
88 58 65
86 57 64
84 55 62
86 54 61
86 56 63
89 60 68
90 62 71
64 56 83
63 55 84
64 57 86
65 57 86
66 58 88
59 51 80
61 54 82
62 54 83
65 57 86
61 54 82
60 52 80
59 52 79
75 77 97
99 110 127
92 100 114
87 96 110
83 91 104
84 92 106
81 89 102
88 96 110
93 103 118
93 103 119
98 109 126
95 107 124
102 115 133
101 113 132
73 76 88
56 47 56
48 31 66
47 23 73
49 24 75
47 23 73
49 24 75
51 25 78
47 23 72
49 24 75
49 24 75
45 22 71
49 24 75
45 22 69
75 74 94
67 48 44
80 64 47
86 70 53
79 75 73
75 72 73
75 73 74
73 71 72
77 75 76
77 75 77
78 78 79
78 77 78
84 83 85
77 76 76
82 82 82
84 75 75
100 75 75
104 76 79
102 74 77
92 71 73
78 73 74
78 78 80
78 78 79
78 78 79
79 79 80
78 78 80
81 82 83
77 76 77
80 79 80
76 76 76
78 77 78
79 79 80
77 77 78
82 83 85
79 78 79
80 77 78
78 76 78
81 79 81
80 77 78
84 82 84
79 77 78
79 77 79
80 78 80
80 78 80
78 75 76
79 76 78
80 78 79
79 79 80
79 78 79
79 79 80
80 80 81
80 80 81
78 78 80
77 77 78
80 81 82
79 78 79
78 77 78
79 79 80
79 79 80
76 75 77
77 77 78
79 79 80
77 77 78
76 75 76
81 80 81
78 77 78
79 78 79
79 77 78
79 77 78
76 76 78
70 70 73
71 70 72
69 66 68
73 72 74
77 60 85
72 26 93
79 72 100
68 20 74
69 20 73
69 21 75
68 20 73
69 21 74
71 21 76
73 22 78
70 21 74
68 20 70
75 23 79
73 22 76
74 30 80
109 120 142
115 130 151
114 131 151
115 131 152
113 129 149
114 129 150
115 131 151
114 129 150
112 127 147
114 130 150
109 125 144
109 123 143
95 120 117
114 87 44
117 75 36
116 73 34
119 77 36
113 71 33
121 79 38
123 80 38
122 80 38
122 80 37
123 78 36
126 83 39
120 75 35
122 81 39
58 87 65
45 92 72
44 93 74
45 96 75
47 98 79
47 98 78
114 131 151
115 131 152
114 130 150
115 131 151
115 131 151
115 131 151
116 132 152
109 123 141
77 72 62
74 69 57
70 65 54
76 70 59
74 68 56
72 66 54
71 65 55
71 66 55
69 64 53
71 66 55
68 63 53
66 61 50
64 59 65
24 37 126
20 36 131
18 40 114
16 49 91
14 58 61
12 57 47
12 59 40
13 55 50
65 85 93
101 116 132
112 127 148
114 129 150
115 130 152
115 130 151
112 127 147
114 129 150
114 130 150
81 85 99
46 6 1
47 6 2
48 6 2
50 6 2
52 6 2
49 6 2
47 6 1
49 6 2
45 5 1
44 5 1
53 22 25
102 113 132
114 130 151
115 130 151
116 132 152
115 131 151
117 132 153
116 131 151
120 133 154
108 115 130
101 101 115
109 109 122
114 120 136
124 136 153
125 137 156
123 133 150
119 130 147
110 119 134
106 116 131
106 117 132
94 96 106
109 113 130
88 69 78
79 50 57
80 48 54
81 49 55
79 47 52
78 47 53
86 63 71
97 96 111
70 67 91
60 53 81
61 53 81
60 53 81
62 55 83
60 52 79
60 52 81
62 54 83
60 52 79
58 50 77
58 50 77
60 52 79
85 92 111
110 124 144
109 122 141
109 123 142
108 120 139
105 118 137
109 123 141
107 121 140
108 122 141
108 121 140
107 120 140
108 122 142
106 121 140
106 121 140
98 110 128
51 47 55
45 32 56
46 22 70
45 22 69
44 21 68
44 22 68
43 21 67
41 20 64
43 21 66
43 21 67
41 20 64
42 20 65
44 24 67
87 98 120
72 69 73
70 52 38
78 63 45
81 66 52
76 73 73
76 74 75
75 73 74
74 73 74
79 78 78
78 77 78
79 78 79
79 78 79
79 78 79
79 77 78
99 74 75
111 82 86
115 86 92
108 81 86
109 80 84
97 70 72
79 71 72
78 77 78
76 75 75
81 81 83
76 76 77
79 79 80
78 78 79
77 76 77
78 78 79
77 76 77
76 76 77
75 75 75
77 77 78
77 75 77
79 77 79
81 79 81
78 76 77
77 75 77
79 77 78
80 78 80
79 77 79
80 78 80
81 81 83
80 79 81
79 77 78
76 73 75
77 77 79
78 78 79
78 78 79
78 79 80
77 76 77
78 79 80
79 79 81
81 81 82
79 79 80
77 77 78
79 78 80
81 80 81
77 76 77
74 72 73
80 81 83
77 77 78
79 79 81
80 79 80
79 78 79
80 78 79
82 81 82
78 77 78
74 74 76
75 75 78
73 73 76
74 69 71
88 75 92
71 42 87
66 21 83
75 64 96
69 27 75
61 18 66
63 19 68
63 19 67
67 20 73
68 20 72
73 22 78
71 21 76
69 21 73
64 19 67
65 19 68
77 56 90
114 129 150
115 131 151
114 130 150
112 127 147
114 130 150
114 130 150
115 131 152
114 131 151
117 134 154
112 129 149
112 128 147
113 128 148
109 122 138
108 71 41
110 69 32
113 71 33
114 75 36
119 75 36
116 74 34
114 73 35
115 72 33
116 72 33
117 73 34
118 75 35
121 78 36
118 75 35
80 80 54
42 86 67
41 86 67
44 91 71
45 94 75
46 96 76
114 129 149
115 130 151
115 131 152
115 131 151
116 132 152
113 129 149
112 127 147
95 103 115
71 65 54
74 68 57
69 63 52
71 66 55
71 65 54
70 64 53
69 63 53
67 61 51
68 62 52
66 61 51
70 64 54
65 59 49
66 60 51
32 39 112
16 46 91
12 58 44
12 57 37
11 56 36
11 55 36
11 55 36
11 56 36
11 54 35
13 55 36
72 91 98
112 128 148
115 130 150
116 131 152
115 130 151
117 132 154
114 130 151
108 121 141
51 35 40
40 16 20
44 21 27
43 14 17
47 6 1
48 6 2
43 5 1
44 5 1
47 6 1
44 5 1
72 70 82
112 126 146
114 129 149
113 128 149
117 132 154
112 126 146
116 131 152
114 129 150
133 149 171
101 104 119
109 106 119
111 105 119
106 107 120
99 114 127
130 140 158
115 117 135
140 149 168
139 149 165
118 124 136
143 155 168
112 114 127
97 101 116
91 92 105
74 65 73
68 46 52
66 40 45
65 40 45
72 57 64
82 77 87
93 95 108
76 77 95
53 46 72
60 53 80
53 46 71
57 49 75
57 49 75
60 52 79
59 51 79
54 47 72
57 49 75
52 45 69
54 48 72
100 112 131
114 128 148
112 126 145
111 124 143
119 116 131
127 105 114
127 95 100
128 94 99
114 95 104
116 112 126
110 124 143
109 124 143
107 121 141
106 120 138
107 121 141
84 93 108
50 45 57
43 23 63
42 20 64
43 21 67
42 20 65
42 20 65
43 21 65
41 20 64
42 20 63
40 20 62
42 21 65
59 57 83
98 112 132
90 97 110
69 56 50
70 54 39
80 63 46
75 64 54
76 74 75
75 73 74
77 76 77
75 74 74
79 77 78
77 76 76
78 77 77
74 73 74
76 74 75
106 74 76
111 81 84
101 72 74
103 77 80
108 81 85
112 83 86
83 59 61
79 77 79
76 74 76
78 76 77
79 78 79
78 77 79
77 76 77
77 76 77
76 75 75
79 79 80
78 78 79
78 78 79
75 75 76
79 77 78
79 76 77
79 76 78
80 78 80
78 75 76
80 79 81
78 76 77
80 77 79
80 78 80
79 77 78
77 75 76
78 76 78
75 73 74
80 79 81
77 76 77
77 77 78
75 75 76
75 75 76
76 77 78
78 77 78
78 78 80
79 79 80
77 76 77
79 78 79
79 79 80
76 75 76
77 77 79
79 79 81
77 75 76
77 76 77
77 77 79
78 77 78
82 81 82
79 78 79
76 75 77
74 74 77
69 69 71
75 72 74
78 39 40
84 57 88
61 19 78
64 20 82
86 83 112
75 67 92
63 19 68
59 17 64
63 18 66
63 19 68
64 20 70
64 19 69
66 20 70
65 19 68
65 19 68
65 23 70
94 96 119
112 128 148
110 126 146
117 133 154
112 129 148
114 131 150
112 128 148
114 131 150
115 132 152
114 131 150
108 124 142
110 127 144
106 123 139
109 118 132
106 65 33
104 63 29
108 66 31
110 69 32
116 76 36
114 72 33
111 69 32
113 74 35
117 73 34
114 73 34
119 77 37
110 61 45
111 56 56
104 47 62
97 46 63
93 59 68
77 68 66
55 83 69
40 87 68
114 131 151
112 129 148
112 128 148
114 130 150
116 131 152
116 132 154
111 126 146
95 102 113
68 62 52
70 64 53
68 62 51
68 63 52
65 60 49
65 59 48
68 63 52
70 64 53
68 62 52
64 59 49
64 58 48
63 58 48
61 55 46
31 50 66
12 58 38
11 55 36
12 57 37
11 54 35
11 55 36
11 54 35
11 54 35
11 56 36
11 55 36
11 53 34
61 82 84
112 128 149
117 133 155
116 132 153
113 128 149
110 127 148
75 97 117
39 69 89
29 68 90
29 68 91
29 67 89
31 58 77
38 44 57
42 12 14
42 5 1
41 5 1
53 45 52
103 116 136
111 125 144
114 129 150
113 128 149
114 128 149
112 127 148
112 127 148
114 129 150
125 140 160
149 163 184
145 143 160
145 141 158
133 131 147
121 137 151
167 181 202
138 145 166
174 187 208
179 194 216
172 186 206
174 189 210
135 145 163
104 113 130
103 109 126
100 107 123
97 103 118
93 99 114
94 99 114
97 104 120
102 111 128
102 110 127
101 109 127
57 52 75
55 48 73
57 49 75
53 47 72
58 50 76
55 47 73
55 48 74
52 45 70
50 44 68
49 42 65
71 74 94
108 121 140
113 127 148
115 116 133
132 91 93
133 82 79
132 82 79
128 79 77
131 81 78
124 77 74
125 78 75
122 87 90
115 117 133
106 119 138
102 116 134
99 112 129
97 110 127
80 88 102
48 44 62
40 20 61
42 21 64
39 19 62
38 19 59
39 19 59
37 18 58
37 18 57
37 18 58
44 35 64
85 95 113
100 112 131
99 112 130
79 79 83
68 54 42
72 57 41
75 59 43
75 69 66
73 70 70
75 74 75
74 73 74
74 72 73
80 78 78
74 72 73
76 75 76
77 76 77
89 62 62
101 69 70
88 56 54
84 55 50
101 71 71
104 76 78
85 59 60
69 60 61
74 72 72
65 63 55
59 57 45
57 55 41
60 57 48
69 67 63
75 74 74
77 76 77
77 77 77
78 78 79
73 74 75
77 76 77
79 77 78
76 74 75
80 79 80
78 76 77
79 77 79
76 74 76
76 74 75
80 78 79
77 75 77
79 77 78
75 73 75
75 73 75
78 77 79
74 73 73
76 76 77
75 75 76
75 74 75
76 76 76
77 76 77
78 79 80
79 78 79
77 77 77
78 77 79
76 76 77
76 75 76
78 78 79
76 75 76
79 78 79
78 76 77
79 78 79
75 73 73
75 72 72
74 72 73
75 75 77
69 69 71
75 74 76
79 42 44
72 26 33
67 37 79
57 17 72
66 21 83
92 92 121
104 116 137
81 66 100
114 97 145
130 114 168
129 111 168
121 102 154
79 54 93
62 18 65
58 17 61
55 17 58
78 70 95
112 128 149
115 131 152
116 132 153
113 129 149
113 129 149
113 130 149
113 129 148
111 128 146
109 127 143
108 125 141
105 123 138
105 122 136
102 119 132
96 109 114
102 67 39
102 64 30
103 62 29
105 64 29
113 72 34
102 62 29
107 67 31
111 71 33
114 73 34
114 66 44
104 42 57
104 34 62
107 35 64
110 36 65
108 35 64
107 35 64
109 35 65
110 38 66
80 61 63
115 132 152
116 132 153
113 129 150
116 132 153
115 130 152
116 132 153
116 132 153
97 107 120
64 58 48
67 62 51
66 60 50
63 57 47
62 57 48
62 57 47
64 58 47
65 59 49
64 59 49
63 58 48
59 54 45
61 57 47
53 56 44
12 55 36
11 54 35
11 54 35
11 54 35
11 52 33
10 51 33
10 51 33
11 52 34
11 52 34
11 52 34
10 50 32
10 51 33
86 102 115
111 126 146
112 128 149
87 105 126
36 70 91
28 66 87
29 66 88
29 67 89
29 66 88
28 65 87
27 62 82
27 62 83
29 59 77
33 28 36
59 59 68
91 100 115
103 116 134
103 116 135
105 119 138
109 122 142
107 121 141
108 122 142
110 125 145
111 125 146
115 131 151
157 173 194
160 174 195
156 162 183
137 144 161
159 174 195
180 198 222
182 201 225
184 201 226
182 200 224
180 198 222
176 194 219
136 151 173
112 126 146
112 125 145
112 126 146
113 127 147
110 123 143
112 125 145
110 123 143
111 124 143
109 121 140
110 123 143
92 102 121
52 47 69
50 44 68
51 44 67
52 45 70
49 43 66
51 44 67
48 41 64
48 42 64
55 53 72
102 113 133
109 123 143
121 113 128
132 85 83
128 78 75
131 80 77
134 83 80
129 79 76
123 75 72
127 77 74
120 74 71
116 70 67
115 71 69
104 101 115
96 108 126
92 104 120
83 92 107
73 81 94
67 74 85
48 48 63
38 27 57
34 16 53
35 17 54
34 17 53
32 16 50
36 19 55
46 40 65
75 82 99
93 104 121
96 108 126
99 111 130
72 96 131
68 63 61
62 49 36
65 50 36
67 54 43
70 68 68
74 72 73
70 69 69
73 71 71
74 73 73
75 73 73
74 72 72
73 71 71
71 58 59
86 56 57
72 41 38
67 39 34
78 51 45
73 46 40
65 37 33
65 48 46
53 49 26
50 45 19
49 44 19
49 45 19
52 49 18
49 46 19
58 56 40
72 71 69
72 71 71
75 74 74
77 77 78
78 77 78
77 74 76
75 74 75
79 78 79
75 73 74
78 76 78
76 75 77
76 74 76
72 70 71
75 73 74
75 74 75
76 75 76
75 74 75
73 72 73
75 74 75
73 72 73
76 76 77
75 76 77
77 77 78
75 74 75
79 78 78
79 78 79
76 75 76
78 78 79
75 74 74
79 79 81
76 75 76
74 73 74
75 74 74
79 78 78
78 77 78
78 77 78
74 73 74
74 74 76
65 70 72
65 79 80
73 60 61
74 20 21
72 38 66
55 17 70
59 18 74
58 19 74
110 111 143
156 147 206
166 153 225
157 145 222
158 148 227
160 151 229
161 150 227
166 152 227
141 125 183
80 59 94
75 69 93
101 112 132
111 126 147
107 122 141
106 120 140
109 124 143
111 127 147
112 128 148
111 126 145
113 130 150
108 124 143
110 127 146
104 120 136
105 121 138
105 122 136
101 118 130
96 76 66
99 61 28
98 60 28
101 63 30
105 67 32
101 60 28
108 68 32
103 65 30
107 59 44
99 33 58
101 32 60
99 32 58
105 34 62
106 34 63
102 33 60
107 34 63
102 33 60
103 33 61
108 35 64
115 131 152
115 132 153
115 131 152
116 132 153
116 133 154
115 131 153
116 132 153
105 117 135
64 59 50
66 61 51
63 58 48
61 55 45
64 59 49
59 54 45
61 56 46
59 55 45
61 55 46
60 55 45
59 54 45
55 51 42
35 57 40
11 53 34
11 55 35
11 52 33
11 53 34
11 54 35
10 51 33
11 52 34
11 52 34
10 49 32
9 47 30
9 47 30
10 50 32
36 60 55
104 119 139
85 103 123
28 65 86
27 63 84
28 65 86
28 64 85
28 64 85
28 65 86
28 64 84
27 62 82
27 62 82
28 63 84
29 60 79
65 73 84
76 83 95
87 97 112
93 104 120
99 112 130
104 117 136
107 121 140
110 124 144
106 120 140
112 127 148
111 126 147
122 137 157
159 175 197
175 194 220
172 191 216
177 196 223
183 204 232
183 203 231
183 204 231
181 202 229
178 199 226
148 166 189
114 128 149
113 128 148
111 126 145
114 128 149
112 126 146
113 127 148
109 123 142
108 122 142
108 122 143
107 120 139
106 118 138
103 116 134
84 92 110
51 51 68
44 38 58
44 38 58
44 38 59
42 36 56
40 35 53
55 55 72
86 96 113
103 116 134
108 112 129
133 85 84
133 82 79
133 81 77
133 83 79
127 77 74
122 74 71
122 73 70
118 71 67
116 71 67
111 67 64
113 69 66
108 69 69
97 103 120
95 106 124
92 103 120
86 95 112
78 85 101
68 75 89
54 57 69
38 37 51
32 26 44
27 22 38
29 24 40
50 51 65
65 69 84
77 84 100
80 88 105
92 102 120
69 106 152
18 107 177
62 79 104
61 51 46
58 45 32
63 48 34
62 54 48
70 66 66
71 68 68
71 69 70
75 73 74
74 73 74
74 73 73
71 70 70
72 69 69
64 45 46
67 40 40
62 33 29
59 33 27
58 35 25
56 31 27
51 42 25
48 44 19
47 42 19
47 43 18
47 43 17
48 43 19
48 45 18
45 41 18
51 48 30
68 66 64
71 69 69
74 74 75
76 75 76
77 75 76
76 75 76
78 76 78
73 71 72
76 74 76
77 75 77
77 76 77
76 74 76
76 74 75
76 76 77
76 76 77
73 72 73
77 76 77
75 74 75
79 79 80
76 76 77
74 73 73
75 74 74
75 74 73
75 74 74
77 77 78
78 78 79
74 73 73
75 75 76
77 76 77
75 74 75
75 73 74
75 73 72
79 78 78
79 78 78
78 77 79
72 72 73
62 75 76
68 93 94
69 100 101
68 76 76
63 24 37
57 23 69
55 17 70
53 16 68
93 74 119
157 142 209
160 148 223
159 150 227
153 146 225
151 144 224
150 143 224
155 148 228
158 149 229
163 150 227
165 149 218
109 109 140
91 102 119
96 107 126
101 113 131
104 116 136
104 118 136
109 124 144
107 122 141
108 123 143
111 126 146
107 122 141
105 120 138
105 120 138
107 123 141
109 125 143
106 122 139
102 105 115
89 52 28
95 58 27
97 59 27
101 63 29
100 61 28
102 63 29
99 57 35
99 33 57
97 31 56
104 33 61
101 32 59
100 32 59
101 32 59
103 33 61
105 34 63
110 36 65
103 33 61
109 35 65
119 136 158
116 133 154
113 130 151
114 129 150
116 132 153
115 131 152
116 133 155
111 126 147
77 79 82
60 55 45
60 55 46
58 53 44
59 54 45
63 58 48
60 54 45
58 53 44
55 50 41
56 51 43
55 51 42
53 49 40
11 51 33
11 52 33
10 51 33
11 53 34
10 50 32
11 53 34
10 50 32
10 50 32
10 50 32
10 47 31
9 45 29
10 47 30
9 44 28
10 48 31
79 95 111
35 67 87
28 64 84
28 65 85
27 62 82
27 62 82
28 64 85
28 65 86
26 59 78
26 61 80
27 62 81
26 59 78
26 61 80
48 70 88
97 109 126
103 117 136
104 117 136
105 119 138
107 121 140
108 122 142
110 125 145
111 126 147
109 124 144
113 128 149
113 127 147
119 135 156
155 176 202
172 194 223
172 195 224
178 201 231
175 197 227
173 196 225
168 190 219
143 162 187
114 128 149
112 127 146
109 123 143
111 126 147
110 125 145
111 126 146
109 123 143
105 118 137
105 118 137
103 116 135
101 114 133
95 106 124
88 98 115
84 93 109
71 77 90
46 48 58
41 41 52
36 34 47
35 34 44
50 52 63
67 72 84
79 87 102
90 100 117
114 86 91
127 78 74
131 80 77
127 77 73
125 77 74
125 75 72
120 71 67
118 71 68
118 71 67
111 66 64
109 66 62
108 64 61
104 63 61
113 97 100
113 113 116
120 117 112
113 110 106
102 101 102
96 98 107
90 100 118
87 97 114
84 93 110
83 93 109
85 95 110
91 102 119
97 108 126
96 108 127
99 111 130
92 112 141
19 106 174
16 101 169
26 96 155
71 70 74
57 46 39
53 40 29
58 46 37
66 62 60
71 68 68
69 67 67
70 68 68
72 71 71
73 72 73
71 68 69
72 69 70
70 65 66
67 46 47
63 40 39
62 36 33
59 35 32
57 35 31
50 44 19
46 40 19
44 39 16
45 41 16
46 42 17
49 45 18
46 41 17
45 40 18
46 42 16
53 50 36
71 70 70
73 73 74
71 70 70
71 70 71
75 74 75
76 76 77
71 70 70
73 72 73
75 75 76
73 72 73
73 72 73
77 76 78
77 76 78
79 78 79
74 73 74
73 72 73
76 75 76
74 73 73
71 70 70
73 72 73
78 77 78
76 76 77
75 74 74
72 71 72
73 72 73
75 74 76
74 74 75
74 73 74
76 75 76
73 71 72
76 74 74
77 76 77
76 75 75
68 68 69
60 77 77
71 96 97
68 98 102
66 94 96
64 62 62
57 29 60
50 16 64
50 15 63
72 51 93
147 131 192
162 149 222
150 136 202
129 97 149
127 80 127
125 65 103
133 78 121
138 95 149
150 125 196
160 150 228
166 153 228
163 146 213
103 105 129
100 112 130
98 107 127
101 113 132
102 114 133
104 118 137
107 121 141
110 125 145
109 124 144
110 126 145
112 127 147
108 123 143
108 122 141
113 129 149
106 121 140
105 120 137
95 86 90
91 56 26
89 52 24
88 50 23
95 60 28
93 56 26
95 40 49
95 30 55
96 31 57
97 31 57
99 32 58
96 31 56
99 32 58
103 33 61
99 32 58
100 32 59
99 32 59
99 32 58
116 131 153
117 133 155
116 132 154
114 129 150
118 135 156
115 130 152
112 128 150
113 129 150
104 117 135
61 57 51
55 51 43
53 49 41
58 53 44
56 51 42
52 48 39
55 51 42
54 49 41
53 48 40
51 46 38
46 49 42
10 51 33
10 50 32
10 50 32
10 50 32
10 50 32
10 47 30
10 50 32
10 48 31
10 48 31
9 45 29
9 45 29
9 43 28
9 43 28
9 44 28
30 61 75
27 62 81
26 61 80
27 63 83
26 61 80
27 61 81
26 60 80
27 62 82
25 58 77
26 59 77
26 60 79
25 58 76
25 57 75
25 58 76
93 109 129
110 125 146
112 126 147
112 127 148
112 128 149
113 128 149
109 124 144
109 124 143
109 124 144
109 123 142
112 127 147
109 124 143
112 127 147
123 141 164
138 158 184
146 168 197
142 163 190
135 155 180
116 133 155
105 120 138
110 124 143
110 124 143
111 125 145
110 124 144
108 123 142
108 123 142
108 122 142
108 123 142
105 119 139
105 119 139
102 115 134
99 112 130
96 108 126
97 109 127
92 103 120
90 100 117
92 103 120
90 101 118
88 98 115
93 104 122
93 104 122
102 115 133
103 112 130
123 76 74
122 75 72
126 76 73
121 73 70
126 77 73
118 71 68
117 70 67
112 66 63
116 69 65
107 63 60
102 60 57
109 74 67
125 107 89
125 114 93
126 114 92
124 112 91
126 114 93
118 105 85
115 103 83
109 101 91
110 118 130
103 117 136
107 121 142
111 125 146
107 121 141
107 121 141
109 124 144
113 128 148
65 108 158
15 96 162
15 97 163
14 91 150
41 79 119
64 60 60
55 45 38
49 38 28
53 47 43
65 61 59
72 69 69
68 67 67
71 69 70
71 70 71
71 69 70
70 68 68
69 66 67
67 63 63
61 49 48
56 40 38
54 38 37
48 36 32
46 38 20
45 39 18
43 37 17
44 39 18
43 38 17
43 38 17
43 38 17
44 40 18
44 40 17
42 38 16
63 61 58
70 69 68
67 65 65
71 70 70
74 73 74
74 73 74
72 70 71
74 72 73
73 72 74
75 74 75
72 71 72
73 72 72
74 74 75
75 74 74
75 75 76
75 73 73
74 74 75
73 72 72
76 76 76
73 71 71
76 75 76
75 75 75
73 73 73
76 76 77
73 72 73
71 70 70
75 74 75
73 72 73
72 70 70
71 69 69
76 76 76
73 72 72
72 73 74
55 72 72
71 97 96
69 98 100
56 75 73
58 75 73
51 31 47
46 14 59
44 13 57
52 39 67
122 106 157
153 137 200
129 93 138
107 20 35
110 20 34
113 21 35
118 22 38
123 23 40
127 24 41
129 24 42
134 61 96
156 132 200
167 149 223
147 135 187
109 123 144
107 120 141
111 125 146
107 120 140
107 121 140
108 122 142
110 124 144
109 124 144
109 123 143
109 123 143
109 123 142
107 120 138
103 116 134
103 117 136
104 117 135
100 110 127
88 78 80
87 54 30
87 49 22
85 48 22
90 51 29
90 29 53
94 30 54
94 30 54
94 30 55
96 31 56
96 30 56
98 31 57
98 31 57
99 31 57
97 31 57
99 32 58
97 31 57
113 129 151
114 130 150
115 131 153
116 132 154
116 132 153
114 130 151
112 127 149
111 127 149
113 128 150
95 105 120
56 54 52
51 46 38
47 42 34
49 44 36
51 46 38
50 46 38
48 44 36
45 41 34
55 55 56
75 88 99
10 48 31
11 51 33
10 49 31
10 50 32
10 49 31
9 45 29
9 44 29
9 44 28
9 44 28
9 44 28
9 43 28
8 38 25
8 39 25
9 40 29
26 60 78
26 60 78
27 61 80
26 60 79
26 59 77
26 60 79
25 58 77
25 58 76
26 60 79
26 59 78
26 58 76
25 58 77
24 55 72
24 55 72
71 89 107
115 131 152
113 128 149
113 129 149
113 129 149
112 127 147
111 126 145
112 127 147
114 130 150
113 128 147
109 124 143
110 125 145
110 125 144
112 115 139
106 87 116
108 72 110
114 65 109
112 66 108
109 87 118
110 112 135
112 126 145
110 125 144
114 129 149
113 129 149
111 126 145
110 125 145
110 126 146
113 128 149
111 126 146
113 128 149
112 128 149
112 127 148
110 125 145
110 125 145
110 124 144
109 123 143
112 127 148
108 122 142
113 128 149
106 121 140
113 128 148
110 125 145
114 117 133
124 75 72
122 75 72
121 72 69
119 72 69
121 73 70
119 72 69
116 69 65
111 66 63
107 63 59
102 60 56
111 81 71
129 116 95
130 118 96
128 117 95
126 113 92
123 110 89
120 107 87
116 104 83
117 104 83
107 94 75
104 92 73
103 105 109
112 127 147
112 127 147
113 127 148
112 128 148
113 128 149
114 130 151
36 102 163
14 90 152
15 93 153
13 85 144
14 89 147
50 72 101
67 65 65
52 47 45
48 42 39
61 56 54
70 66 66
74 71 72
67 65 64
68 66 66
68 66 66
71 68 68
70 66 66
66 61 60
62 57 57
61 53 52
56 48 46
55 45 43
47 38 26
43 36 18
42 34 17
42 35 17
40 34 16
42 37 16
43 39 16
43 38 17
43 38 16
45 41 17
60 58 54
68 67 66
70 70 71
69 68 67
71 70 71
71 70 70
71 70 70
72 70 71
70 68 69
71 70 71
70 68 69
73 73 74
72 71 71
73 72 72
74 73 73
73 72 72
74 73 74
73 72 73
76 75 76
73 72 71
75 74 75
74 74 74
75 74 75
71 70 70
72 71 72
70 69 69
72 70 70
72 71 71
72 71 72
72 72 73
71 72 73
68 69 70
51 64 64
59 81 80
68 93 93
54 72 68
52 63 57
52 48 51
36 18 44
40 24 51
61 57 78
84 85 109
129 107 160
108 65 95
91 16 27
105 19 33
105 19 33
110 21 35
116 22 38
117 22 37
123 23 40
130 24 42
130 25 43
130 29 47
158 123 181
162 143 207
110 119 141
111 126 147
111 126 146
111 126 146
111 125 145
110 124 144
111 126 146
110 123 143
110 124 143
108 120 138
104 117 135
105 116 133
99 110 126
98 108 123
91 97 110
89 95 107
81 84 94
74 69 72
68 47 43
71 38 18
79 36 34
86 26 49
89 28 52
85 26 48
88 28 50
94 30 54
93 30 54
90 28 52
95 30 55
97 31 57
94 30 55
93 29 54
90 29 53
114 130 151
115 131 152
113 129 150
114 130 151
110 126 146
114 130 151
108 123 142
108 122 142
104 118 137
102 116 135
94 105 120
63 66 71
47 44 40
45 41 34
40 36 29
40 36 29
43 41 39
58 61 66
85 95 110
82 93 106
10 48 31
10 47 30
10 49 31
10 48 31
9 46 30
10 49 31
9 44 28
8 42 27
8 42 27
8 40 26
8 40 25
8 39 25
7 37 24
13 43 40
24 56 74
25 58 76
25 57 74
25 58 77
25 57 76
26 59 77
25 56 74
25 58 77
24 56 73
24 54 71
24 55 73
24 54 72
25 56 74
23 52 68
59 79 97
117 133 154
114 130 150
112 128 149
114 130 151
114 129 150
113 129 149
115 130 150
112 127 146
116 131 152
113 128 149
112 122 143
108 79 111
112 15 88
109 10 86
110 10 86
107 9 84
109 10 86
106 9 84
106 9 83
107 58 100
115 118 142
113 128 148
112 128 148
115 130 151
117 132 153
113 128 148
113 128 148
111 126 146
113 129 150
110 125 145
113 128 149
117 133 154
112 127 147
114 130 151
113 127 148
113 128 149
112 127 147
114 129 149
112 126 146
111 125 146
115 131 152
115 113 128
116 70 67
119 73 69
116 70 66
117 70 67
113 67 64
110 65 61
113 67 63
109 66 62
106 62 59
106 71 64
129 116 94
130 118 97
128 115 94
124 111 90
126 112 91
123 111 90
118 104 84
124 112 90
111 97 78
107 94 75
104 90 72
98 85 68
106 112 122
112 127 147
116 131 151
113 128 149
111 125 145
106 124 147
14 92 155
14 89 149
14 90 151
14 89 147
12 80 135
14 80 133
57 63 79
63 59 59
52 48 47
55 51 50
66 62 61
66 63 62
71 68 68
68 65 65
70 67 68
69 67 67
72 68 68
64 60 59
61 58 57
59 53 53
58 52 50
59 53 51
50 45 42
38 33 17
38 32 15
40 33 17
41 33 17
41 34 17
40 33 17
40 34 15
42 36 16
42 38 19
58 55 53
61 58 57
69 67 66
67 66 66
68 67 66
69 68 69
72 71 71
70 68 68
71 69 68
70 68 68
72 72 73
71 69 69
73 71 71
77 75 76
72 70 70
73 71 71
72 70 69
74 72 73
72 71 72
76 75 76
74 73 74
72 70 71
72 72 73
70 69 69
71 70 69
71 69 69
69 67 67
72 70 70
70 70 71
72 72 71
66 68 68
51 59 59
44 64 63
69 92 90
54 67 63
40 55 50
49 55 54
56 57 69
56 60 70
65 70 82
75 96 108
91 121 137
102 136 153
103 146 163
108 149 166
103 121 135
103 74 85
110 23 37
114 21 37
116 21 37
121 22 39
122 23 39
128 24 42
130 25 43
130 34 54
140 106 160
117 118 150
114 128 149
111 127 147
115 130 151
111 125 145
114 129 149
114 129 149
112 127 147
109 123 142
110 122 141
108 121 140
107 119 138
105 117 135
104 115 132
103 113 128
99 107 122
91 97 109
79 82 92
79 82 92
76 76 84
79 60 70
82 25 47
83 26 48
88 27 50
88 27 50
91 28 52
96 31 56
89 28 51
88 28 51
86 27 50
92 29 54
92 29 54
86 27 51
112 128 148
113 129 151
110 125 144
110 125 145
105 119 138
106 121 139
106 119 138
100 113 131
96 107 123
86 96 109
81 90 103
74 81 92
58 62 69
47 50 55
42 44 48
51 55 60
57 61 67
68 76 88
65 79 112
56 76 128
35 65 126
34 64 129
34 65 127
28 58 106
21 50 80
10 42 35
9 45 29
8 40 25
8 39 25
7 37 24
7 35 22
7 34 22
7 35 23
16 44 43
24 56 73
26 59 77
24 55 73
25 57 74
25 57 75
24 54 71
23 54 71
23 53 70
23 53 70
24 54 71
24 54 71
23 53 70
23 53 69
23 52 68
51 69 85
115 131 151
115 131 152
116 132 154
114 129 149
116 133 154
112 128 148
114 129 150
115 130 151
114 130 150
113 120 143
109 51 97
108 9 83
109 10 85
107 9 83
107 9 83
107 9 83
106 9 82
106 9 82
102 9 79
107 9 84
102 23 81
108 107 131
113 129 150
116 132 153
118 133 154
113 128 149
115 131 152
115 131 152
118 134 155
115 130 151
116 132 152
113 129 149
116 131 152
116 132 153
112 127 148
116 132 153
114 129 150
112 127 148
115 130 151
115 131 152
114 129 149
114 115 130
115 70 67
112 67 64
114 68 65
111 66 63
111 66 63
107 62 59
103 61 58
105 61 57
106 63 59
116 100 82
127 115 93
125 113 91
122 109 87
121 108 87
120 107 86
120 108 87
120 107 86
116 103 83
115 101 81
103 89 70
104 90 71
95 81 63
89 77 66
115 129 148
116 131 152
116 132 152
112 127 146
107 125 148
14 89 150
13 84 143
13 83 142
13 81 136
12 77 131
12 77 129
18 68 114
59 62 71
63 60 60
57 54 53
63 59 57
67 64 64
69 65 65
67 63 63
70 67 67
67 65 64
66 63 63
65 62 61
63 58 57
63 59 58
61 57 56
60 55 54
62 56 55
50 46 42
34 29 14
35 28 15
36 29 16
35 29 15
37 31 15
40 33 16
38 31 16
51 46 40
57 54 51
62 59 57
67 65 64
67 64 63
67 65 64
66 64 63
67 65 65
72 71 71
71 69 68
70 68 67
68 66 65
73 71 71
71 69 69
75 73 73
75 74 74
72 71 71
69 67 67
70 68 69
71 69 70
73 71 71
72 70 70
70 69 70
70 69 69
68 66 66
69 67 67
71 69 69
71 70 70
69 67 67
67 67 67
61 63 63
52 58 57
38 56 55
46 64 63
52 68 65
37 47 41
40 45 45
84 90 105
98 110 128
93 107 124
79 104 112
72 105 110
75 110 113
89 134 142
97 153 170
105 169 193
114 183 209
113 178 200
112 149 165
109 56 66
116 22 38
116 22 37
120 22 38
126 23 40
128 24 41
127 24 41
124 34 58
113 110 147
115 130 151
114 130 150
116 131 151
114 129 149
115 130 151
112 126 146
116 130 150
113 128 148
115 129 149
112 126 146
111 126 146
111 125 145
110 123 143
110 124 143
111 124 143
107 119 137
109 121 138
108 120 138
105 116 132
100 101 116
81 25 46
81 25 46
82 25 47
83 26 48
87 27 50
87 27 50
85 27 50
83 26 48
84 26 48
84 27 49
81 26 48
84 27 49
115 131 152
112 127 148
112 127 147
111 126 145
109 124 143
110 125 144
104 117 135
104 118 136
103 116 133
96 108 123
97 109 125
94 106 121
93 104 119
94 106 121
95 106 121
92 104 119
84 98 125
49 73 133
36 66 137
37 67 138
37 67 139
36 66 137
36 65 134
36 65 136
35 63 131
34 63 127
19 46 71
7 37 24
8 39 25
7 35 22
7 35 23
6 33 21
6 30 19
68 83 94
23 52 68
23 53 69
25 57 75
24 54 71
23 52 69
24 54 71
23 51 67
22 51 68
23 52 69
22 50 66
22 49 64
21 48 63
20 47 61
23 51 66
67 84 100
114 130 150
115 131 152
115 130 151
115 131 152
117 133 154
115 131 152
114 129 150
116 132 153
117 130 152
106 51 95
105 9 82
108 9 84
106 9 82
108 9 84
107 9 82
105 9 82
106 9 82
106 9 83
105 9 82
103 9 79
99 9 76
99 29 80
112 116 139
115 131 152
112 127 148
115 131 151
113 129 149
114 130 151
116 132 153
117 134 155
116 131 151
115 130 151
116 132 152
117 132 154
117 133 153
118 134 154
117 133 154
114 129 150
115 130 151
114 129 149
113 129 150
115 127 146
108 64 62
109 66 63
108 65 62
109 66 63
102 60 57
110 66 62
103 60 56
102 59 56
100 69 60
122 111 90
119 106 85
124 111 89
126 114 93
123 110 89
122 109 87
122 109 88
115 102 82
114 100 79
113 100 79
104 92 73
98 84 66
92 79 62
88 74 57
99 105 115
114 129 149
111 126 146
112 128 148
112 128 148
26 86 141
12 78 135
12 78 131
13 79 132
12 77 128
11 72 121
10 65 110
17 57 96
56 58 66
62 58 58
62 60 60
63 60 61
68 65 65
68 65 66
70 66 65
66 62 61
66 64 64
63 60 59
65 60 60
63 60 59
66 61 59
61 58 57
59 56 55
57 53 52
53 48 46
38 33 28
34 28 18
35 28 15
35 28 16
37 31 21
44 39 33
56 53 50
59 56 54
63 60 58
63 59 58
68 66 65
67 64 62
69 66 64
67 64 63
68 65 63
69 67 66
70 68 67
70 67 66
69 65 64
69 67 67
67 64 63
70 68 68
72 70 69
71 70 69
70 68 67
72 71 71
70 68 68
70 69 69
69 67 66
71 69 69
68 66 66
70 69 69
71 70 70
67 65 64
66 64 64
57 58 57
52 57 57
33 44 42
37 52 50
35 49 46
35 43 38
37 43 43
54 45 65
91 100 118
93 110 127
51 77 81
48 80 81
63 98 99
72 109 110
81 122 127
89 142 159
96 161 185
108 180 210
112 184 212
117 186 212
112 171 190
110 71 82
117 22 38
120 23 39
124 23 40
122 23 40
121 23 39
120 22 39
113 96 122
114 129 149
114 130 151
117 132 153
118 134 156
114 129 150
112 127 147
115 130 150
116 131 152
114 129 149
113 128 148
112 126 146
112 127 147
113 127 147
115 130 150
114 129 150
115 130 151
113 128 148
112 126 145
111 125 144
110 121 141
79 30 48
76 24 43
83 26 47
80 25 46
83 26 48
84 26 48
83 26 47
82 26 47
87 27 50
81 25 47
80 25 47
83 26 48
115 131 152
113 128 149
114 129 149
116 132 152
115 131 152
114 130 150
111 126 146
113 128 148
110 125 145
108 123 142
114 129 150
108 122 141
113 128 148
107 122 141
108 123 142
86 104 142
39 68 138
36 65 136
36 65 135
36 65 135
36 66 136
36 65 134
35 64 132
34 62 128
34 62 129
34 63 130
35 63 131
23 50 87
7 36 23
6 33 21
6 30 19
6 30 19
51 64 70
110 126 146
46 67 83
23 53 69
22 51 67
22 50 66
23 53 69
22 51 67
22 52 68
23 52 68
23 51 68
21 48 63
21 48 62
21 47 62
20 45 59
20 47 62
82 96 113
114 130 151
115 131 152
116 131 152
114 130 151
115 131 152
118 133 155
115 131 152
113 129 149
111 89 119
101 9 77
102 9 78
102 9 78
105 9 81
102 9 79
107 9 83
105 9 80
105 9 80
104 9 81
102 9 78
97 8 74
99 9 76
97 8 74
100 62 96
117 132 154
114 130 151
115 131 151
110 125 145
117 133 154
117 133 154
115 130 151
116 132 152
115 130 151
113 128 148
118 134 155
118 133 154
114 129 149
115 131 151
117 133 154
113 127 147
117 133 154
116 131 152
114 129 149
109 87 94
104 62 59
100 59 57
102 61 58
102 61 58
99 58 55
98 58 54
92 53 50
105 82 69
122 109 88
121 108 88
118 105 84
118 104 84
121 108 87
116 102 82
119 106 85
115 101 81
111 97 77
108 94 75
103 89 71
99 86 68
89 76 60
83 71 55
89 85 85
110 125 145
111 125 145
109 124 142
111 127 146
61 94 136
12 76 131
12 75 127
11 74 125
12 75 126
11 69 117
10 65 113
10 63 109
19 57 93
56 55 58
65 63 64
62 60 60
61 57 57
65 61 60
66 64 64
67 63 62
68 64 62
67 64 63
62 58 57
62 59 58
60 57 56
65 62 61
59 55 53
60 56 55
57 53 52
57 53 51
55 50 48
49 44 41
53 47 43
48 43 39
56 52 49
55 51 48
59 56 54
59 56 54
65 63 62
64 61 59
66 62 61
67 64 62
72 70 70
65 63 62
67 64 63
70 68 68
70 68 68
70 68 68
69 67 67
69 67 66
68 66 65
66 64 63
66 64 64
68 66 66
68 66 66
66 63 63
71 68 68
68 66 66
69 68 68
69 67 66
69 67 67
69 67 67
64 63 62
63 63 62
55 56 55
40 44 42
32 46 45
33 46 44
31 43 40
37 41 40
61 61 73
54 41 74
85 98 113
39 64 66
35 69 68
47 84 84
62 98 99
75 110 112
83 129 136
91 150 169
101 170 198
106 178 208
110 185 215
114 185 213
117 188 212
112 165 184
104 53 63
114 21 37
122 23 40
120 22 38
125 23 39
119 22 38
120 85 102
111 126 146
112 127 148
114 129 149
113 128 148
117 132 153
116 131 152
114 129 149
117 133 154
112 126 146
115 130 151
114 129 149
114 129 150
114 129 150
114 129 150
115 130 151
118 133 154
116 131 152
113 128 148
116 131 152
116 131 152
87 74 90
77 24 44
78 24 44
76 23 43
77 24 44
77 24 44
76 24 43
75 23 42
80 25 46
78 24 45
77 24 44
74 23 43
115 131 152
116 132 153
116 131 152
114 131 152
117 133 154
113 129 149
116 133 154
114 131 151
114 130 151
115 131 153
111 127 147
115 131 152
113 129 149
117 133 154
93 109 143
37 65 133
35 63 130
36 65 135
34 62 128
36 64 133
36 65 134
35 64 131
36 64 132
34 62 128
39 60 121
63 62 108
76 61 91
86 62 74
83 55 42
78 52 35
64 45 31
61 63 66
99 113 130
104 119 138
76 92 108
22 49 65
21 47 62
23 53 69
23 52 68
22 50 66
21 47 62
21 47 63
20 45 60
21 48 64
19 44 58
19 43 57
20 45 58
29 50 64
106 122 141
112 127 148
114 129 150
116 132 153
111 126 146
116 132 153
114 130 151
116 132 153
114 128 149
102 26 82
101 9 78
103 9 80
101 9 78
103 9 79
105 9 81
103 9 79
103 9 78
105 9 81
100 9 76
97 8 74
97 8 74
97 8 73
100 9 76
92 8 70
109 116 137
116 132 153
115 130 151
114 129 149
116 132 153
115 131 152
113 129 149
116 132 153
114 130 151
117 132 153
115 131 152
115 130 151
116 132 153
114 129 149
117 132 153
117 132 153
112 127 148
112 127 147
117 132 153
111 120 138
99 62 61
95 57 54
98 58 55
97 58 55
93 55 52
94 54 51
90 51 48
105 85 71
116 104 84
115 104 84
118 105 85
118 105 85
120 107 86
119 105 84
116 103 82
110 96 77
108 96 77
111 96 77
99 87 69
97 84 66
91 78 61
85 72 56
78 69 61
109 125 145
108 124 143
105 119 138
107 122 140
91 109 135
11 71 121
11 71 124
11 69 118
10 64 110
10 66 114
11 69 116
10 65 111
9 56 98
18 51 88
58 57 61
63 60 59
58 55 55
64 62 62
63 59 59
68 65 64
67 63 61
65 60 58
67 63 62
65 62 61
63 60 59
61 58 57
61 58 57
59 55 53
59 56 55
55 51 49
56 53 51
55 51 49
53 49 47
53 50 48
57 53 51
58 54 52
60 57 56
59 56 53
59 56 54
65 63 61
63 60 59
66 63 61
66 63 62
68 65 65
66 63 62
65 62 61
71 70 70
68 66 65
68 65 65
66 64 63
67 66 65
65 63 62
63 61 61
69 67 67
71 68 68
68 65 65
69 66 65
69 67 67
67 65 64
62 60 59
67 65 64
62 61 60
59 58 57
54 55 54
46 47 46
35 41 39
33 49 47
36 43 41
43 44 45
49 48 53
53 52 66
53 49 69
50 71 77
27 53 52
37 71 70
48 81 82
63 94 96
77 113 114
91 141 153
98 161 184
105 179 208
113 188 218
113 186 215
112 185 212
116 186 211
118 187 208
103 127 141
111 21 37
112 21 36
117 22 38
120 22 38
117 21 37
119 75 91
110 125 145
116 131 152
114 129 150
114 129 150
114 129 150
113 127 148
114 129 149
113 128 148
112 126 146
114 129 150
112 126 147
114 128 149
115 130 151
112 128 148
115 131 152
114 128 149
111 126 146
111 126 146
112 126 146
113 127 147
108 119 138
72 29 46
72 22 41
73 22 41
75 23 42
73 22 41
73 23 41
70 22 40
72 22 41
72 22 41
73 23 42
70 22 40
113 129 150
117 133 154
117 134 155
117 134 155
115 131 151
117 133 154
117 133 155
118 135 157
116 133 154
113 128 149
114 130 150
113 129 149
112 128 148
111 127 150
51 74 132
34 62 128
36 65 133
36 64 133
35 62 128
33 59 124
34 60 125
34 61 126
37 60 122
71 60 95
93 61 58
98 61 42
96 60 41
96 60 41
95 59 41
94 58 40
94 59 40
93 58 40
90 72 69
94 104 119
91 104 120
38 56 69
20 45 59
21 47 62
20 46 60
19 44 58
20 45 60
19 43 56
19 44 57
19 43 56
18 41 54
18 42 55
18 41 55
81 96 113
113 128 148
112 128 148
111 127 147
111 126 146
114 130 151
116 132 154
111 126 146
113 129 150
109 109 133
95 8 72
100 9 76
101 9 78
102 9 79
106 9 81
101 9 77
102 9 78
98 8 75
102 9 78
101 9 78
101 9 76
96 8 73
95 8 72
92 8 69
90 8 68
102 92 115
116 132 153
117 133 154
115 130 150
118 133 154
114 129 150
116 132 153
115 131 152
115 131 152
116 132 153
115 131 152
116 131 152
115 129 149
114 129 149
116 132 153
113 128 149
115 130 151
117 131 152
113 128 148
112 127 147
102 99 112
88 52 50
90 53 50
89 51 49
88 50 47
85 49 46
85 49 47
104 88 72
108 95 76
116 103 83
114 101 82
115 101 81
117 104 83
109 96 76
110 96 76
110 97 78
107 93 75
105 93 74
100 87 69
94 79 61
89 74 58
85 71 55
79 69 59
106 121 140
111 118 137
122 116 135
124 112 129
124 107 124
103 87 109
87 80 107
56 65 103
15 57 103
9 59 104
11 68 115
8 53 97
9 57 100
8 53 95
19 48 83
54 53 59
59 54 52
62 58 57
59 56 55
62 58 57
64 60 59
65 60 57
65 61 54
65 62 52
65 63 53
64 62 53
61 59 56
60 56 54
59 55 53
60 56 55
55 51 50
58 54 53
56 53 51
54 51 49
58 54 52
58 55 53
55 52 50
62 59 58
63 60 59
63 61 60
60 57 56
62 58 56
62 60 59
64 61 60
67 66 66
63 60 59
68 66 66
65 63 62
65 62 61
63 60 59
65 63 62
67 65 64
66 63 62
67 65 63
66 64 63
68 65 63
69 66 66
68 65 64
67 65 64
63 60 58
60 59 58
58 58 56
54 53 52
49 50 48
42 43 40
45 43 41
54 53 52
49 48 49
49 49 54
52 54 63
52 51 62
53 62 72
30 53 54
34 60 59
43 71 71
47 79 81
65 98 100
82 126 132
100 160 178
108 176 201
114 186 214
112 185 213
116 189 216
116 188 214
116 187 210
120 187 208
108 165 182
103 57 67
113 21 37
116 22 37
113 21 36
118 22 38
116 76 91
116 132 154
114 129 149
114 129 149
115 129 150
111 126 147
111 125 145
112 127 147
113 128 149
114 129 150
113 127 148
113 128 148
114 129 150
115 130 150
113 127 147
109 123 143
111 125 144
111 125 145
113 126 147
111 125 144
108 122 141
110 123 143
100 104 122
66 29 43
65 20 37
67 21 38
66 20 37
69 22 40
68 21 38
69 21 40
69 21 39
63 19 36
72 23 42
114 130 151
116 132 153
116 132 154
116 132 153
116 132 153
117 134 155
113 129 150
115 131 152
115 131 151
112 128 149
110 126 146
114 130 151
112 128 148
84 101 136
34 61 127
35 63 130
33 58 121
34 61 126
35 62 128
34 60 125
33 59 122
38 57 115
81 59 75
94 58 41
98 61 42
96 59 41
99 61 42
96 59 41
95 59 40
97 60 41
92 57 39
91 57 39
94 59 40
91 59 45
92 96 108
87 100 116
36 53 66
19 44 58
18 43 56
18 42 56
18 42 56
17 39 52
17 40 53
18 41 54
15 35 46
16 36 48
67 81 96
106 121 141
111 126 147
105 121 140
107 122 142
110 126 147
108 123 143
108 124 143
110 126 146
110 126 146
101 92 116
94 8 72
96 8 73
96 8 73
96 8 73
98 8 74
97 8 74
95 8 72
101 9 77
101 9 76
93 8 71
95 8 72
97 8 74
93 8 70
92 8 69
91 8 68
97 77 103
114 129 149
118 134 155
116 132 152
115 131 151
116 131 152
117 132 153
117 132 153
115 130 151
113 128 149
116 131 152
116 130 151
114 129 149
113 127 148
110 124 143
113 127 146
111 124 143
110 124 143
108 121 140
108 121 140
107 119 137
98 96 110
79 51 52
81 48 45
83 48 45
81 46 43
75 42 40
89 73 60
105 93 75
107 95 77
113 101 81
107 94 76
108 95 76
108 95 77
109 95 76
102 89 71
105 91 73
97 82 65
92 80 63
89 75 58
83 70 55
77 64 50
84 73 73
131 114 134
163 133 158
163 133 159
157 126 152
153 120 144
145 112 132
127 95 108
108 74 81
86 65 81
41 55 91
8 53 94
8 51 93
8 49 90
7 45 82
7 47 86
23 49 83
68 72 81
59 53 51
61 57 55
61 59 54
65 67 46
70 74 26
68 74 20
69 75 19
68 74 17
69 75 20
69 74 24
63 65 33
59 57 48
58 54 52
59 54 52
58 54 52
60 56 55
56 53 51
58 54 53
58 55 54
60 57 56
61 58 56
58 55 53
59 57 56
62 60 59
63 61 60
60 57 56
62 60 59
62 59 58
63 61 60
63 61 61
63 60 59
63 59 58
69 66 65
64 62 60
66 63 62
68 65 64
66 63 62
65 62 61
66 63 61
62 58 56
66 63 62
64 62 60
60 58 58
59 58 57
54 53 52
52 51 49
41 42 40
51 50 48
52 50 50
50 47 48
47 48 53
50 52 59
52 53 62
60 64 75
62 77 87
34 59 59
38 65 65
45 74 75
52 82 83
72 112 118
98 153 168
110 178 200
118 189 214
117 189 215
117 189 214
116 187 211
120 190 213
122 193 214
119 185 205
107 165 182
93 88 99
108 20 34
111 20 35
109 20 34
113 21 36
111 88 104
114 129 150
117 132 153
115 130 152
111 125 146
117 132 153
109 123 143
114 129 150
115 130 151
109 123 143
113 128 149
112 127 147
108 122 141
112 126 146
110 124 144
108 121 141
114 128 149
109 122 142
106 119 138
102 115 133
100 112 130
104 115 133
100 111 128
90 96 112
67 48 60
58 18 32
63 19 35
63 19 36
64 20 37
63 19 36
66 21 38
62 24 39
81 79 94
114 130 151
115 132 153
116 132 154
117 134 156
117 133 154
116 132 153
116 132 152
117 134 155
118 135 157
112 128 148
114 130 151
115 132 153
114 131 152
58 77 125
33 60 123
34 61 125
33 60 123
33 59 121
33 60 123
33 58 120
38 57 115
85 60 74
96 59 40
95 59 40
96 60 41
97 60 41
97 61 41
96 59 40
95 59 40
95 59 40
95 59 40
94 58 40
90 56 38
91 56 38
90 59 45
95 102 116
90 104 121
53 66 78
18 37 49
16 37 49
15 36 47
16 37 48
15 34 45
15 36 47
26 41 51
77 89 103
94 107 124
97 111 129
97 111 129
101 115 134
101 116 134
102 117 135
105 119 138
107 123 142
112 128 149
108 123 143
101 87 113
92 8 71
92 8 70
91 8 70
92 8 71
99 8 75
94 8 71
95 8 72
96 8 72
97 8 73
92 8 69
92 8 69
91 8 69
94 8 70
87 7 65
84 7 62
90 71 94
113 128 148
113 128 148
116 132 153
114 130 150
113 128 148
114 129 150
114 128 148
116 132 152
114 129 150
114 130 150
113 127 147
114 128 149
109 122 142
109 122 141
111 124 144
105 116 134
104 115 133
99 108 125
99 108 123
93 100 115
88 93 106
79 82 93
68 53 57
59 36 36
61 32 31
63 35 34
69 53 46
106 94 76
109 97 78
105 93 75
108 95 76
108 95 77
108 96 77
104 91 73
101 89 71
100 87 69
98 84 66
92 79 63
85 72 57
82 70 54
89 72 70
155 125 147
174 141 170
172 140 170
169 139 172
167 137 170
160 130 160
156 126 154
143 113 135
130 96 110
114 78 84
88 58 62
54 47 73
13 45 83
7 47 87
7 43 85
37 58 91
72 85 106
80 92 109
71 77 87
63 62 46
70 75 28
72 79 19
73 80 19
72 79 19
72 78 18
72 78 19
70 76 18
71 78 18
68 73 17
65 70 20
60 61 39
58 55 52
56 52 51
58 53 51
59 55 53
59 55 53
57 53 51
63 60 59
60 57 55
61 58 56
60 57 55
61 58 56
63 60 58
59 56 54
63 60 58
64 61 60
64 61 59
63 59 57
63 60 58
61 58 56
63 60 58
64 61 60
64 61 59
64 61 60
62 58 56
65 62 60
61 57 54
62 59 57
59 57 55
57 54 53
58 56 55
53 51 50
55 54 53
50 48 45
51 47 45
48 46 46
45 43 45
43 44 49
49 51 57
47 49 55
56 60 70
89 98 116
57 75 85
33 56 56
36 63 64
44 71 71
60 97 101
90 141 152
116 179 196
122 192 213
121 192 213
121 193 215
123 193 215
120 187 207
117 188 208
118 185 205
115 181 199
99 153 170
85 100 113
107 20 35
107 20 35
109 20 35
108 20 34
110 104 123
112 127 148
116 131 153
112 126 148
115 130 151
113 128 149
115 130 151
113 127 148
113 126 146
112 126 147
111 125 145
109 124 144
114 129 150
107 120 140
108 121 141
107 120 140
105 117 136
106 119 138
102 113 131
98 107 125
95 104 121
91 100 115
86 92 106
81 86 99
70 74 84
57 52 60
53 33 42
51 27 37
48 20 30
51 37 45
64 54 64
79 82 96
94 104 121
116 132 153
116 132 154
114 129 150
118 134 156
114 130 151
116 132 153
116 132 154
116 132 153
113 129 149
116 133 154
114 130 151
115 131 151
111 127 149
39 63 122
33 59 122
32 57 118
33 59 121
33 59 121
32 57 117
30 54 111
69 56 85
91 56 40
93 57 39
97 60 41
95 59 40
92 57 39
94 58 39
91 56 38
94 59 40
93 58 39
90 56 38
89 55 38
88 54 37
88 55 37
87 53 36
85 65 62
80 90 103
72 82 94
57 65 74
37 44 52
22 31 38
20 28 36
26 32 39
43 49 56
58 65 74
68 77 88
74 84 97
88 99 115
92 105 122
97 111 128
97 110 128
98 112 131
107 122 142
111 126 146
107 122 141
111 126 146
104 98 122
89 8 68
91 8 70
88 8 67
91 8 69
90 8 68
94 8 71
94 8 71
92 8 69
91 8 69
91 8 69
90 8 67
91 8 68
89 7 67
84 7 62
80 7 60
92 75 100
111 126 147
114 129 150
114 129 150
116 132 153
113 129 149
114 129 150
113 128 148
113 128 148
112 126 145
109 123 141
109 123 142
111 125 145
114 128 147
108 121 140
105 117 135
104 116 135
103 114 132
98 107 123
97 106 122
94 99 114
86 90 103
82 86 96
75 76 86
63 62 69
64 64 72
56 57 63
66 66 73
93 83 68
102 90 72
102 91 73
103 91 74
100 88 70
99 87 69
97 85 68
97 86 69
98 86 68
89 77 61
87 74 59
81 69 54
92 75 71
153 123 144
179 144 172
175 144 175
172 140 172
173 144 178
167 138 172
166 136 170
165 135 168
160 129 159
145 114 136
136 100 116
112 75 81
81 50 54
47 36 53
25 35 60
36 46 67
52 61 78
53 61 77
70 80 95
66 75 80
69 75 29
73 79 19
72 79 19
73 80 19
72 79 19
72 79 19
73 80 19
73 80 19
69 76 18
72 78 18
70 76 18
69 74 18
64 65 38
58 54 50
60 54 52
56 52 49
56 52 50
58 55 54
58 53 50
59 55 53
58 55 54
58 54 52
59 55 53
63 60 59
58 54 52
61 57 55
59 55 53
62 58 56
62 58 56
61 57 55
67 64 63
64 61 59
62 58 56
60 56 54
64 61 59
65 61 59
62 59 57
57 54 53
56 54 52
57 54 53
56 54 52
55 53 52
54 51 49
51 50 48
52 47 45
45 44 44
38 38 40
38 37 41
36 36 40
40 41 46
54 58 68
92 103 121
101 112 133
52 74 84
31 62 64
35 61 62
42 75 79
63 104 111
94 147 160
113 177 194
114 180 198
115 181 199
117 183 202
120 185 204
113 177 195
114 177 195
111 173 190
106 163 179
85 135 151
74 87 99
99 18 32
102 19 33
102 19 32
102 46 61
110 119 143
110 123 146
112 125 148
111 125 147
111 124 145
110 124 145
112 126 147
111 125 147
110 124 146
111 124 145
113 127 148
107 120 140
111 125 146
111 125 145
110 124 144
109 123 143
106 119 139
110 124 144
105 118 138
100 110 128
102 113 132
94 103 120
93 103 120
87 95 110
76 80 93
71 75 86
63 65 75
59 60 69
55 55 64
57 58 67
61 63 72
72 76 88
82 87 101
116 132 153
114 130 151
117 133 155
116 131 152
118 135 156
117 133 154
118 134 155
112 128 149
114 129 150
114 130 150
114 130 150
115 131 152
108 124 147
36 61 121
31 55 113
32 57 116
31 56 116
32 57 116
30 53 109
37 50 100
87 55 48
91 56 38
94 58 39
92 57 38
93 58 39
93 57 39
91 56 38
89 55 37
94 58 39
91 56 38
90 55 37
90 55 38
88 54 37
88 54 37
84 52 35
82 56 38
77 88 85
73 105 95
63 101 82
59 103 77
59 95 76
60 85 77
69 84 89
76 86 100
75 85 98
88 100 115
92 105 122
96 109 127
95 108 126
101 115 133
104 119 139
107 122 142
109 124 144
109 124 144
110 125 145
107 122 142
109 117 139
85 7 64
83 7 63
86 7 65
86 7 65
85 7 64
90 8 68
90 8 68
85 7 64
90 8 68
88 7 66
90 8 67
88 7 66
83 7 61
82 7 61
80 7 59
101 103 123
115 130 151
115 130 150
114 128 149
113 128 149
113 128 148
116 130 151
111 126 146
109 124 143
112 126 146
114 128 148
111 125 145
108 121 139
109 122 141
109 122 142
109 122 141
105 117 136
104 117 135
101 112 129
103 113 130
102 113 130
99 110 128
99 109 125
97 105 121
94 102 117
92 100 115
94 103 118
95 105 120
94 99 107
94 84 68
94 82 65
96 85 68
96 84 67
92 81 65
94 82 65
96 84 67
92 79 63
90 79 62
88 76 60
82 70 57
128 99 114
174 139 164
181 146 176
178 143 174
174 142 174
169 138 171
169 138 172
169 139 173
171 142 176
168 139 172
161 127 155
154 121 145
131 97 111
100 65 70
71 40 42
57 57 70
58 65 79
58 66 80
62 69 81
66 72 77
70 74 33
68 73 17
71 77 18
72 78 18
71 78 18
71 78 18
72 79 19
72 79 19
70 76 18
71 77 18
72 78 18
69 76 18
71 77 18
65 70 17
61 61 41
55 49 46
58 53 51
55 50 47
57 52 48
56 52 49
60 56 54
57 53 51
60 56 53
59 55 53
58 54 51
59 55 53
60 56 54
61 57 55
60 56 54
59 55 53
62 58 55
60 55 53
59 55 52
60 55 53
59 56 54
59 55 53
55 52 50
53 51 49
58 56 55
54 49 47
56 53 52
52 51 49
53 51 49
53 50 49
46 43 41
44 44 45
30 31 33
28 29 32
30 30 33
44 45 52
54 57 67
71 77 91
78 84 99
81 89 106
58 80 91
36 65 69
37 69 73
42 76 81
56 94 102
81 129 142
87 143 158
91 149 164
97 153 169
97 154 170
95 151 167
94 149 166
96 152 168
94 148 164
84 135 151
68 112 126
68 77 88
96 17 30
102 19 32
96 17 30
105 97 118
106 115 140
105 116 141
109 120 144
108 119 142
110 122 144
112 124 147
111 123 146
112 125 147
112 125 147
111 125 146
112 126 147
114 128 149
113 127 148
110 124 145
111 124 145
110 123 143
111 125 146
113 127 148
106 120 139
106 119 139
106 119 139
107 120 140
101 114 133
106 118 137
104 116 134
102 113 132
100 111 129
92 101 118
94 104 120
91 100 117
93 102 119
90 99 115
94 104 121
115 130 151
115 131 151
118 134 156
116 131 152
116 132 153
115 131 151
113 129 149
118 134 156
114 130 151
117 133 154
117 133 155
116 132 153
112 128 150
37 60 117
31 56 114
31 55 112
31 55 113
30 53 109
28 49 101
60 52 84
91 55 38
89 54 37
87 53 36
90 55 37
92 56 38
91 56 38
92 57 39
91 56 38
88 54 37
85 53 36
85 52 35
85 52 36
86 53 36
87 57 39
76 77 51
66 105 68
61 121 79
61 124 80
61 123 80
60 121 78
60 121 78
59 119 77
60 112 79
79 114 104
100 118 132
101 115 133
104 119 138
106 121 140
105 120 139
108 123 143
111 126 146
108 124 144
111 126 147
111 126 147
109 124 144
113 129 149
112 127 148
85 51 81
78 7 60
82 7 62
85 7 65
84 7 64
84 7 64
82 7 62
86 7 65
84 7 62
84 7 63
83 7 62
80 7 59
82 7 61
74 6 55
75 25 60
113 126 147
115 131 152
113 128 148
113 127 147
112 127 147
109 123 143
112 127 147
112 127 147
113 128 148
114 130 150
111 125 145
111 124 144
112 126 145
111 124 144
108 122 141
109 122 141
107 120 138
110 124 143
107 121 139
106 119 137
105 118 137
104 117 134
104 117 136
104 116 134
107 119 138
102 113 130
102 115 132
103 115 132
105 117 135
94 94 96
90 78 63
87 77 61
92 80 64
90 80 64
94 82 65
87 75 59
85 73 58
81 69 54
76 64 50
100 80 83
156 120 142
176 138 164
181 143 171
179 144 175
174 140 171
175 140 172
177 145 178
174 140 173
173 140 172
176 141 173
172 141 172
168 134 162
152 119 139
110 77 83
80 48 46
68 56 63
79 87 101
82 90 103
75 82 93
72 78 62
69 74 18
68 73 17
72 79 19
70 77 18
72 79 19
74 81 19
73 80 19
72 79 19
72 78 19
74 80 19
70 76 18
69 76 18
73 79 19
68 73 17
64 69 25
55 51 44
58 53 51
57 52 49
57 52 49
55 50 47
53 47 43
58 53 50
58 54 51
57 52 49
55 50 46
58 53 50
60 56 54
57 53 51
58 54 52
60 55 53
56 50 48
54 49 47
52 48 45
57 54 52
56 53 52
55 53 52
52 49 47
53 48 45
55 51 49
54 50 48
49 45 42
51 46 44
49 44 43
45 43 43
58 60 66
50 53 58
53 55 61
53 57 63
54 57 64
54 56 64
58 61 71
65 69 81
68 73 84
72 78 90
59 73 83
38 69 75
36 64 69
43 77 84
53 94 104
57 101 112
63 113 126
66 113 127
69 119 134
70 117 132
71 119 134
71 121 137
73 125 141
69 115 130
70 115 130
63 104 120
72 64 75
91 17 29
93 18 30
98 83 104
100 107 131
104 112 137
107 117 141
105 115 138
108 121 143
108 119 141
107 118 139
110 122 144
111 125 145
108 121 141
111 124 145
111 124 145
109 123 144
111 125 145
111 126 147
109 123 144
109 123 144
108 122 142
116 130 152
112 126 147
110 124 144
110 124 145
112 125 146
108 122 142
108 122 142
108 122 142
106 120 139
109 122 143
108 122 142
107 121 140
104 116 135
105 119 138
105 117 136
103 117 136
119 135 157
115 131 152
115 131 152
118 134 155
115 130 151
113 129 149
118 135 156
116 132 153
116 132 153
117 133 155
118 134 156
114 129 150
115 131 152
52 70 115
29 52 107
30 54 109
29 51 105
29 52 105
26 46 95
74 53 67
90 55 37
88 54 36
88 53 36
91 57 38
89 55 37
87 53 36
89 55 37
84 52 35
89 55 37
84 52 35
85 52 35
82 51 34
84 63 42
67 102 66
62 123 79
58 117 75
60 122 78
59 119 76
62 125 80
61 123 79
59 120 77
58 118 76
60 121 78
58 117 76
68 118 88
96 121 127
108 124 143
108 123 143
114 130 151
113 129 149
111 126 147
115 130 151
114 130 151
108 122 142
113 128 148
111 126 147
115 131 152
103 105 127
76 6 58
77 6 58
79 7 59
82 7 62
84 7 63
85 7 64
80 7 60
86 7 64
84 7 64
80 7 60
76 6 56
75 6 56
73 6 55
92 86 107
112 126 147
111 126 146
114 129 149
111 125 145
113 127 148
107 121 141
115 130 151
111 126 146
110 124 144
113 128 148
111 125 145
112 127 147
111 126 146
112 126 146
113 128 148
111 125 144
113 128 148
111 125 144
112 126 146
111 125 144
111 124 143
107 121 139
110 123 142
106 120 139
108 121 139
106 120 139
100 113 131
101 113 131
101 113 130
100 112 128
87 90 95
82 72 59
79 67 52
78 67 53
84 74 59
80 67 53
80 68 54
76 64 50
67 56 45
121 96 110
159 122 145
177 139 164
181 143 170
182 143 171
182 143 172
180 144 174
179 141 171
181 143 174
177 144 174
180 144 175
183 147 177
180 143 172
161 126 147
124 94 104
81 52 47
66 42 40
83 89 100
81 90 102
81 89 97
70 72 29
70 75 18
70 75 18
71 78 18
72 78 18
71 77 18
69 75 18
71 78 18
71 77 18
72 78 18
69 76 18
70 76 18
69 75 18
67 73 17
66 72 17
64 70 16
55 56 30
46 41 39
47 42 39
52 48 46
51 47 44
52 47 45
53 48 45
52 48 45
54 49 46
57 52 50
51 46 43
55 51 49
52 48 45
54 50 48
54 50 47
51 48 46
50 47 45
51 47 45
50 46 44
53 49 46
52 48 45
50 45 42
53 49 46
53 48 45
48 43 40
47 44 42
57 56 60
62 65 71
69 74 82
66 70 77
68 72 79
63 67 75
71 76 85
70 75 85
70 76 85
72 78 89
72 76 87
74 80 91
78 85 98
72 81 93
36 65 71
41 76 82
46 84 92
50 86 95
53 96 107
61 104 116
59 103 116
57 103 116
63 107 121
66 111 125
66 110 124
63 107 121
64 108 123
63 104 118
61 99 112
72 40 48
81 35 45
91 82 99
99 105 128
98 106 127
103 112 133
103 112 135
108 118 141
107 118 139
106 117 138
110 123 144
108 121 142
109 120 142
110 123 143
111 124 145
109 122 143
112 127 147
111 125 146
113 127 149
111 126 147
111 125 145
111 126 147
111 125 145
114 129 150
111 125 146
106 120 140
113 128 149
110 125 145
110 125 144
111 125 146
106 120 140
107 121 141
109 123 143
108 123 143
110 125 146
105 119 138
107 121 141
105 118 138
114 130 151
117 132 153
116 132 153
116 133 154
116 132 154
116 133 154
116 132 153
117 134 155
118 134 155
116 131 152
116 132 152
114 130 151
117 133 154
84 99 129
27 48 100
30 53 108
27 48 99
29 52 106
26 47 96
76 51 57
90 55 37
89 55 37
86 52 36
87 53 36
91 56 38
85 52 35
84 52 35
85 52 35
82 51 34
83 51 34
82 51 34
79 61 40
65 104 66
57 116 75
60 121 78
60 121 78
60 120 77
59 120 77
60 122 78
58 118 75
59 120 77
59 119 76
60 121 78
58 118 75
56 114 73
60 114 78
99 124 131
112 127 148
115 131 152
110 125 145
116 132 153
107 122 142
112 128 148
112 127 148
114 129 150
110 124 145
110 124 144
112 126 147
87 81 102
73 6 56
75 6 57
73 6 55
73 6 54
77 6 58
77 6 57
77 6 58
74 6 55
75 6 56
71 6 53
70 6 52
79 59 81
109 123 143
109 123 143
109 123 143
111 125 145
109 122 142
110 124 143
108 122 141
111 125 144
110 124 144
112 126 145
112 127 147
112 126 146
111 126 146
113 128 148
112 126 146
112 127 147
111 126 145
109 123 142
111 126 145
112 127 146
111 126 146
107 121 140
110 124 143
110 124 143
104 116 134
106 119 137
104 116 134
103 115 132
99 110 126
95 105 120
89 97 110
81 88 99
77 81 89
67 63 59
67 57 47
71 60 49
65 54 43
60 50 40
53 46 41
62 61 64
124 97 114
156 119 141
165 129 152
181 143 168
182 144 170
185 143 171
185 147 175
185 147 176
187 147 176
186 147 175
185 146 175
187 147 175
185 146 173
168 132 154
122 88 97
78 49 37
66 35 29
76 78 88
84 92 104
75 80 80
66 68 16
70 75 18
71 76 18
71 77 18
69 75 18
70 76 18
73 80 19
70 77 18
72 79 19
70 77 18
71 78 18
68 74 17
69 75 18
67 72 17
67 73 17
67 73 17
57 60 24
47 41 38
45 40 37
47 43 40
48 44 41
45 40 37
46 42 39
47 43 40
47 42 40
47 43 41
46 41 38
46 41 38
47 43 40
47 42 39
49 44 42
47 42 38
48 43 39
52 47 44
51 46 43
49 43 39
49 42 39
47 42 38
46 40 36
48 46 46
56 57 62
61 64 71
71 76 84
69 75 83
72 76 85
66 71 79
73 78 88
73 78 87
72 77 86
76 84 94
71 77 86
80 88 100
83 91 103
76 82 93
74 80 91
77 83 94
55 73 81
41 74 81
43 81 89
49 90 100
50 91 102
57 100 112
59 103 116
57 102 115
59 103 117
59 103 116
60 103 117
62 107 121
59 102 115
61 101 115
58 80 92
71 60 72
80 82 97
87 90 106
94 99 118
95 102 119
101 111 131
101 109 129
106 116 137
103 113 133
110 124 145
109 121 142
107 120 140
110 124 146
111 125 145
108 122 141
111 124 144
110 123 143
111 125 145
113 127 148
109 123 143
113 128 148
110 125 145
110 125 146
110 125 146
115 130 152
115 130 150
113 128 149
110 124 145
114 128 149
112 126 147
111 126 146
110 124 145
111 126 146
108 123 142
111 125 146
110 124 145
107 121 141
103 117 137
116 131 152
117 132 153
116 132 153
114 129 150
113 129 149
116 132 153
117 133 154
115 131 151
115 131 152
115 131 152
114 130 150
117 133 154
115 131 152
112 128 151
36 54 100
27 48 99
26 46 95
26 47 96
25 43 89
75 49 49
82 50 34
86 53 36
84 52 35
87 53 36
84 51 34
82 51 34
82 50 34
86 53 35
80 49 33
81 50 33
77 50 33
68 98 63
59 119 76
59 119 76
60 121 77
59 118 75
60 121 78
59 119 77
59 119 76
57 115 74
58 118 75
60 122 78
56 114 73
57 116 74
56 112 71
56 112 71
67 115 87
105 123 138
109 124 144
111 126 146
111 126 146
112 127 148
110 125 145
114 128 149
111 125 145
110 125 145
108 121 141
108 121 141
109 122 142
81 73 93
65 9 49
67 6 51
71 6 54
70 6 52
64 5 48
68 6 51
70 6 52
66 5 48
65 5 48
74 60 79
98 108 126
106 118 137
105 118 137
104 117 136
106 118 137
109 122 142
105 118 136
105 118 137
108 122 141
111 124 144
112 126 146
110 125 146
113 128 148
113 127 147
111 125 144
112 126 146
112 127 147
112 126 145
110 124 144
113 127 147
110 124 143
107 121 139
110 124 143
108 122 141
107 120 139
105 118 135
110 124 142
101 113 130
105 117 134
95 106 121
97 107 121
92 100 111
85 92 103
78 83 91
66 68 73
59 59 64
53 52 56
53 54 59
54 54 58
54 54 59
67 66 72
130 100 119
146 112 133
158 122 143
161 124 145
176 136 159
183 144 169
181 140 165
183 142 167
186 145 171
185 143 168
184 143 169
182 143 168
177 137 161
156 119 137
118 87 97
76 44 31
67 36 27
74 74 83
87 95 107
71 76 69
64 66 15
67 71 17
67 73 17
69 74 17
67 73 17
71 77 18
66 71 17
69 75 18
69 76 18
68 74 17
67 73 17
69 75 18
68 74 17
68 74 17
67 73 17
64 70 16
64 68 19
48 42 36
43 36 31
43 38 35
43 37 34
43 37 33
45 39 35
46 41 38
47 42 38
45 40 37
49 43 40
46 40 37
48 42 38
44 38 34
48 42 39
47 40 36
47 41 36
46 40 36
43 38 35
44 38 35
40 36 35
47 45 46
53 55 59
57 60 65
61 64 70
61 65 72
66 73 80
68 73 80
63 67 74
67 72 81
71 77 86
72 79 88
74 81 90
76 83 93
77 84 94
71 77 87
78 85 95
76 83 94
77 86 97
77 84 95
71 80 89
45 76 84
40 77 84
41 80 88
47 89 98
48 91 102
50 90 101
55 99 111
54 96 108
54 98 110
57 99 111
59 101 114
57 98 112
56 90 102
61 64 73
66 65 75
77 80 92
84 88 101
86 90 104
94 101 118
99 105 123
95 103 120
106 117 136
104 114 133
106 118 137
109 121 141
111 124 145
113 126 147
108 121 141
114 127 148
110 124 143
112 126 146
110 124 144
112 127 147
114 128 148
111 125 145
113 127 148
113 128 148
112 126 146
110 123 143
114 129 149
115 130 151
115 130 151
112 126 146
113 128 149
112 127 148
111 126 147
111 125 146
111 125 146
113 128 148
110 124 144
111 126 146
114 129 150
118 134 156
117 133 154
116 132 153
114 130 150
116 131 152
116 132 153
116 132 153
113 129 149
116 132 153
113 128 149
113 129 149
115 131 152
112 128 148
111 126 147
92 107 133
29 48 94
24 43 89
24 42 87
26 46 93
68 48 58
78 47 32
85 52 35
84 51 34
81 49 33
81 50 33
83 51 34
82 50 34
77 47 32
76 47 31
78 48 32
72 73 47
58 115 73
58 117 75
58 117 74
61 122 78
57 114 73
58 118 75
60 121 77
59 118 76
58 116 74
58 116 74
57 116 74
58 117 75
57 115 73
56 113 72
57 114 73
55 110 70
78 113 103
109 124 144
112 127 147
110 125 146
113 128 149
110 125 145
108 122 143
108 122 142
104 116 135
105 118 137
103 115 134
100 110 129
96 105 123
77 78 94
62 40 60
56 8 42
59 5 43
61 5 45
65 5 47
54 4 40
58 30 50
69 65 79
87 94 109
88 95 111
89 98 115
94 103 120
99 111 129
101 113 131
104 115 134
105 118 137
107 120 140
105 119 138
107 120 140
108 121 141
109 123 142
111 124 144
111 126 145
110 123 143
111 126 146
111 124 143
112 126 146
113 128 148
109 123 142
112 126 146
110 125 144
106 120 138
105 118 136
107 120 139
108 121 139
107 119 136
104 116 134
104 117 134
101 112 128
100 110 126
98 108 123
93 103 116
95 104 117
91 98 110
85 92 103
86 93 104
82 89 100
84 92 103
80 87 97
85 87 98
117 90 107
130 98 116
141 111 129
152 117 136
159 122 143
168 131 153
167 128 151
169 130 153
172 132 155
170 130 153
166 127 149
169 130 152
160 123 144
148 111 129
99 65 67
68 37 25
63 33 26
72 69 77
83 90 100
67 69 60
61 63 15
67 71 17
67 71 17
69 75 18
67 73 17
69 75 18
68 74 17
70 76 18
70 76 18
68 74 17
68 74 17
69 75 18
67 72 17
66 72 17
63 69 16
62 67 16
60 64 15
38 36 29
35 29 26
38 30 26
38 31 28
41 34 30
41 33 29
42 34 29
43 35 30
41 33 29
42 34 30
44 37 33
44 38 34
42 35 31
38 30 27
37 31 29
37 32 31
39 36 37
44 43 44
47 49 52
50 52 55
49 51 55
52 54 58
54 56 60
60 63 68
59 63 68
61 65 71
63 67 74
65 71 77
71 76 84
68 73 81
70 77 86
72 79 88
70 76 85
73 80 89
69 75 84
72 80 89
71 80 89
75 85 96
75 85 96
74 85 95
70 79 88
42 70 76
38 74 82
41 84 93
45 86 96
50 91 102
47 88 98
51 95 106
47 89 99
54 96 108
51 91 102
55 88 100
76 86 99
84 90 103
85 92 106
90 98 114
92 100 115
99 109 126
97 106 123
97 105 122
102 112 129
103 115 133
106 119 138
104 116 134
109 121 141
108 121 140
111 124 144
111 125 144
111 125 145
110 123 143
110 124 144
113 127 147
112 127 147
110 125 144
112 127 147
112 127 147
113 128 148
113 128 148
113 128 149
113 128 148
111 125 145
114 129 149
113 128 149
112 127 147
112 127 147
112 127 147
112 127 147
115 131 152
111 126 146
116 132 153
112 128 148
114 129 150
114 130 151
118 134 155
116 132 153
114 130 151
114 130 152
114 129 150
114 130 151
112 128 149
115 131 152
113 128 149
113 128 150
114 130 150
114 129 150
109 124 145
110 125 146
86 100 124
26 43 85
24 42 87
22 39 80
51 41 63
80 49 33
81 49 33
77 47 32
75 45 30
75 46 31
79 48 32
77 47 31
77 47 32
76 46 31
73 48 32
61 98 62
57 116 74
57 115 72
58 118 75
57 116 74
59 118 76
58 118 75
58 117 74
56 114 72
57 115 73
58 116 73
57 115 73
57 115 73
55 112 71
55 110 70
54 109 69
55 111 71
61 107 78
102 120 134
110 124 145
111 125 146
109 123 143
107 120 139
106 119 139
105 118 138
100 110 129
98 108 126
91 99 115
92 101 116
86 93 108
73 76 89
67 70 81
51 51 60
47 39 48
39 29 37
46 37 46
45 41 48
52 51 59
69 72 82
74 77 89
83 90 104
86 92 107
95 104 121
95 104 122
102 114 132
103 114 132
106 119 139
103 116 135
108 121 141
106 119 138
111 124 144
106 119 138
110 124 144
110 123 143
108 121 140
109 124 144
110 124 143
111 125 144
109 123 142
110 124 143
111 125 144
111 126 145
111 125 145
113 128 147
111 125 144
108 122 141
110 123 141
109 122 141
105 118 135
104 116 133
105 118 135
103 115 131
100 110 126
106 118 134
101 112 129
100 111 126
98 108 122
95 105 120
99 109 124
95 105 119
94 102 116
107 83 100
110 81 98
122 93 111
130 101 119
137 105 124
151 116 137
152 117 137
148 111 132
154 118 139
145 110 131
149 111 131
145 110 130
149 113 133
127 94 108
91 61 64
68 35 26
57 32 31
78 81 91
86 93 104
69 71 63
63 66 15
64 67 16
64 69 16
66 72 17
66 71 17
65 71 17
64 70 16
64 70 16
67 73 17
69 75 18
64 70 16
65 70 16
66 72 17
64 70 16
63 69 16
62 67 16
61 65 16
39 38 37
44 43 45
40 38 39
39 37 38
36 34 33
33 31 31
34 31 30
34 31 30
33 31 30
33 30 29
37 35 34
36 34 34
38 37 37
35 34 35
36 35 35
41 41 43
44 43 45
42 42 44
53 55 58
55 56 60
56 58 62
55 58 63
57 61 66
63 67 73
64 68 74
68 74 80
61 65 70
69 75 83
66 72 79
70 76 84
67 73 80
66 73 81
69 77 85
74 82 91
70 78 86
67 77 85
67 76 84
68 76 84
64 76 84
62 73 80
62 75 83
60 71 79
43 63 70
34 66 73
36 76 83
39 79 88
41 82 91
45 86 96
44 82 92
46 83 93
63 84 95
86 99 113
91 104 119
90 101 116
93 105 121
92 105 121
98 111 128
101 115 133
103 116 134
101 112 130
105 119 137
105 118 137
104 116 134
108 121 139
107 120 139
106 119 138
108 121 140
110 123 142
110 125 144
109 123 143
113 128 148
108 121 141
111 125 145
111 125 144
112 126 146
112 126 145
113 127 147
113 128 148
111 125 144
112 127 147
113 128 148
116 131 151
113 128 148
115 130 151
115 130 150
114 130 150
114 128 148
115 130 150
113 128 147
111 126 147
118 133 154
113 127 148
113 128 148
112 126 146
114 130 150
111 127 147
114 130 151
109 124 144
111 127 147
111 126 146
112 127 148
110 125 145
111 126 147
110 125 146
110 126 146
108 123 144
109 123 144
104 119 138
90 103 124
47 60 91
21 38 79
28 37 73
73 45 36
76 46 31
75 46 31
74 45 30
74 45 30
72 44 29
70 43 28
75 46 31
69 42 28
70 60 39
57 108 68
57 114 72
56 113 72
58 116 74
56 112 71
56 113 72
56 114 72
57 115 73
57 116 74
55 110 69
55 111 70
56 112 71
54 110 70
55 110 70
55 111 70
53 107 67
55 110 70
52 103 66
94 118 123
110 124 145
108 122 143
108 122 142
110 124 144
106 119 138
103 116 135
100 110 128
101 112 131
96 106 123
93 102 119
89 98 114
82 89 103
80 86 100
80 84 98
70 73 85
74 79 91
76 81 94
78 84 98
80 86 100
89 96 111
89 96 112
92 102 119
99 110 128
100 111 129
100 111 128
101 112 130
106 118 138
109 123 142
107 120 139
108 121 140
108 121 141
109 123 142
108 122 142
114 129 149
110 124 143
110 123 143
110 124 143
110 124 144
108 122 142
111 125 145
113 127 147
109 123 142
112 126 146
112 126 145
108 121 139
108 122 140
108 120 139
107 120 138
107 120 138
107 120 137
107 121 139
108 122 140
107 120 138
107 119 136
106 118 136
104 116 133
99 111 127
104 117 134
100 112 128
102 114 130
105 117 134
106 117 134
95 82 98
105 78 96
111 81 98
114 86 104
119 92 111
124 92 111
126 92 111
128 95 115
126 95 115
129 96 115
124 88 107
122 91 109
119 85 102
105 74 87
82 51 55
64 36 34
62 39 40
84 90 102
89 96 108
74 79 78
59 61 14
60 63 15
61 66 15
62 67 16
63 68 16
63 68 16
63 68 16
63 68 16
65 70 16
63 68 16
63 68 16
64 69 16
60 65 15
63 69 16
64 69 16
62 67 16
57 62 24
52 52 53
52 52 54
47 46 48
45 45 46
49 48 50
44 43 43
42 41 41
45 44 45
46 45 46
46 46 47
49 49 51
47 46 48
47 47 48
52 52 55
47 47 49
49 51 54
59 60 63
51 52 54
57 60 64
58 60 65
57 59 64
61 64 70
66 70 76
63 68 73
66 70 77
66 71 78
65 69 75
72 78 86
72 78 86
71 77 84
72 79 87
76 84 93
73 81 89
71 80 88
73 81 89
65 73 80
67 76 83
69 80 88
63 76 84
63 76 84
55 67 74
54 70 77
46 64 71
45 62 68
36 56 62
34 60 66
35 63 70
38 65 71
48 69 77
71 89 101
75 91 103
82 98 112
88 105 119
90 106 122
96 112 128
102 118 136
98 113 130
100 114 131
103 118 136
104 119 137
107 122 140
106 120 138
105 119 138
107 121 140
107 121 139
107 120 139
107 121 140
110 124 144
113 128 147
108 121 140
112 126 146
112 126 146
109 123 142
112 127 147
114 128 149
109 124 144
113 128 148
114 128 148
111 125 145
112 127 148
112 126 146
115 130 151
112 127 147
116 131 152
112 126 147
115 130 150
111 126 145
111 126 146
112 127 147
115 131 151
115 131 152
115 130 150
113 129 150
112 127 148
113 128 149
113 129 151
112 128 149
113 129 150
111 126 146
108 123 143
109 124 145
108 123 144
107 121 142
107 122 142
103 118 138
98 112 132
101 115 134
92 104 121
83 94 111
84 95 112
65 74 91
46 53 74
59 45 48
72 43 29
74 45 30
75 46 31
71 43 29
69 42 28
72 44 30
66 40 27
69 42 28
61 65 41
57 114 72
55 110 70
54 109 69
57 115 73
57 115 73
57 114 72
57 114 73
56 113 72
55 111 70
56 112 71
56 112 71
52 106 67
56 113 72
55 110 70
54 109 69
54 108 69
52 105 67
53 106 67
86 115 113
108 123 143
107 122 142
107 121 142
106 120 139
106 120 140
105 118 137
107 120 139
104 116 136
103 115 134
101 113 132
101 113 131
97 107 126
100 110 128
98 108 126
98 109 127
100 110 128
103 115 134
95 105 123
98 109 127
102 113 132
101 111 130
103 115 134
105 117 136
106 119 137
109 122 142
109 123 143
109 123 143
111 125 145
112 126 146
112 125 145
109 123 143
110 123 143
109 124 143
109 124 143
110 125 145
115 130 150
112 127 147
112 127 147
112 126 146
114 129 149
111 125 144
109 123 142
110 123 142
107 120 138
111 125 145
109 122 140
108 122 140
107 121 140
108 121 140
110 124 143
105 118 135
108 121 140
108 121 139
111 125 143
103 115 132
104 117 133
105 117 134
104 117 134
106 119 137
104 116 133
106 118 135
103 115 132
101 103 120
102 78 95
108 80 98
111 82 101
117 85 103
112 83 101
116 86 105
110 83 101
112 81 99
115 84 103
112 79 97
111 82 100
108 78 95
97 69 82
80 51 57
66 37 40
76 66 75
89 96 107
87 94 106
83 89 97
52 53 22
58 61 14
57 61 14
61 65 15
59 63 15
61 66 16
62 67 16
61 66 15
62 67 16
61 66 15
61 66 15
62 67 16
61 66 15
61 66 15
59 64 15
60 65 15
58 61 45
63 65 69
61 62 67
61 64 69
60 62 67
59 61 65
63 65 70
57 58 62
59 61 65
58 59 63
58 60 63
59 61 65
56 57 61
57 59 62
59 61 65
61 63 68
60 62 67
61 63 67
60 63 67
68 71 76
66 70 75
65 68 73
70 74 80
73 78 85
69 73 79
70 76 82
74 81 89
76 83 91
76 83 92
75 82 90
77 85 94
79 87 97
74 81 89
79 87 96
75 83 92
78 88 98
77 87 97
75 85 94
74 85 94
74 86 96
74 87 96
67 81 90
70 86 96
67 85 94
67 84 94
61 80 89
62 82 91
60 81 90
71 92 104
75 95 107
74 94 107
77 99 112
82 100 114
91 109 125
97 114 131
100 118 136
103 121 139
103 119 137
105 122 141
105 120 139
105 120 138
107 122 141
106 119 137
109 124 143
108 123 142
112 127 145
107 120 138
107 121 140
110 124 143
108 122 142
111 125 144
110 125 144
113 128 148
111 126 146
108 122 141
112 126 146
113 128 148
115 130 150
113 128 148
113 128 147
114 129 149
114 130 150
113 129 149
113 127 147
112 128 147
113 128 148
113 128 148
113 128 148
114 129 150
114 129 149
112 128 148
116 132 152
115 131 151
111 127 147
111 126 146
112 128 149
110 126 146
111 126 147
113 128 150
112 128 148
111 126 147
105 120 140
105 119 139
103 117 137
103 118 138
96 110 129
98 111 130
91 103 122
85 96 113
80 91 108
69 77 91
66 73 85
57 63 75
52 56 65
61 45 42
68 41 28
69 42 28
69 42 28
69 42 28
67 41 27
64 39 26
67 41 27
59 64 41
54 108 68
54 108 69
55 110 70
54 108 68
54 109 69
55 110 70
57 115 73
57 115 73
53 107 67
54 109 68
56 113 72
54 108 68
55 110 69
56 112 71
53 105 66
53 105 67
52 104 66
50 100 63
80 110 104
108 123 143
108 123 143
108 122 142
112 127 148
108 123 142
108 122 142
110 124 145
107 121 140
103 116 136
109 122 142
110 123 143
109 123 143
108 121 141
104 117 137
108 121 141
108 122 142
107 120 140
110 124 144
110 123 144
113 127 148
110 125 145
111 125 144
110 124 145
108 122 142
108 122 141
108 122 141
111 126 146
111 125 145
113 128 149
114 129 150
114 128 148
113 127 147
113 127 147
112 126 147
114 129 149
113 128 148
112 127 146
113 127 146
112 126 145
110 124 143
111 125 145
111 125 144
109 123 141
110 124 143
110 123 143
112 127 147
111 124 143
110 123 141
110 124 144
110 123 142
112 126 145
112 126 144
108 121 139
109 122 140
106 118 135
108 121 140
107 120 138
107 119 137
106 119 136
105 117 135
106 120 138
105 117 134
103 113 129
95 82 97
104 77 94
107 78 95
112 83 101
105 80 97
112 83 101
110 79 96
110 80 98
105 75 92
106 76 92
102 71 86
101 70 85
92 61 73
79 52 61
72 47 55
88 91 103
94 102 115
93 102 116
87 95 107
63 67 58
54 57 13
58 62 14
58 63 15
60 65 15
61 65 15
61 66 15
56 61 14
62 67 15
60 65 15
59 64 15
62 67 16
57 62 14
59 63 15
56 61 14
55 60 17
71 76 79
71 75 82
73 77 84
69 73 80
74 78 85
69 73 80
71 75 82
71 74 80
66 69 75
69 73 79
69 72 78
66 69 74
68 72 78
71 76 82
69 72 78
75 79 86
68 73 78
72 76 83
73 78 85
70 75 82
78 84 93
72 78 85
80 85 94
79 85 94
80 86 95
78 85 93
78 85 94
84 91 101
86 94 105
82 90 100
84 92 101
87 96 107
84 94 104
85 94 105
87 96 108
88 98 110
85 95 107
89 101 112
86 97 108
86 98 110
81 94 106
85 98 111
87 101 114
86 101 113
85 100 113
86 101 114
85 101 115
90 108 122
92 108 123
93 111 127
90 106 121
92 109 124
97 113 129
102 120 137
100 116 132
104 121 139
104 121 139
103 120 138
106 122 140
106 122 140
108 123 142
107 122 140
107 121 140
111 127 146
107 122 141
109 124 143
109 122 141
110 125 144
111 125 144
110 124 142
107 122 140
113 128 148
112 128 147
113 128 148
114 128 148
111 125 144
116 131 152
114 130 151
113 128 148
113 128 148
113 128 148
115 130 150
113 127 147
111 125 145
116 131 152
114 129 150
113 128 148
114 130 150
114 129 149
115 130 151
115 131 151
114 129 149
113 128 148
111 126 146
111 126 146
112 127 147
112 128 149
110 125 145
107 122 141
110 126 147
107 121 141
106 121 142
108 122 143
105 119 140
101 116 135
99 112 132
94 107 124
94 107 126
91 103 122
86 97 114
84 95 111
83 93 109
77 86 102
71 80 94
73 80 94
72 61 65
66 41 28
61 36 25
62 38 25
59 36 24
62 38 25
58 35 23
59 73 47
53 106 67
52 104 66
50 102 64
55 109 69
51 104 65
52 105 66
55 110 70
53 107 68
55 111 70
53 107 67
52 104 66
52 105 66
55 109 69
52 104 65
53 107 68
49 99 62
50 99 63
49 97 62
86 111 112
110 125 145
110 125 146
111 126 146
109 124 144
109 123 143
110 124 145
109 124 144
112 128 148
108 123 142
112 126 146
110 125 145
111 126 146
108 123 143
111 126 146
111 126 146
111 125 146
111 125 145
112 128 148
109 123 142
111 126 146
113 127 147
114 129 149
113 128 149
113 127 148
112 126 146
113 128 148
116 131 152
115 130 150
114 128 149
113 128 148
112 127 147
113 127 146
112 127 147
115 130 150
113 128 148
115 130 151
112 126 145
111 126 145
112 126 146
111 125 145
114 129 150
111 125 144
113 127 147
115 129 149
110 124 143
114 128 148
108 122 141
107 120 139
111 125 144
108 121 139
108 121 140
110 123 142
107 119 137
108 120 139
108 121 139
112 125 144
108 121 139
105 117 134
108 120 138
104 116 133
104 115 132
101 113 130
104 115 132
99 105 122
97 72 88
101 74 90
108 78 95
106 74 91
104 73 89
104 73 89
104 73 89
104 71 88
101 72 88
101 71 87
95 65 80
88 56 68
75 45 54
81 75 86
95 103 117
90 97 110
91 98 110
89 97 110
81 88 95
51 54 26
53 56 13
54 58 13
57 61 14
57 61 14
57 61 14
58 63 15
55 60 14
58 63 15
62 67 16
58 63 15
59 64 15
56 60 14
51 55 13
64 69 61
73 78 85
76 82 92
79 85 93
74 79 87
77 82 90
76 82 90
78 83 92
76 81 89
82 88 97
73 78 85
74 80 88
75 81 89
81 87 96
79 85 93
83 89 98
82 88 97
80 86 95
83 89 98
84 91 101
82 89 99
82 88 98
89 97 108
84 91 101
84 90 100
84 91 101
87 95 106
86 95 105
87 96 107
92 101 113
90 100 111
88 97 109
88 98 109
90 100 112
91 101 114
92 102 115
90 100 113
89 99 112
95 107 121
94 105 118
95 107 120
91 103 116
97 109 124
96 109 124
95 108 122
99 112 127
97 111 126
94 109 124
100 114 129
101 115 130
100 115 131
104 119 135
97 112 128
101 116 133
100 115 132
102 117 134
105 119 137
103 118 135
106 122 140
108 123 142
108 122 140
111 126 145
108 124 143
110 126 145
108 123 142
111 127 146
114 129 149
109 123 142
108 123 142
112 127 146
114 130 149
111 127 146
108 122 141
108 122 140
114 129 149
112 127 147
114 129 149
113 128 148
113 128 148
116 131 151
114 129 149
113 128 148
113 129 149
113 129 149
117 132 152
114 130 150
111 126 145
115 130 151
115 130 151
119 136 157
115 130 150
116 132 153
116 131 151
115 130 150
112 128 149
110 125 145
110 125 145
114 129 150
111 127 148
107 122 143
109 125 145
108 123 143
108 123 143
107 122 143
105 119 139
104 119 139
104 118 138
99 113 133
101 115 134
99 112 132
95 108 126
95 107 125
94 106 124
91 103 120
89 100 117
92 104 120
83 92 107
74 76 87
62 47 45
56 34 23
55 33 22
55 33 22
54 33 22
52 59 37
51 101 64
52 105 67
53 105 66
54 107 68
52 105 66
51 102 64
53 106 66
52 104 65
53 106 67
53 106 67
51 104 66
53 107 68
52 104 66
52 104 65
50 100 63
51 101 64
50 100 63
47 93 58
89 113 117
110 125 145
111 125 145
112 127 148
110 125 146
109 123 143
111 126 147
109 124 143
113 128 148
113 129 149
112 127 147
114 130 151
113 128 148
112 127 147
115 130 151
113 128 148
116 132 154
114 129 150
112 126 147
111 125 145
110 125 145
113 128 149
110 125 145
114 129 150
114 129 149
113 127 147
112 126 146
116 132 153
115 130 151
112 127 147
114 129 150
114 129 149
113 128 148
112 126 145
114 128 148
115 129 150
113 128 147
114 128 148
111 126 146
112 125 145
113 128 147
111 125 145
111 125 144
114 128 148
112 125 145
113 127 146
111 125 144
115 130 150
113 127 147
110 123 142
110 124 143
110 123 141
108 122 141
111 124 143
110 123 142
110 124 143
109 120 139
105 117 136
103 114 131
109 120 139
103 114 131
105 115 133
100 110 126
99 107 124
102 111 128
100 99 115
95 68 82
98 68 83
101 69 85
103 71 87
101 69 85
99 68 83
101 70 85
94 62 76
91 59 72
87 54 66
78 49 59
78 68 78
89 93 105
88 92 104
89 94 107
87 94 106
89 96 108
87 93 106
73 77 79
48 50 18
50 53 12
53 56 13
54 58 14
55 60 14
54 58 13
55 59 14
52 56 13
52 56 13
54 59 14
55 60 14
52 56 13
60 65 47
80 87 96
83 90 100
86 93 104
82 89 99
81 88 98
82 89 100
79 85 94
83 91 101
82 89 99
88 96 107
85 93 103
87 95 107
85 92 103
83 91 101
82 89 100
89 97 108
83 91 100
87 94 105
86 93 103
88 95 106
87 95 106
88 96 106
86 94 105
85 92 102
89 97 108
95 105 118
88 96 107
90 98 110
88 97 109
93 101 113
94 104 117
88 97 109
93 104 117
96 107 122
92 102 115
93 104 117
96 108 122
101 113 129
95 106 120
95 106 120
96 108 123
97 108 123
101 113 128
104 117 133
99 111 126
100 113 128
102 116 132
97 110 125
103 116 133
102 115 131
104 117 134
105 119 136
104 119 136
104 118 136
107 121 138
103 117 134
108 122 141
106 120 137
110 124 143
105 120 137
110 124 143
109 123 141
111 126 145
111 126 145
111 125 144
110 125 143
110 125 144
111 127 146
112 127 146
113 128 147
114 129 148
110 124 142
111 126 145
111 125 145
111 125 144
113 127 147
115 130 150
110 125 144
111 125 144
113 128 148
115 130 150
111 125 144
117 132 152
110 125 144
112 127 147
114 129 149
114 129 150
112 127 146
117 132 153
115 131 151
117 133 154
117 133 154
116 132 152
116 132 153
113 128 149
111 126 147
114 129 149
113 129 150
112 128 149
111 126 146
108 123 143
111 127 148
108 122 141
109 124 145
106 120 140
110 125 146
107 122 142
102 116 134
101 115 134
101 114 134
99 112 131
97 110 127
95 106 123
94 105 122
92 103 119
85 94 109
83 91 104
79 87 100
67 71 81
61 62 69
50 44 47
47 39 39
44 35 34
45 52 43
46 91 58
49 99 62
50 99 62
52 104 66
52 103 65
53 105 67
52 103 66
51 102 64
50 102 64
51 103 65
52 104 65
52 104 65
50 101 64
49 98 62
49 99 62
50 99 62
47 93 58
49 91 62
103 122 136
113 128 148
113 128 148
113 129 149
112 128 148
112 126 146
114 129 150
112 128 148
114 129 149
115 131 152
112 127 147
111 125 145
113 129 149
113 128 148
116 131 152
114 129 149
112 128 148
114 129 149
113 129 149
114 129 150
114 130 150
114 129 149
112 127 148
114 129 149
114 129 150
113 129 149
116 131 151
115 131 151
115 130 150
116 131 152
117 133 154
115 130 150
112 127 147
113 128 148
112 127 146
113 128 147
112 127 146
110 124 143
114 129 149
113 127 147
112 127 148
111 126 145
114 128 148
112 127 147
112 127 146
112 127 147
112 126 145
111 125 144
113 128 147
110 123 142
113 127 147
109 122 141
111 124 144
110 123 142
109 122 141
111 123 142
110 123 141
111 122 141
108 120 139
108 118 137
108 118 136
103 112 129
106 113 131
102 109 126
101 106 122
99 103 118
90 90 104
87 71 84
90 60 72
92 59 71
92 59 72
91 59 71
96 61 74
87 52 63
82 48 58
77 47 56
69 59 66
83 79 89
84 85 95
80 82 91
81 84 94
78 81 91
81 84 96
78 83 93
76 79 88
67 71 73
48 51 23
52 56 13
50 54 13
48 51 12
51 55 13
46 50 11
50 53 12
49 53 12
49 53 12
48 52 14
57 62 55
76 82 90
84 91 102
77 83 92
86 94 105
78 85 95
85 93 103
87 95 106
85 93 104
89 98 110
88 96 108
86 95 106
91 100 113
90 99 111
93 102 115
91 99 111
95 105 118
87 95 106
93 103 116
94 103 116
91 99 112
92 101 113
92 101 113
95 104 117
94 104 117
95 105 118
96 106 120
96 105 119
94 103 115
95 106 120
92 102 115
97 108 122
96 106 120
97 108 123
96 107 121
98 109 124
99 111 126
99 110 124
100 111 126
97 107 122
100 112 126
101 113 128
103 115 131
104 117 133
103 116 132
105 118 134
101 114 130
101 113 129
104 117 134
106 119 136
103 116 132
101 113 129
106 120 137
106 120 138
108 121 139
108 122 140
110 125 143
108 123 141
107 121 139
106 120 138
109 123 141
111 125 144
108 123 142
112 126 145
109 123 142
111 125 144
113 127 146
110 125 143
109 124 143
110 125 144
109 123 142
114 129 148
112 126 145
112 127 146
111 125 145
113 128 148
117 132 152
113 128 148
110 125 145
113 128 148
114 128 148
115 131 151
113 127 147
117 132 152
114 129 149
115 130 150
113 128 148
113 128 148
113 128 148
117 132 152
113 128 148
117 133 153
117 133 154
117 133 153
117 133 153
118 134 155
114 130 150
115 130 149
111 126 147
114 129 150
115 130 151
112 127 147
114 129 150
111 127 147
111 127 147
110 124 144
108 123 143
109 124 144
110 125 145
109 124 144
106 120 140
106 120 139
101 113 131
99 112 130
97 109 126
93 105 121
88 98 113
84 92 106
84 92 105
79 87 99
68 73 82
66 70 79
58 61 68
58 61 67
55 58 65
57 61 68
51 86 62
47 94 59
49 97 61
50 101 63
49 98 62
51 102 65
50 100 63
49 98 61
49 98 61
50 100 63
48 96 61
49 98 62
50 100 63
48 96 60
49 98 62
45 90 57
46 91 58
65 96 85
109 125 144
112 128 148
112 127 147
113 128 148
110 125 145
112 127 147
113 128 149
113 128 148
111 125 144
113 129 149
115 131 152
111 127 147
112 128 148
114 130 150
112 127 147
112 127 148
114 128 148
113 129 149
109 123 142
113 129 150
115 130 151
112 127 148
116 131 152
114 129 150
111 126 146
117 132 153
113 128 149
116 131 152
115 131 152
116 131 152
112 127 147
116 131 151
113 127 147
111 126 147
114 129 149
111 125 145
110 124 143
116 130 151
114 129 150
113 127 147
117 133 154
112 127 147
112 127 146
115 130 150
112 127 147
111 125 145
111 125 144
110 124 144
115 129 149
114 128 148
114 129 149
108 121 140
113 127 146
112 126 146
110 123 142
110 121 140
108 119 138
110 121 140
110 121 140
109 119 137
109 117 136
107 114 132
105 114 132
105 110 127
100 104 121
97 99 114
95 94 108
92 89 102
83 71 82
75 55 65
69 47 56
73 46 55
70 41 49
66 42 49
64 44 50
62 48 54
70 58 65
72 64 71
75 70 78
72 70 78
77 76 85
77 79 88
73 75 83
75 78 88
69 71 79
69 70 78
63 65 70
47 48 40
44 46 16
40 44 10
45 48 11
41 45 10
45 49 11
42 46 12
44 47 27
60 65 63
71 77 84
74 80 88
71 78 86
80 87 97
87 95 106
84 91 101
85 93 104
86 94 105
87 96 108
87 95 107
91 99 111
94 104 116
96 106 119
93 103 116
92 102 115
94 103 117
99 109 124
95 104 117
98 107 121
93 102 116
95 105 119
98 108 122
99 110 124
99 110 125
100 111 125
96 106 120
98 108 122
97 108 122
100 111 126
99 109 123
96 106 120
102 114 129
102 114 129
101 112 126
103 114 130
99 110 125
102 114 129
103 116 132
102 113 129
103 115 131
104 116 132
100 112 128
102 114 130
103 116 132
106 120 137
101 113 129
104 116 132
108 121 138
106 119 136
105 118 135
108 121 139
109 123 141
106 119 136
108 122 140
106 120 137
106 120 137
107 121 138
109 123 141
110 124 142
109 123 141
109 123 141
110 125 143
110 125 144
112 127 146
111 126 144
111 126 145
112 127 146
111 126 144
111 125 144
112 127 146
111 126 145
112 128 147
113 128 147
111 126 145
114 129 148
108 122 142
114 129 148
113 128 148
115 131 152
114 129 149
114 129 149
113 128 148
115 130 150
119 135 156
114 128 148
116 131 151
115 130 151
115 131 151
115 131 151
114 129 150
113 128 148
115 131 151
117 133 153
114 130 150
118 133 154
117 132 153
116 131 153
114 130 151
114 130 151
114 130 150
112 127 148
115 130 151
113 128 149
116 132 153
111 127 147
112 127 148
110 125 145
114 130 150
108 122 142
108 122 141
108 123 142
106 121 140
108 122 141
99 112 129
101 113 131
100 113 130
94 106 122
97 108 125
90 100 115
91 101 116
93 103 118
90 99 113
89 98 112
83 92 104
87 96 109
86 95 109
84 100 107
50 92 64
47 93 59
48 96 60
48 95 60
47 94 59
49 98 62
48 96 60
49 97 61
48 97 61
47 95 60
49 97 61
46 92 58
47 95 59
45 91 57
46 92 58
46 86 58
97 115 128
109 124 144
113 129 148
111 126 146
111 126 146
112 127 147
115 131 151
114 130 151
112 127 146
114 129 150
114 130 150
111 126 146
114 131 151
111 127 147
114 130 150
114 130 151
114 129 149
112 127 148
113 129 149
111 126 146
114 131 151
114 130 150
115 131 152
113 128 149
115 131 151
112 127 147
115 131 152
113 128 149
114 129 150
114 130 150
115 130 151
116 132 152
114 128 149
112 127 147
112 127 147
116 131 151
113 128 148
114 130 150
117 132 152
116 131 151
112 128 148
114 129 149
112 126 146
116 130 150
115 130 150
113 127 146
114 128 148
114 128 147
113 126 146
114 128 148
112 125 145
112 126 146
112 126 145
110 124 143
113 127 147
115 128 148
112 125 144
112 124 144
111 122 141
109 121 140
110 121 141
107 117 136
108 116 134
104 110 127
103 108 125
103 107 124
100 102 118
96 95 110
93 86 99
87 81 93
88 77 88
79 68 78
74 60 69
78 65 74
70 56 64
74 62 71
73 64 73
76 66 75
77 74 84
74 70 79
75 74 84
77 79 89
81 85 96
79 82 92
78 81 91
75 76 86
69 71 79
58 59 64
51 52 57
47 48 51
43 45 43
38 40 34
38 41 35
40 43 38
47 51 53
56 61 65
61 67 73
69 76 83
68 75 81
78 86 96
81 89 99
86 94 105
89 99 111
87 95 107
90 100 112
92 101 113
93 103 116
96 107 122
95 105 118
94 104 118
97 108 122
97 108 123
101 112 128
99 110 126
97 107 121
97 108 122
99 110 125
100 111 126
102 114 129
100 112 127
99 110 126
101 112 127
100 111 127
100 110 125
102 113 128
102 113 128
105 118 135
101 113 128
103 115 130
102 114 130
103 115 131
103 115 131
101 113 128
105 117 133
103 115 131
103 115 132
103 116 132
107 120 137
108 121 137
105 118 135
107 120 138
106 119 136
106 119 137
106 120 137
107 120 137
109 123 141
106 120 137
111 125 144
108 121 138
109 123 141
109 124 142
110 124 143
108 122 140
109 123 141
109 124 142
110 124 142
111 126 144
110 124 143
110 125 144
113 127 147
112 126 145
109 123 142
113 127 147
112 126 145
113 128 147
112 127 146
108 123 141
113 128 147
113 127 147
110 125 144
115 130 150
115 130 150
114 129 149
112 126 145
114 129 149
113 127 147
115 130 150
114 129 149
113 128 148
115 130 150
112 127 147
115 131 151
114 129 149
114 129 149
115 131 152
113 129 149
116 132 152
117 133 154
118 134 154
117 132 153
114 129 150
115 130 150
116 131 152
116 132 154
116 132 153
115 131 152
114 129 150
116 132 153
114 130 150
115 131 151
114 129 149
113 128 148
110 126 146
112 127 147
111 126 147
112 127 147
109 123 143
112 127 147
110 124 144
107 120 139
109 124 144
106 120 139
102 114 131
104 117 135
104 117 135
105 118 136
100 113 131
103 115 132
98 110 127
101 114 131
103 116 133
101 114 131
101 115 132
100 114 131
84 108 109
44 87 56
46 92 58
44 88 55
47 94 59
45 90 56
44 89 56
45 91 57
46 93 59
45 90 56
44 88 55
45 90 56
44 88 55
42 84 53
45 88 56
80 102 104
107 123 141
108 123 142
108 123 142
110 125 145
111 127 146
109 124 144
110 126 145
111 127 146
109 124 144
109 124 144
115 131 152
112 127 146
112 128 148
116 132 153
110 126 146
115 130 150
116 132 152
113 128 149
115 131 151
114 129 149
116 132 153
114 129 148
115 131 151
111 127 147
113 128 148
115 130 151
114 130 150
115 131 152
114 129 149
116 132 153
114 129 149
115 131 151
116 131 152
115 131 151
117 133 154
114 129 149
114 129 149
115 130 151
115 131 151
114 129 149
114 129 149
115 130 151
111 126 145
115 129 150
111 126 146
115 130 150
114 128 148
111 125 145
116 130 150
110 124 143
115 130 151
113 127 146
113 127 147
115 130 150
113 126 145
114 129 149
115 129 149
112 125 144
115 127 147
111 124 143
111 122 142
110 121 141
113 123 143
111 121 141
110 117 136
110 118 137
106 112 130
104 109 126
105 109 125
102 103 119
99 98 113
96 95 110
92 91 105
93 91 105
94 94 108
95 95 110
95 95 109
94 96 110
91 93 107
89 91 104
90 94 107
93 99 113
89 95 108
86 91 104
84 89 101
82 89 101
80 88 99
78 84 94
73 78 87
63 68 75
65 71 78
57 61 67
58 64 70
63 70 77
70 78 86
66 73 81
71 79 87
77 86 96
85 95 107
86 96 107
84 93 105
89 99 111
86 96 108
92 103 116
96 106 120
96 108 122
93 104 118
99 111 126
97 108 122
97 108 123
100 111 126
101 112 127
101 112 127
100 111 127
100 112 127
103 115 130
103 114 129
100 111 126
103 115 131
104 116 133
105 117 134
104 116 132
104 117 134
106 119 136
104 117 133
104 116 132
103 115 130
106 119 136
104 116 131
105 118 134
106 119 136
106 119 135
108 121 139
110 124 142
108 121 138
107 119 136
110 123 141
108 121 139
106 119 136
105 118 135
108 120 137
106 119 137
107 121 138
110 123 141
112 127 146
110 124 142
109 123 141
107 120 137
112 127 146
109 123 141
112 126 145
108 121 140
110 124 143
111 125 144
114 129 148
110 124 142
114 128 147
112 126 145
113 128 147
112 127 146
112 126 145
114 128 148
111 125 143
110 125 144
112 127 146
111 126 145
111 125 144
113 128 147
113 127 146
111 126 145
116 132 152
117 132 152
117 132 153
115 130 149
113 128 147
115 131 151
115 130 150
115 130 150
116 131 151
114 129 149
115 130 150
116 132 153
117 133 153
115 130 149
117 133 154
116 131 151
113 128 148
116 132 152
117 132 153
118 133 154
116 132 152
116 132 153
116 132 152
114 130 151
115 130 151
112 128 148
114 129 150
114 129 149
115 131 151
115 130 151
112 128 148
115 131 152
111 126 146
108 122 141
111 126 146
113 128 149
111 126 145
111 126 146
113 128 148
105 119 138
111 125 145
111 126 146
109 124 143
110 125 145
108 123 142
108 123 141
107 121 140
105 120 138
104 119 138
103 118 136
110 125 144
109 124 143
106 120 139
105 120 138
104 120 137
79 102 104
44 87 56
43 86 54
41 82 51
44 88 55
45 91 57
45 90 57
44 88 55
42 84 53
42 85 53
42 84 52
40 81 50
40 78 51
71 96 93
99 114 130
106 121 139
108 124 144
109 124 142
106 121 139
109 124 144
111 126 146
112 128 148
111 126 145
112 127 146
109 124 143
113 129 148
111 126 146
112 128 148
111 127 146
114 130 150
111 125 145
115 130 150
114 130 150
116 132 152
116 131 152
116 131 152
116 133 154
114 130 150
115 131 151
116 132 153
114 129 149
116 132 153
117 132 153
112 127 147
113 128 148
115 131 151
115 131 152
115 131 151
113 128 148
113 128 148
115 130 151
115 131 152
116 131 152
113 129 149
116 132 152
116 130 150
115 130 150
115 131 151
115 130 149
116 131 152
117 132 153
116 131 152
112 127 146
115 131 152
117 132 152
116 130 151
114 129 149
115 130 150
114 128 149
115 128 148
114 128 148
114 127 147
115 129 149
114 128 148
113 127 148
112 124 143
114 126 146
112 125 145
117 129 150
115 127 147
110 121 140
115 125 145
111 122 142
112 121 140
109 118 136
112 120 139
107 114 132
109 115 133
104 113 130
104 111 128
104 110 127
101 108 125
101 109 125
99 107 124
101 109 125
100 110 127
102 111 127
100 111 127
98 107 123
102 111 127
95 105 121
91 100 115
97 107 123
94 103 118
90 100 114
88 97 111
90 101 114
88 99 112
89 100 113
90 101 114
90 101 114
95 107 121
93 104 118
97 108 123
92 102 116
95 106 121
96 108 123
94 106 120
99 110 125
95 106 121
98 110 126
103 116 132
98 111 126
100 112 127
103 115 131
102 114 130
102 115 131
107 120 137
106 119 136
101 113 129
103 115 131
105 118 135
105 117 134
107 120 137
106 119 136
107 120 138
106 119 136
106 119 136
108 122 139
106 119 136
106 119 136
106 118 134
107 120 137
110 123 141
109 122 139
106 119 136
109 122 140
109 122 140
110 123 141
108 122 139
106 120 137
111 125 144
107 120 137
109 122 139
108 121 139
109 123 142
108 122 140
109 123 141
108 122 140
110 124 142
111 125 143
110 123 141
115 129 148
112 126 145
111 126 144
108 122 141
112 126 145
111 125 145
112 127 146
112 127 146
112 126 146
114 129 149
113 128 147
114 128 147
112 127 146
113 127 147
112 126 146
114 129 148
113 127 147
113 127 147
114 129 149
115 130 150
112 127 145
113 128 147
115 130 150
113 128 147
115 130 150
115 131 151
115 130 150
114 129 149
113 129 149
112 126 146
116 132 152
115 131 151
118 133 154
121 137 158
115 131 151
116 132 153
115 130 151
114 129 150
113 128 148
116 132 152
114 129 150
117 132 153
118 134 155
116 132 153
114 130 150
116 131 151
115 131 152
115 131 152
114 130 151
112 127 147
115 131 151
114 129 150
115 130 150
114 130 151
117 133 154
113 129 149
114 130 151
112 128 148
113 129 149
112 128 147
112 128 148
109 124 144
112 128 147
111 126 146
113 129 149
113 128 149
110 125 144
108 123 143
104 119 137
112 126 146
107 122 142
110 126 145
108 123 142
107 122 141
105 120 139
106 122 140
103 118 135
102 116 133
95 109 124
83 104 109
45 77 58
37 76 47
38 77 48
40 80 50
38 77 48
38 78 49
38 78 48
37 76 47
38 78 48
43 73 54
72 91 94
91 105 119
96 110 126
94 109 124
100 114 131
102 117 134
99 114 130
103 118 136
105 121 139
106 121 140
110 126 145
106 122 140
108 123 142
110 126 145
112 127 146
112 128 147
115 131 151
115 130 150
115 130 151
111 126 146
111 127 146
116 132 153
114 129 149
116 131 151
115 131 151
113 129 149
119 135 156
114 129 149
114 129 149
114 130 150
116 131 152
115 131 152
116 131 151
116 132 153
115 130 150
115 131 151
116 132 153
116 131 152
117 133 153
114 129 150
117 132 153
117 133 154
118 133 154
114 129 149
117 133 154
112 127 147
116 131 151
112 127 147
116 131 151
117 133 154
114 129 149
113 128 148
117 132 153
116 132 152
115 129 149
118 133 154
113 128 148
117 131 151
115 130 150
117 131 152
114 127 147
112 125 145
116 131 152
114 128 148
116 130 150
113 128 148
112 125 145
113 126 145
116 129 149
113 125 144
117 130 150
111 122 141
109 120 139
113 124 144
111 122 141
111 122 141
111 122 141
110 121 140
109 120 139
108 118 137
110 121 140
108 119 137
107 117 135
105 117 135
105 117 135
106 119 138
104 116 134
105 117 135
105 118 136
106 119 137
104 117 135
104 117 135
104 117 134
106 119 136
100 112 129
102 115 131
102 114 131
102 114 131
100 113 129
101 114 130
103 116 133
101 113 129
100 113 129
107 121 138
103 116 133
107 121 138
100 112 128
106 119 137
109 122 140
106 119 136
105 118 134
104 117 133
104 116 132
106 120 138
107 120 137
106 119 136
104 117 134
107 121 138
104 116 133
111 126 144
105 118 135
109 123 140
106 120 137
108 121 139
107 120 138
109 123 141
109 122 139
110 124 142
108 122 140
111 125 144
108 121 137
108 121 139
106 119 135
110 124 142
107 120 137
108 122 140
112 126 145
106 120 137
109 123 142
112 126 144
112 126 145
113 127 147
110 124 142
111 126 145
111 125 144
111 125 143
111 126 144
111 125 144
112 127 146
112 126 145
110 124 143
114 129 148
111 125 144
109 123 142
112 127 146
113 128 147
114 129 148
113 128 148
112 127 146
115 130 150
113 128 148
108 122 141
114 128 148
112 127 146
113 128 147
110 124 143
113 127 146
116 131 151
115 130 150
115 130 150
113 128 148
115 130 150
114 129 149
114 130 150
114 129 149
116 132 153
114 129 149
114 130 150
114 129 149
116 132 152
116 131 151
118 134 155
116 131 151
115 131 151
115 130 151
115 131 151
115 130 151
116 131 152
116 132 152
115 131 151
118 134 154
116 131 151
117 133 154
115 131 152
118 133 154
118 134 154
115 131 152
115 131 151
116 132 152
116 132 153
118 134 155
114 130 150
114 129 149
116 131 152
112 128 148
115 131 152
117 133 154
114 129 149
111 127 147
113 129 149
115 131 151
115 131 151
114 130 151
113 129 149
117 133 154
114 130 151
113 129 149
109 125 144
108 123 141
110 126 145
112 128 147
108 124 143
108 124 143
107 122 140
102 118 135
103 118 135
101 116 133
94 108 123
92 106 119
88 101 113
80 94 103
63 82 79
38 65 48
38 69 47
39 72 48
32 65 41
33 62 41
39 62 48
58 76 72
67 79 84
73 84 93
82 95 105
86 98 110
91 105 118
93 107 121
100 115 131
99 113 129
106 122 140
106 121 139
108 123 142
106 121 139
108 124 143
112 127 147
110 125 144
114 130 150
110 124 143
113 129 149
114 130 150
114 131 151
114 130 151
113 129 149
113 129 149
114 130 150
115 130 151
115 131 151
117 133 154
115 132 152
114 129 150
118 134 155
114 130 150
117 133 154
116 131 152
117 133 153
116 131 152
113 129 149
115 131 151
117 132 153
115 130 151
115 130 151
117 132 152
116 131 151
115 131 151
117 133 153
119 135 156
117 132 153
117 132 153
113 129 149
115 130 151
116 131 152
115 130 149
117 132 152
115 130 151
116 131 151
113 128 148
113 128 148
116 131 152
113 127 147
116 132 152
116 131 151
111 125 144
115 130 150
113 127 148
114 128 148
115 129 149
114 128 147
116 130 150
115 130 150
117 132 152
113 126 146
115 129 149
114 127 146
113 126 146
113 127 146
113 126 146
111 125 145
116 130 149
115 128 148
113 125 145
110 122 141
112 126 146
111 124 143
112 125 144
106 118 137
114 127 147
110 123 142
111 125 143
109 122 141
109 122 141
109 122 141
109 122 140
106 119 137
107 120 139
108 122 141
104 118 136
107 121 139
106 120 138
108 122 140
107 121 139
105 118 136
106 119 137
107 121 139
105 119 136
104 117 134
105 119 136
107 121 139
108 122 141
107 120 138
109 122 141
106 119 136
106 120 137
108 122 141
106 120 137
105 118 136
108 122 140
106 119 136
109 123 141
110 123 141
108 122 140
111 124 143
108 122 140
108 121 139
110 125 143
107 121 138
111 125 143
108 121 139
113 127 145
107 121 138
110 124 143
111 125 143
107 121 139
112 126 145
112 125 143
110 124 143
112 127 146
112 126 145
110 123 142
113 128 147
109 123 142
109 122 140
110 124 143
108 122 141
114 129 148
111 126 145
114 128 148
114 129 148
112 126 145
111 126 145
112 127 147
112 127 146
109 123 142
114 128 147
114 129 149
113 127 146
113 128 147
113 128 147
112 127 146
113 128 148
112 127 147
112 127 146
113 128 148
114 128 148
114 129 148
112 127 146
113 128 148
111 126 146
112 127 146
116 131 151
112 127 146
115 131 152
114 130 149
117 132 151
115 130 149
113 128 147
112 127 147
115 131 151
113 128 148
112 127 146
116 131 151
114 130 150
115 130 150
116 131 151
112 127 146
115 131 151
115 130 150
115 131 151
115 131 151
115 130 150
115 130 150
117 132 152
117 133 154
114 130 150
118 134 155
118 133 154
116 132 152
117 133 154
114 130 149
118 134 154
114 129 150
114 130 151
113 129 149
116 132 153
118 134 156
116 132 152
113 128 148
113 128 148
113 129 149
118 134 155
114 129 149
115 131 152
116 132 152
111 127 147
115 130 151
112 128 148
113 129 150
113 129 149
109 124 143
113 129 148
110 125 143
111 127 146
110 127 146
108 123 142
108 124 142
108 124 143
105 121 138
104 119 136
101 116 132
92 106 120
88 101 113
90 104 116
82 94 105
76 87 96
71 81 89
60 69 73
50 60 62
48 58 57
43 52 51
50 58 60
50 57 60
59 68 73
71 81 89
75 86 95
83 96 106
84 97 108
88 101 113
93 107 121
95 109 124
104 120 137
103 118 135
106 122 139
106 121 139
106 122 140
109 124 143
110 126 145
111 127 146
115 132 152
115 131 152
115 132 153
115 130 151
115 131 151
114 130 150
116 133 153
114 130 150
114 130 150
115 131 151
117 133 153
116 131 152
114 130 150
115 130 150
115 131 151
118 134 155
117 133 154
115 131 151
112 127 146
117 133 153
116 132 152
117 132 153
116 131 151
116 131 152
113 128 147
115 130 150
117 132 153
114 129 149
115 131 151
114 129 148
118 133 154
114 129 149
118 134 155
116 131 152
116 131 152
117 132 153
115 130 150
114 129 149
116 132 152
117 132 152
117 132 152
116 131 152
116 132 153
116 131 151
113 127 147
115 129 149
115 130 150
116 131 151
116 131 151
116 131 152
114 127 147
113 127 147
113 128 148
113 126 146
111 125 144
117 133 153
114 127 147
113 127 147
115 128 148
112 127 146
114 128 148
117 131 152
114 128 147
113 127 146
114 128 147
111 124 143
112 125 145
111 125 145
114 129 148
114 128 147
113 126 145
110 124 143
109 122 141
111 125 144
112 125 144
112 127 145
110 124 143
112 126 145
111 125 144
111 125 144
108 122 140
111 125 144
111 125 144
110 124 143
110 124 143
109 123 142
106 120 138
109 124 143
107 121 139
110 124 143
108 122 140
111 125 143
109 123 142
108 122 140
109 123 141
110 124 142
112 126 144
107 121 139
113 127 146
111 125 144
109 123 142
110 124 143
110 123 141
110 124 143
112 126 145
112 126 145
108 121 139
110 124 143
109 122 140
111 126 145
110 123 141
111 125 144
110 123 142
111 125 144
110 124 143
112 125 143
112 127 146
108 121 139
112 126 144
108 122 141
110 125 144
114 129 148
111 125 144
114 129 148
111 125 143
113 128 147
112 126 144
111 126 145
113 127 146
115 130 149
112 127 146
111 125 144
114 129 149
114 129 148
117 132 152
113 128 146
114 129 148
112 127 146
110 124 143
112 127 147
112 126 146
113 128 148
114 129 149
111 125 145
112 127 147
112 127 146
115 130 149
115 130 150
113 128 147
112 126 146
115 131 151
114 129 149
114 129 149
112 127 146
116 131 151
113 128 147
118 134 154
117 133 154
117 133 153
117 133 153
117 132 153
117 132 153
118 133 153
111 126 146
116 132 152
116 131 151
117 133 154
114 129 149
114 129 149
117 132 153
117 132 153
114 130 150
118 134 154
115 131 151
116 131 151
114 129 149
114 129 149
118 134 155
117 132 153
115 131 152
117 133 154
117 133 154
118 134 155
117 133 154
116 131 152
117 133 154
115 130 151
117 133 153
116 132 153
117 133 153
113 128 148
114 130 151
115 131 151
114 130 150
115 131 152
115 130 150
114 130 150
115 131 151
114 130 150
113 128 148
109 125 144
111 127 147
111 127 147
114 130 149
109 126 144
108 124 143
109 125 144
105 121 139
106 122 139
105 120 137
100 116 132
98 112 127
95 109 123
90 105 117
90 104 116
83 96 107
79 91 101
80 93 102
72 84 91
69 80 87
65 76 81
70 81 88
67 78 85
70 81 89
77 89 98
80 93 103
90 104 117
94 108 122
93 107 120
97 111 127
101 116 132
102 117 134
107 123 141
106 121 139
109 124 143
111 127 146
110 126 144
109 125 143
111 127 146
114 130 150
117 133 153
116 132 152
114 130 150
116 132 152
113 129 148
114 130 150
117 133 153
117 133 154
112 127 147
117 133 153
117 133 154
118 135 156
116 131 152
118 134 155
114 129 149
113 128 148
115 131 151
115 131 151
119 136 157
114 129 149
118 134 155
120 136 157
116 132 153
115 130 151
115 131 151
117 133 154
114 129 149
117 132 152
116 132 152
117 133 155
115 131 151
120 136 158
115 130 151
115 131 151
116 132 153
114 129 149
117 132 152
115 130 150
116 130 151
116 131 152
116 131 151
114 129 149
117 132 153
116 131 151
118 133 153
116 131 151
116 130 151
115 130 150
114 128 148
114 129 149
115 130 150
116 131 152
115 131 151
113 128 148
114 129 148
119 134 155
116 131 151
114 128 148
117 131 151
115 130 150
115 130 150
116 131 151
115 129 148
114 128 148
116 131 150
114 129 149
112 126 145
113 128 148
113 128 148
114 128 147
113 128 148
112 126 144
114 128 148
114 128 147
113 128 147
114 128 148
114 129 149
110 125 145
113 127 146
111 125 144
113 128 147
115 130 150
112 127 146
112 126 145
113 128 147
109 123 141
110 124 143
112 127 146
112 126 145
113 127 146
110 125 144
111 126 144
112 126 145
114 128 147
108 121 139
112 127 146
113 127 147
111 126 145
113 128 147
112 127 146
111 125 144
112 127 146
111 126 145
109 124 143
110 125 144
111 125 144
112 126 145
110 124 142
112 127 145
111 125 144
114 129 148
111 126 145
110 124 142
113 128 147
113 128 147
112 126 145
112 127 146
113 127 146
111 126 145
113 127 146
113 128 148
115 130 150
110 124 143
111 126 145
111 125 144
114 129 148
115 130 150
112 127 146
111 125 144
115 130 149
116 131 150
114 129 148
114 129 148
113 128 147
112 127 146
111 125 144
112 127 147
116 131 151
117 132 151
118 133 153
114 129 149
114 129 149
113 128 147
114 129 149
113 128 148
114 129 149
117 132 152
115 130 149
115 130 150
116 131 151
113 128 148
117 132 152
113 128 148
114 130 150
116 132 152
115 130 149
115 130 151
116 131 151
115 130 150
114 129 149
117 132 153
114 129 149
120 136 156
116 131 152
115 130 150
114 129 149
116 131 151
119 135 156
116 131 151
114 130 150
116 131 152
114 129 149
115 130 151
118 134 155
115 130 150
117 133 154
119 135 156
116 131 152
118 134 155
116 132 152
118 134 155
117 133 154
117 133 155
113 129 149
116 132 153
115 132 152
117 133 153
116 133 153
116 132 153
117 132 153
116 132 152
116 132 152
117 133 154
115 131 151
118 135 156
115 131 152
114 130 150
119 136 157
112 128 147
115 131 151
113 129 149
115 131 152
114 130 150
114 130 150
109 125 143
110 126 145
110 126 145
108 124 143
106 122 140
104 120 137
105 121 138
101 117 133
100 115 131
98 113 128
100 115 130
95 110 124
96 110 125
93 108 121
94 108 121
89 103 115
91 105 117
92 106 118
93 107 120
91 106 119
89 103 116
98 113 128
99 114 130
102 117 134
104 120 136
106 121 139
106 121 139
109 125 143
110 126 144
112 128 147
112 128 147
111 127 146
112 128 147
113 128 148
115 131 151
114 131 151
115 132 152
115 131 151
113 128 148
115 131 151
114 130 150
114 130 151
114 129 150
115 130 151
114 130 150
118 134 155
117 133 153
117 133 154
115 131 151
118 134 155
117 133 154
114 129 150
116 132 152
117 133 155
118 134 155
115 131 152
117 133 154
119 135 155
118 134 154
118 134 155
117 133 153
117 133 154
116 132 153
119 135 156
117 132 153
115 131 151
114 129 149
117 132 153
119 135 156
117 132 154
116 131 152
118 134 156
119 134 156
115 131 152
116 131 151
117 132 153
115 131 151
115 130 150
116 133 154
114 129 149
118 133 153
117 133 153
113 128 147
115 130 150
115 131 151
116 131 151
117 132 153
117 133 153
119 134 155
114 128 149
114 128 148
118 133 154
114 128 149
114 129 149
116 131 151
114 128 148
117 132 153
113 128 148
113 127 147
116 131 151
114 128 148
113 128 148
114 129 149
114 128 148
114 129 149
117 131 151
112 127 146
113 128 147
116 131 151
115 130 151
113 127 146
111 125 145
113 127 147
112 127 147
112 127 146
114 129 149
112 127 147
110 124 143
113 128 147
111 125 144
114 129 148
113 127 146
112 127 147
112 126 145
113 128 148
112 127 146
113 128 147
114 128 148
115 129 149
114 129 148
111 126 145
112 127 146
110 124 143
113 127 146
114 129 148
113 128 148
112 126 145
114 128 148
111 126 144
112 127 147
113 128 147
109 124 143
113 128 147
113 128 148
112 127 147
110 124 143
109 123 142
116 130 149
112 126 146
113 128 147
114 129 149
113 127 147
113 128 147
116 131 150
113 128 147
111 125 143
115 130 149
113 128 147
112 126 145
112 126 146
113 127 147
114 129 149
114 128 148
112 127 147
113 128 147
114 128 148
115 130 150
116 132 152
115 129 149
113 128 148
112 127 146
114 128 148
114 129 148
115 130 150
114 129 148
112 127 147
113 128 148
114 129 149
115 130 150
113 128 148
115 130 150
115 130 150
114 129 149
116 132 152
117 133 155
116 131 151
113 128 148
114 129 149
118 133 154
117 133 153
113 128 148
116 131 151
115 131 151
113 127 147
115 131 151
116 132 152
117 133 154
118 134 154
116 131 151
117 132 152
119 135 155
116 131 151
114 129 149
115 130 150
117 132 152
118 134 155
117 133 153
118 133 154
117 133 154
118 133 153
118 134 154
118 134 155
116 131 152
119 135 156
116 132 153
117 132 153
117 133 154
115 131 151
117 133 153
118 134 155
119 135 156
117 133 153
114 130 150
116 132 152
116 131 152
115 131 151
116 132 152
118 134 154
117 133 154
115 132 152
117 133 154
118 134 155
115 131 151
114 130 151
113 129 149
113 129 149
117 134 155
115 131 152
114 130 150
114 130 150
113 129 149
111 126 145
110 126 145
111 127 146
108 124 143
108 123 141
108 124 142
106 122 140
105 121 139
105 121 139
106 122 139
108 123 141
104 120 137
102 118 135
105 122 139
103 118 135
105 120 138
104 120 137
103 118 135
105 120 138
105 120 137
105 120 137
107 123 141
112 128 147
108 124 142
109 125 144
108 124 143
112 127 147
110 126 144
115 132 152
113 129 149
111 127 146
116 132 152
116 133 153
112 127 147
114 130 150
118 135 155
118 134 155
115 130 150
115 131 151
116 132 152
116 132 152
117 134 155
119 135 157
116 133 153
116 132 153
114 130 150
119 135 156
118 133 154
115 131 152
118 134 155
117 133 155
118 133 154
116 132 152
118 134 155
117 133 154
116 132 152
114 130 150
114 130 150
116 132 153
118 134 155
113 128 148
118 133 154
119 136 157
115 131 151
115 131 151
118 133 154
117 133 154
115 129 149
115 130 151
119 134 155
117 134 155
116 132 152
118 134 155
112 127 147
116 132 152
120 136 158
114 129 150
117 132 153
115 130 151
115 131 151
117 133 154
117 132 153
119 135 155
117 132 152
114 129 149
116 131 151
114 130 150
118 133 154
115 130 150
114 129 149
114 129 149
114 129 149
117 132 153
115 131 151
117 132 151
118 133 154
115 130 150
115 131 151
115 130 150
115 130 149
116 131 151
116 132 152
114 128 148
114 129 148
112 126 146
114 129 149
115 130 150
115 130 151
113 127 147
117 132 152
113 128 148
116 132 152
114 130 150
113 127 146
112 127 147
113 128 147
116 131 151
115 130 150
116 132 152
115 130 149
113 128 148
114 129 148
113 128 147
115 130 150
113 128 148
113 127 147
113 128 148
114 129 149
112 126 145
115 130 150
112 126 145
114 129 149
112 126 145
116 130 150
110 124 142
113 128 147
111 126 145
117 132 152
112 126 145
113 128 147
112 127 146
113 128 147
113 128 147
112 127 147
111 126 145
111 125 144
117 132 152
112 127 147
111 126 145
111 126 145
115 129 149
116 131 152
111 126 145
113 129 148
115 130 150
113 127 146
115 130 149
113 128 148
115 130 149
114 128 148
115 130 150
114 129 149
116 131 151
113 128 148
115 130 150
118 133 153
115 130 150
115 130 150
113 127 146
114 129 148
113 128 147
113 129 149
115 131 151
115 130 150
115 130 151
118 133 153
114 129 149
115 131 151
113 128 148
117 133 154
113 128 148
117 133 154
118 134 154
115 130 150
115 130 150
114 130 150
114 129 148
115 130 151
117 132 153
117 132 152
117 133 153
114 129 149
118 133 153
119 134 155
116 131 152
120 136 156
116 132 152
119 135 156
117 132 153
120 136 157
115 130 151
118 134 155
118 134 155
116 131 152
118 133 154
118 133 154
119 135 156
119 135 157
117 133 153
117 133 154
117 132 153
114 129 149
116 132 153
116 131 151
120 136 157
118 134 154
119 135 156
117 134 155
120 136 157
116 131 152
117 133 154
116 131 152
118 134 156
119 135 156
119 136 158
118 135 156
115 131 151
118 134 155
117 133 154
118 134 155
119 135 156
116 132 153
116 132 153
114 131 151
114 131 151
113 130 150
113 129 148
116 132 153
114 130 150
114 129 150
116 132 153
114 130 150
113 130 149
115 131 151
112 129 148
109 125 143
109 125 144
109 125 144
111 127 147
111 126 145
109 125 144
113 129 149
109 125 143
110 126 144
111 126 145
110 126 144
112 128 147
109 125 143
111 127 146
110 126 145
111 127 146
110 126 144
113 129 149
114 130 151
111 127 147
114 130 150
114 129 149
114 130 149
117 133 153
113 129 149
114 130 150
115 131 151
117 134 155
114 130 150
117 133 153
116 132 153
117 134 154
117 133 153
116 132 153
116 132 153
115 131 152
114 130 150
113 128 148
115 130 150
118 134 155
117 133 154
118 135 156
116 132 153
115 131 151
117 134 154
115 132 153
115 130 151
115 131 152
114 129 149
116 131 152
117 133 154
119 135 157
117 133 154
116 131 151
114 129 148
120 135 156
117 132 153
117 133 154
118 134 154
118 134 154
116 132 152
116 131 152
115 131 152
117 133 153
118 134 155
117 133 154
118 134 155
118 133 154
116 131 151
118 134 155
118 134 155
118 133 154
114 128 148
117 133 154
117 132 152
114 129 150
116 131 151
118 134 155
116 131 152
114 128 148
117 133 154
118 133 154
117 133 154
117 132 152
117 132 153
117 132 153
114 130 150
118 133 154
116 132 152
115 130 150
113 128 147
117 132 152
116 131 151
115 130 151
116 132 152
117 132 152
116 131 151
113 128 148
114 129 149
115 130 150
116 131 151
114 129 149
112 126 145
112 127 147
117 132 152
114 129 148
115 130 151
115 130 149
114 129 149
117 132 153
113 128 147
116 131 151
115 130 150
114 129 149
114 129 149
114 129 149
114 130 150
115 130 149
110 125 144
114 129 149
113 128 148
112 126 146
116 130 150
115 129 149
114 129 148
112 127 146
117 132 152
115 130 150
115 130 150
117 132 152
111 126 146
116 131 151
115 130 150
116 132 153
114 129 149
113 128 147
115 130 150
112 126 145
116 131 150
113 129 148
114 129 149
114 129 148
116 131 152
113 127 146
117 132 152
115 130 149
113 128 148
113 127 147
113 128 147
115 130 150
112 126 146
114 129 149
115 129 149
114 129 149
112 127 146
115 130 150
117 133 153
118 134 154
116 131 152
113 127 146
114 129 148
113 129 149
115 130 149
115 130 150
116 132 152
116 132 153
116 131 151
116 131 152
114 129 149
113 129 149
114 129 149
115 130 151
115 130 150
118 134 154
117 132 152
115 131 151
114 129 149
117 133 153
117 133 153
114 130 150
113 128 148
116 131 151
115 130 150
117 133 153
116 132 152
118 134 155
115 131 151
114 129 149
117 133 153
117 132 152
117 132 153
116 131 152
118 133 154
118 134 154
114 130 150
117 133 153
118 134 155
117 133 153
116 131 151
115 131 151
117 133 153
117 133 154
115 131 151
118 134 155
117 133 154
117 133 153
120 137 158
118 133 154
119 134 155
119 135 156
119 135 156
117 133 153
119 136 157
120 137 158
118 134 155
121 138 159
118 135 156
120 136 157
118 135 157
119 135 156
117 134 155
116 133 153
115 131 152
118 135 156
118 134 154
116 133 154
118 134 155
119 135 155
117 133 154
116 132 153
116 132 153
115 131 151
114 130 150
116 132 153
116 132 152
114 130 150
112 128 148
114 129 149
115 131 151
114 130 150
113 129 149
115 131 152
117 134 154
115 131 151
115 131 151
114 130 150
114 130 150
116 132 152
114 130 149
113 129 149
116 132 152
114 131 151
116 132 153
113 128 148
113 129 149
112 128 148
114 130 150
112 128 147
118 134 155
115 131 150
117 134 154
114 130 150
115 131 151
115 131 152
116 132 153
116 133 153
115 131 151
117 133 154
118 135 156
115 130 150
113 130 150
118 134 154
117 133 153
116 132 152
115 130 150
121 138 159
118 134 155
114 129 150
116 132 152
115 131 152
119 135 155
117 133 154
117 133 153
114 130 150
117 133 153
116 132 152
116 131 152
117 133 154
115 130 151
116 132 153
116 132 152
118 133 154
117 133 153
116 132 152
118 134 154
116 132 153
115 131 151
118 133 154
119 134 155
118 134 154
119 135 156
117 133 154
117 133 154
117 132 152
116 132 153
119 135 156
117 133 154
115 131 151
116 131 151
115 130 151
116 132 153
116 132 152
116 131 152
119 134 155
117 132 153
117 133 154
118 133 154
115 131 151
117 133 154
116 132 152
118 133 154
115 131 151
117 133 153
117 132 152
115 130 150
115 130 151
117 132 152
116 132 152
117 133 154
118 134 155
117 132 152
112 126 146
118 134 155
117 132 153
117 132 153
116 131 151
114 128 148
117 132 152
116 131 151
116 131 151
117 133 153
117 133 153
117 132 152
117 132 153
117 133 153
110 124 143
117 132 152
116 132 152
115 130 150
115 130 150
114 130 150
115 130 150
115 130 150
115 131 150
113 128 148
115 130 149
115 130 150
114 128 147
114 129 149
116 131 152
116 131 151
115 130 150
114 129 149
114 129 149
113 128 148
114 129 149
117 131 151
116 131 151
116 131 150
117 133 153
111 126 145
113 128 148
113 128 148
112 127 147
112 127 147
114 128 148
115 131 150
115 130 150
117 132 153
114 129 149
112 127 147
115 131 151
115 130 150
116 131 151
115 130 149
115 130 150
115 130 151
118 134 155
116 131 151
117 133 153
113 128 147
115 130 150
115 129 149
112 127 146
116 131 151
113 128 148
116 131 152
117 132 153
118 133 154
118 133 153
115 131 151
117 133 153
116 132 152
114 129 149
113 127 147
113 128 148
116 131 152
116 132 152
114 129 148
114 129 150
112 127 147
116 131 151
117 133 154
116 132 153
117 132 153
117 132 153
114 129 149
114 129 149
118 134 155
112 128 147
119 135 156
114 130 150
118 134 156
117 132 152
116 131 152
119 135 156
117 133 153
116 131 151
117 133 154
116 132 152
118 134 155
116 131 151
118 134 154
114 129 149
115 131 151
116 132 153
116 132 153
120 136 156
115 131 151
117 133 154
117 133 153
117 132 153
117 133 153
115 131 151
116 132 152
117 132 153
117 133 153
113 128 148
117 133 154
117 132 153
116 132 152
118 134 155
119 135 156
119 135 156
118 134 155
117 133 154
116 132 153
116 132 152
119 136 157
117 133 154
118 134 155
120 137 158
119 135 156
119 135 156
117 133 153
119 135 156
118 134 155
119 135 157
120 136 158
115 131 152
116 133 154
116 132 152
116 133 153
117 133 154
114 130 149
118 134 155
115 131 151
117 133 153
115 131 151
114 129 149
117 134 155
114 130 149
116 132 152
114 130 151
115 131 152
114 131 151
115 131 151
115 131 151
119 135 156
115 131 151
116 132 153
116 132 153
113 129 149
115 131 151
118 134 155
115 131 151
117 133 154
114 129 149
117 133 154
117 133 154
119 135 156
116 132 152
116 132 153
120 137 158
116 132 153
119 136 157
118 134 155
118 135 155
119 135 157
117 133 154
120 136 157
116 132 153
119 135 156
118 134 154
119 136 157
118 134 155
120 136 158
118 134 156
115 131 152
117 134 155
119 135 157
118 134 155
115 131 152
117 133 154
117 133 154
118 134 155
118 134 155
116 132 152
117 133 154
118 134 155
116 132 153
120 136 157
115 131 151
116 132 152
118 135 156
117 133 154
117 133 154
116 131 151
116 132 152
116 131 151
117 133 153
116 132 152
116 131 152
117 133 154
117 133 154
116 131 152
118 133 154
116 132 152
117 133 155
115 130 150
120 136 157
119 135 156
118 133 154
117 133 154
114 129 148
118 134 154
117 133 154
118 133 154
118 133 154
119 135 156
116 132 153
115 131 151
116 131 151
116 131 152
118 134 154
114 129 149
115 131 151
115 130 150
117 132 152
114 129 149
117 132 153
118 134 156
118 133 153
116 132 152
119 135 155
112 127 147
116 131 151
115 131 151
118 134 155
117 133 153
115 131 151
117 132 153
115 131 151
118 134 154
115 130 150
116 132 152
118 133 154
116 132 152
114 129 149
115 130 150
116 131 151
117 133 153
118 134 155
117 133 153
113 127 147
114 129 149
118 133 153
115 131 151
116 132 152
118 133 154
113 128 147
115 130 150
117 132 153
117 132 153
117 132 152
116 131 151
114 129 150
114 130 150
113 128 148
113 128 148
115 130 150
114 129 149
116 132 152
117 133 153
116 131 151
117 132 153
113 128 147
116 131 151
116 132 153
114 128 148
116 131 151
114 129 149
116 131 152
117 132 153
116 131 151
115 130 150
117 134 155
116 132 153
116 132 152
116 131 151
116 131 151
112 127 146
113 128 148
118 134 155
116 132 152
117 133 154
113 128 147
115 131 151
118 134 154
118 133 153
114 128 148
115 131 152
115 130 150
115 131 151
116 132 152
116 132 152
116 132 152
116 132 152
118 133 154
117 132 153
116 132 153
117 132 152
115 130 151
118 133 154
115 131 151
118 134 155
118 133 154
117 133 153
116 132 152
116 131 150
116 132 152
117 133 153
115 130 151
117 133 153
117 133 154
116 132 152
118 134 154
117 132 153
118 134 155
116 132 152
118 134 155
117 133 154
120 136 158
117 132 153
120 136 157
116 132 152
117 133 154
117 132 153
117 133 154
116 132 152
118 134 155
117 132 152
118 134 154
118 134 155
116 132 152
117 132 152
119 135 156
118 134 155
118 134 155
119 135 156
118 134 154
120 136 157
115 130 150
118 134 155
119 136 157
118 135 156
118 134 155
118 134 155
115 131 151
118 135 156
117 133 154
120 136 158
119 135 156
117 133 153
118 134 155
118 134 155
119 136 157
116 132 152
118 135 156
117 133 154
118 134 155
119 135 156
115 131 151
118 135 156
117 133 154
117 133 154
117 133 154
118 134 155
116 132 152
119 135 155
118 134 155
116 132 153
117 133 153
118 134 155
112 128 148
118 134 155
118 135 156
117 134 154
117 133 154
120 137 158
119 135 156
114 130 150
116 132 152
117 133 154
118 134 155
116 133 154
118 134 155
113 129 149
116 132 152
116 133 153
116 132 152
117 133 154
116 132 153
120 137 158
117 132 153
119 135 156
117 134 154
119 135 156
116 133 153
116 132 153
117 133 154
118 134 155
118 135 156
119 135 155
114 129 149
117 134 155
118 134 156
118 134 155
115 131 152
116 132 153
118 134 155
117 133 153
120 136 157
119 134 155
118 133 154
116 132 152
119 135 155
118 134 155
116 132 153
117 133 154
121 137 159
115 131 152
117 133 153
115 131 151
119 135 156
117 132 153
118 133 154
119 135 156
116 132 152
116 132 153
117 133 154
117 132 153
118 134 154
116 132 153
118 134 155
117 132 152
120 136 157
117 133 154
118 134 155
117 132 153
118 134 154
115 131 151
118 134 155
117 132 153
117 133 154
116 132 152
117 133 154
118 134 155
120 137 158
120 136 158
117 133 154
116 131 151
119 135 156
119 135 156
117 133 153
117 133 153
117 133 153
114 129 150
119 135 156
118 134 155
122 138 160
120 136 157
117 133 154
116 131 152
116 131 152
118 133 154
117 132 152
119 135 156
117 132 153
115 131 151
116 131 151
116 132 153
117 133 154
119 135 156
116 132 152
117 132 153
117 133 154
115 131 151
117 132 153
118 133 154
116 132 152
115 131 151
117 132 152
117 132 152
118 133 154
115 131 152
117 132 153
116 131 152
117 132 152
118 134 154
116 132 152
118 134 155
115 130 150
116 131 152
116 132 152
119 134 154
117 132 152
116 132 152
116 132 153
116 132 152
118 134 154
117 132 152
118 134 154
117 133 153
116 132 152
115 130 151
113 128 147
117 132 152
119 135 155
115 131 151
115 131 151
115 130 150
118 133 154
114 129 149
117 132 152
115 131 151
114 129 149
113 129 149
118 134 155
116 131 151
114 130 150
116 131 151
117 133 153
115 130 150
115 131 152
116 132 152
114 129 149
117 132 152
118 134 155
114 129 149
111 126 146
118 134 155
118 134 154
115 130 150
116 131 152
115 130 150
116 132 152
115 131 151
113 128 148
115 130 149
118 133 153
116 131 151
115 130 150
116 131 152
116 132 152
116 132 153
119 135 156
121 138 159
116 131 152
117 133 153
120 136 157
119 135 155
117 133 154
115 130 150
118 134 155
115 131 151
120 137 158
115 131 151
119 135 156
115 131 151
119 135 156
119 135 156
118 134 155
119 135 156
115 130 151
120 136 157
116 131 152
115 131 152
117 133 153
117 133 153
115 130 151
117 133 154
118 134 154
118 134 155
116 132 153
118 134 154
116 132 152
115 130 151
117 133 153
117 132 153
117 133 154
119 135 156
116 132 153
117 133 154
119 135 156
119 136 157
120 137 158
118 134 155
118 134 155
118 134 156
116 132 152
118 134 155
120 137 158
119 135 157
120 137 159
119 135 156
117 133 154
116 132 153
118 134 155
117 134 155
117 133 154
117 133 154
119 135 156
116 132 153
114 130 150
117 132 153
117 134 155
117 134 155
115 132 152
117 133 154
116 133 154
116 132 153
116 132 152
119 136 157
117 134 154
115 131 151
119 135 156
117 133 154
117 133 154
116 132 153
118 134 154
120 136 157
118 134 156
117 133 154
120 137 158
120 136 158
118 134 155
115 131 151
116 132 153
117 134 155
117 133 153
118 134 155
120 136 157
118 134 155
119 135 156
117 133 153
119 135 156
118 134 155
117 133 155
114 129 149
115 131 151
119 135 156
119 135 156
118 134 155
120 136 158
117 133 153
115 131 151
118 134 156
118 133 154
117 133 154
120 136 158
120 136 158
116 132 153
118 134 155
114 130 150
117 132 153
118 134 155
121 137 158
120 136 158
116 132 152
119 135 156
119 135 157
118 134 155
115 130 150
119 136 157
120 137 158
118 134 154
115 131 152
117 133 153
117 132 152
120 136 157
119 134 155
117 133 155
118 135 156
117 133 153
115 131 151
116 132 153
116 132 152
120 136 157
118 134 154
116 131 151
119 136 157
118 134 155
118 134 155
121 137 158
117 133 153
117 132 152
118 134 154
119 135 155
116 132 152
119 135 156
116 132 153
115 131 151
114 129 149
118 134 155
117 134 155
115 130 150
118 133 154
116 131 151
114 130 150
118 134 156
119 135 156
118 134 155
116 131 151
116 131 151
118 134 155
116 132 153
115 130 150
117 133 153
119 134 155
116 131 152
116 132 152
113 129 148
116 131 152
118 134 154
119 135 156
120 136 157
112 128 147
117 133 153
116 132 152
116 131 152
116 132 152
118 134 154
117 133 154
117 133 154
116 131 151
116 132 152
113 128 148
113 129 148
116 131 151
119 135 156
115 130 150
118 133 153
118 134 155
116 131 152
114 130 150
117 133 153
116 131 151
116 132 152
114 129 149
117 133 154
118 134 154
118 134 154
113 128 148
117 132 153
116 132 153
113 128 148
118 134 155
117 133 153
113 128 148
116 132 153
115 130 151
117 132 152
117 133 154
115 131 151
117 132 153
114 130 150
113 128 148
117 132 152
116 131 152
117 133 154
116 132 152
118 134 154
115 130 150
117 132 153
115 130 149
115 130 150
115 131 151
117 133 153
116 132 152
118 134 155
115 131 151
119 135 156
119 136 157
114 129 149
115 131 152
115 130 150
117 133 153
116 132 153
118 134 154
116 132 152
117 133 154
116 131 151
117 133 154
119 135 156
115 130 150
118 133 154
116 131 152
118 134 155
117 132 153
118 133 154
118 134 155
116 132 153
117 133 154
116 132 153
115 130 150
117 132 153
116 132 153
117 133 153
117 132 153
118 134 155
117 133 154
116 132 152
119 134 155
116 131 152
118 134 156
117 133 155
119 136 157
118 134 155
117 133 154
119 134 155
114 130 150
117 133 154
117 133 153
116 132 153
117 133 153
118 133 154
120 137 158
118 134 155
122 138 159
118 133 154
118 134 155
118 134 155
118 133 154
118 135 156
120 137 158
122 138 160
119 135 156
118 134 155
117 133 154
117 132 153
118 134 155
117 134 155
118 134 155
117 133 153
118 134 155
118 135 156
119 135 156
120 136 157
121 137 159
116 133 153
119 136 157
118 134 154
117 133 154
116 132 152
119 135 156
117 133 153
120 137 158
117 134 154
118 135 156
118 134 154
115 130 151
120 136 158
121 137 159
114 130 151
116 132 153
118 134 155
117 132 153
118 134 155
118 134 155
113 129 150
118 134 154
117 134 155
116 132 152
118 134 155
117 133 154
115 130 150
118 134 156
117 133 154
118 134 154
118 134 155
115 130 150
117 133 154
120 137 158
117 134 155
115 131 152
121 137 158
118 134 155
117 133 154
118 135 156
119 135 156
120 137 159
119 135 157
118 134 154
117 133 154
115 130 151
119 135 156
119 135 156
120 137 158
119 135 157
118 135 156
120 136 157
120 137 159
116 131 152
118 134 155
116 132 152
118 134 155
118 133 154
118 134 155
117 133 153
117 133 154
117 132 153
118 134 154
117 133 154
118 134 155
121 138 160
116 132 153
118 135 156
117 133 153
118 134 155
119 135 156
117 133 153
118 134 155
118 134 155
117 132 153
117 133 153
117 132 153
118 134 154
121 136 157
117 133 154
116 132 153
118 134 155
118 134 155
118 134 155
118 134 155
117 133 154
115 130 151
115 131 151
117 133 154
117 132 153
116 132 153
115 130 151
119 135 156
117 133 153
118 133 154
117 133 154
119 135 156
117 133 154
118 135 156
117 132 153
116 132 152
118 133 154
117 133 154
117 133 153
116 131 152
117 133 153
115 131 151
119 135 156
117 133 153
117 133 153
118 133 154
116 132 152
116 132 152
117 133 154
117 133 153
118 133 154
116 131 152
117 133 154
115 130 150
114 130 150
121 138 159
118 133 154
119 135 156
117 133 153
115 130 151
117 132 153
118 134 155
117 133 153
119 134 155
116 132 152
118 134 155
118 134 154
116 132 153
118 134 154
116 132 152
116 132 152
118 134 155
119 135 155
117 132 153
115 130 150
114 129 149
115 131 151
118 134 155
115 131 151
117 133 154
116 132 152
118 134 155
118 134 155
117 133 153
117 133 154
118 134 154
119 135 156
116 131 152
116 131 151
113 129 149
117 133 154
114 130 150
117 133 154
116 132 152
117 133 153
115 131 151
117 133 153
118 134 155
116 131 152
118 134 154
118 133 153
115 130 150
117 132 153
117 133 153
116 132 152
118 134 155
118 133 154
116 131 152
115 131 152
118 135 156
116 132 152
116 132 152
115 131 151
115 131 151
117 132 153
120 136 158
115 131 151
117 132 153
117 132 153
118 134 155
119 134 155
117 134 155
119 135 157
118 133 154
116 132 152
117 132 153
119 135 156
118 135 156
120 135 156
117 134 154
117 133 154
122 139 160
116 132 153
118 134 155
119 135 156
116 131 152
118 134 154
117 133 154
116 132 152
114 129 149
119 136 157
119 135 155
116 132 153
116 132 153
117 133 154
116 131 152
115 131 151
119 135 156
117 133 153
116 132 152
115 131 152
119 134 155
117 133 154
118 134 155
119 135 156
116 131 151
114 129 150
116 132 153
120 136 157
118 134 155
118 134 155
118 134 155
121 137 158
117 133 154
118 134 156
120 136 158
116 132 153
120 136 158
118 134 156
119 136 158
117 133 154
120 136 157
119 135 156
119 135 156
117 133 154
117 133 153
116 132 152
117 133 154
117 133 154
117 132 153
117 133 154
120 137 158
117 134 154
119 135 156
121 137 159
117 133 154
118 134 155
117 133 154
117 133 154
119 135 156
120 136 158
120 136 157
118 134 155
119 135 156
116 132 152
119 135 156
119 136 157
118 134 155
120 137 159
117 133 153
116 132 152
118 134 155
116 132 153
118 135 156
118 134 154
118 133 154
118 134 155
121 137 159
117 133 154
118 135 156
116 132 152
118 135 156
118 134 155
119 135 156
118 134 155
117 134 154
116 132 153
116 131 152
118 134 154
117 133 154
116 132 153
117 134 155
117 133 155
117 133 154
118 135 156
116 132 152
115 130 151
118 134 155
118 134 156
117 133 153
121 137 158
115 131 151
118 134 155
117 132 152
116 132 153
118 134 155
118 134 156
117 133 153
117 134 155
120 136 158
117 133 154
117 132 153
116 132 152
116 132 152
116 132 153
121 137 159
119 134 155
117 133 154
118 134 154
118 134 155
115 130 150
118 134 154
117 132 153
117 133 154
114 130 150
117 133 154
119 135 156
118 133 154
116 132 153
118 134 155
117 133 153
114 130 151
119 134 155
117 133 153
118 133 154
118 134 156
117 133 153
119 134 154
118 134 155
116 132 152
120 136 157
117 133 154
117 133 154
118 134 155
121 138 159
114 129 150
120 136 157
116 132 152
117 132 153
118 134 154
116 132 152
118 134 154
116 131 151
118 134 155
118 133 154
116 132 152
116 132 153
118 134 155
119 135 156
114 130 150
118 135 156
116 131 151
117 133 154
117 133 153
117 133 153
116 132 152
117 133 154
118 134 155
117 132 153
116 131 152
119 135 156
116 132 152
117 132 152
116 132 152
115 131 151
116 132 153
115 131 151
119 135 156
117 133 154
115 131 152
119 135 156
117 133 153
113 128 148
118 134 155
117 132 152
115 131 152
117 133 154
113 129 149
119 135 155
118 134 154
117 133 154
115 131 151
118 134 155
117 132 153
117 133 153
118 133 154
118 134 154
120 135 156
114 129 149
117 133 154
115 131 151
118 133 153
118 134 155
118 134 155
118 134 154
115 131 151
117 133 153
118 134 155
118 134 154
116 132 152
118 134 154
114 130 150
119 135 156
117 133 154
116 132 153
116 132 152
119 135 156
114 130 151
119 135 156
118 133 154
117 132 152
116 131 152
119 135 156
116 131 151
115 131 151
117 133 154
119 135 156
116 132 152
117 133 153
119 135 155
118 133 154
117 133 153
116 132 152
117 132 152
119 135 156
117 133 154
116 132 153
116 132 153
117 132 153
117 134 155
117 133 154
117 133 154
116 132 153
118 134 155
119 135 156
115 130 151
120 136 157
116 131 152
117 133 154
116 131 151
117 132 152
117 133 153
116 132 152
116 132 153
117 133 153
117 133 154
116 132 152
118 134 154
119 135 156
120 136 158
120 136 157
119 135 156
120 136 156
118 134 155
118 134 155
118 135 156
118 134 156
117 133 154
121 137 158
121 138 160
120 136 157
118 134 154
119 135 156
120 136 157
119 135 156
119 135 157
119 136 157
116 132 153
120 136 157
120 137 158
118 134 155
119 134 155
118 135 156
118 134 155
120 136 158
118 134 156
115 131 150
118 134 155
119 135 157
119 135 156
117 133 154
118 134 155
118 135 156
117 133 154
116 132 152
120 136 157
117 133 154
115 131 151
121 137 159
117 133 154
117 133 154
119 135 156
119 135 156
120 136 158
119 136 157
118 134 155
117 133 153
119 135 157
117 133 153
117 133 153
118 134 154
117 132 153
119 136 157
118 134 155
116 132 153
119 135 156
119 135 156
120 137 158
117 133 154
118 134 155
121 137 159
117 134 154
120 136 157
116 132 153
116 132 153
117 133 154
115 131 151
118 135 156
117 133 154
117 133 154
120 136 157
121 137 158
120 137 159
121 137 158
119 136 157
118 133 154
119 135 155
120 137 158
115 131 151
117 133 154
118 134 155
114 130 150
116 132 153
118 134 155
117 133 153
117 133 153
116 132 152
116 132 153
120 135 156
118 133 154
120 136 157
116 132 153
118 134 155
118 133 154
121 138 159
120 136 157
119 135 157
118 134 155
118 134 155
118 134 155
117 133 154
121 137 159
118 134 155
116 131 152
120 136 156
116 132 152
115 130 151
117 133 154
120 136 157
116 132 152
116 132 153
119 136 157
119 135 156
117 133 155
116 131 151
117 133 154
117 133 154
120 136 157
118 134 154
116 132 152
118 134 154
118 134 155
117 133 154
119 135 156
116 132 153
118 134 155
115 131 151
119 135 156
118 134 155
119 135 156
118 134 155
115 131 151
119 136 157
120 136 158
118 134 155
118 134 155
118 134 155
115 130 151
116 132 152
118 134 155
118 133 154
118 134 154
115 131 151
114 130 150
120 136 157
118 133 154
118 133 154
117 132 153
117 132 153
117 132 153
118 133 154
115 131 151
114 129 149
116 132 153
118 134 154
119 135 156
119 134 155
118 134 155
116 131 151
116 132 153
114 129 150
117 132 153
118 134 155
117 133 153
118 134 154
116 131 151
118 133 154
116 132 153
117 133 153
120 137 158
117 133 153
118 134 155
114 130 150
114 129 150
116 132 152
115 130 150
117 133 153
118 134 154
118 134 155
118 134 154
117 132 153
118 133 154
117 133 154
116 132 152
115 130 150
115 131 151
114 129 150
121 137 158
118 133 154
119 134 155
117 133 154
116 132 153
117 133 154
118 134 155
118 134 155
118 134 154
116 132 153
116 132 152
119 136 157
119 135 156
114 130 149
118 134 155
120 136 157
119 135 155
117 132 153
117 133 154
118 133 154
120 137 159
118 134 155
117 132 153
119 135 155
115 131 151
117 133 154
116 132 152
116 132 153
117 133 153
120 136 157
119 135 155
117 133 154
117 133 153
120 136 157
118 134 155
118 134 155
116 131 152
120 135 156
115 131 151
115 131 151
119 135 157
117 133 154
117 132 153
118 134 155
118 134 155
118 134 154
117 133 153
117 133 154
117 132 153
119 135 156
119 135 156
120 136 157
117 133 155
116 131 152
120 136 156
119 135 156
119 136 157
117 133 154
118 133 154
116 132 152
118 134 155
117 133 154
120 137 158
118 134 156
120 136 158
117 132 153
118 135 156
120 136 157
119 136 157
118 135 156
119 135 156
118 134 155
121 137 158
119 135 156
118 134 155
120 136 156
118 134 155
120 136 156
120 135 156
118 134 155
118 134 155
119 135 156
117 133 154
115 131 152
121 138 160
120 136 157
120 137 158
119 135 156
119 135 156
116 132 153
116 132 153
118 135 156
119 135 156
120 136 158
118 135 156
117 133 154
119 135 157
119 135 157
121 138 159
119 135 156
117 133 154
122 138 160
118 134 155
118 134 155
120 136 158
117 133 154
120 136 157
120 136 158
122 139 161
118 133 154
118 134 155
118 134 155
120 137 158
118 134 155
116 132 153
121 137 159
118 134 155
119 135 157
119 136 157
116 132 153
121 136 157
117 132 153
117 133 154
115 131 151
115 130 151
115 130 151
119 135 157
118 134 155
118 134 155
120 136 158
116 132 152
118 134 155
118 134 155
122 139 161
119 135 156
117 133 154
117 133 154
121 137 158
119 135 157
117 132 153
117 133 154
118 134 154
115 131 151
118 134 155
119 135 156
116 132 152
118 134 154
119 135 156
117 133 153
120 137 158
119 135 156
119 136 157
117 133 154
116 131 152
118 134 156
116 133 154
118 134 155
117 133 154
118 134 155
119 136 157
118 134 155
118 134 155
119 135 157
120 136 157
119 135 156
116 133 154
118 134 155
121 137 158
117 132 153
118 135 156
117 133 154
118 133 154
119 135 155
121 137 159
118 134 155
121 137 158
116 132 152
116 131 152
119 135 156
120 136 157
116 131 152
117 133 154
116 132 152
117 132 153
118 134 155
118 134 155
115 131 152
116 132 152
118 134 155
117 133 154
117 133 154
115 131 152
116 131 152
119 135 156
117 132 153
118 133 154
118 134 155
118 134 154
118 134 155
117 133 154
118 134 155
116 132 152
117 132 153
114 129 149
117 132 153
119 134 155
118 134 155
116 132 153
120 136 157
120 136 157
117 132 153
118 133 154
118 134 154
118 134 155
117 134 155
117 133 153
119 134 155
114 130 150
118 134 155
119 135 157
118 134 155
116 132 153
117 132 153
118 134 155
117 133 153
118 134 155
114 130 150
115 130 151
116 132 153
118 134 155
120 137 158
120 136 157
117 132 153
117 133 154
117 133 154
114 129 150
118 134 154
115 130 150
115 131 152
114 130 150
114 130 150
117 132 153
118 133 154
119 136 157
119 135 156
116 132 153
116 132 153
117 132 153
117 133 154
119 135 155
119 134 155
115 131 151
118 133 154
118 133 154
120 136 157
119 135 156
116 132 152
116 132 153
116 131 151
117 133 153
120 136 158
116 131 152
117 133 153
115 131 152
116 132 152
118 134 155
116 132 153
118 134 155
118 134 155
118 134 155
117 133 153
121 137 158
119 135 156
118 134 155
116 132 153
118 133 154
116 132 152
120 136 157
119 136 157
118 134 155
118 134 155
117 132 153
117 133 153
118 134 155
120 136 157
118 134 155
120 136 157
118 134 155
118 134 155
119 135 156
119 135 155
120 136 157
118 134 155
117 133 154
120 137 158
118 134 155
115 130 150
118 134 155
117 133 154
119 134 155
118 134 155
118 135 156
120 136 158
118 134 155
117 132 152
116 132 153
120 136 158
119 135 156
117 133 153
118 134 155
119 135 156
120 136 158
123 140 162
120 137 158
116 131 152
119 135 157
119 136 157
115 131 152
120 137 158
121 137 159
115 131 152
116 132 153
119 136 157
117 133 154
120 136 157
117 133 154
117 132 153
120 137 158
120 136 158
117 133 154
122 138 160
119 135 156
118 134 154
117 133 154
117 133 154
120 137 158
116 132 152
122 139 161
121 138 159
115 131 152
117 133 154
120 136 158
117 132 153
119 135 156
117 134 154
119 136 157
118 134 155
119 135 156
119 135 157
118 135 156
117 132 153
118 134 155
119 135 156
119 135 157
120 136 158
120 136 157
120 136 158
117 133 153
117 132 153
116 132 153
117 133 154
117 133 153
119 135 156
118 134 156
118 135 156
121 137 158
119 134 155
120 136 158
119 135 156
118 134 155
117 133 154
114 130 150
117 133 154
118 134 156
120 136 158
118 134 155
117 133 153
121 137 159
117 132 153
119 136 157
118 134 155
119 135 156
118 134 155
117 133 153
119 135 156
117 133 154
115 131 151
117 133 154
119 135 156
120 136 158
118 134 155
119 136 157
117 133 154
119 135 156
118 134 155
116 133 154
114 129 149
116 131 151
119 136 157
117 133 153
119 135 156
116 131 151
116 132 152
116 132 152
119 135 156
119 136 157
117 133 154
119 135 157
119 135 156
117 133 153
117 132 153
117 133 154
118 134 155
117 133 154
119 135 156
119 135 156
117 133 154
120 136 157
117 133 154
119 135 156
118 134 155
120 137 158
121 137 158
114 130 150
119 136 157
118 134 155
115 131 152
118 134 155
117 133 154
116 131 152
120 136 157
117 133 153
117 132 153
117 133 154
117 133 153
117 132 153
118 133 154
121 137 158
118 134 155
117 132 152
120 136 157
117 133 154
119 135 156
118 134 155
116 131 152
117 133 153
117 132 153
117 133 154
118 134 155
114 130 150
117 133 153
116 132 153
118 134 155
117 133 153
118 133 154
118 135 156
115 131 151
116 132 153
120 136 157
118 134 155
117 133 154
117 133 154
120 135 156
117 133 153
119 135 155
118 133 154
117 132 153
116 131 151
118 134 155
120 137 158
117 133 154
117 133 154
119 135 156
115 131 151
117 132 153
118 134 154
117 133 153
118 135 156
120 135 156
115 131 151
118 133 153
114 130 150
118 133 153
116 132 153
116 131 152
117 133 153
119 136 157
117 133 154
115 131 151
119 135 156
118 134 155
120 136 157
117 133 154
116 132 153
119 135 156
118 133 154
119 135 155
116 132 152
119 135 156
117 133 155
120 136 157
116 132 152
119 134 155
118 134 155
116 132 152
118 134 154
115 130 150
117 133 154
118 133 154
118 134 155
118 133 154
119 135 157
118 134 155
119 135 156
118 134 155
117 133 153
116 132 153
118 134 155
118 134 155
117 134 155
119 134 155
118 134 155
116 131 152
120 137 158
121 137 159
119 135 156
119 135 156
119 135 156
118 134 154
118 134 155
118 134 155
117 133 153
117 133 153
118 134 155
119 135 156
119 136 158
117 132 153
120 136 157
116 131 152
115 130 151
119 135 156
117 133 154
121 138 159
120 136 158
122 138 159
118 135 156
120 136 157
121 137 159
116 132 153
119 135 156
118 134 155
120 136 157
120 136 158
120 136 158
118 134 155
117 134 155
118 135 156
120 137 158
118 134 155
117 133 154
117 133 154
117 133 154
115 130 151
118 135 156
122 138 160
119 135 156
119 135 157
118 133 154
118 134 155
116 133 153
120 137 158
118 134 155
116 132 152
120 136 158
117 133 154
118 134 154
119 135 155
116 132 153
119 136 157
119 134 155
116 132 152
115 130 151
120 136 157
120 136 158
119 136 157
121 137 158
117 133 154
118 134 155
119 135 156
120 135 156
120 136 158
121 137 159
118 134 155
119 135 156
118 134 155
119 135 156
122 139 161
119 136 157
120 136 157
117 134 154
119 135 156
120 136 158
117 133 154
118 134 155
119 136 158
119 136 157
120 136 157
118 134 154
119 135 156
120 136 157
116 131 152
119 135 157
116 131 151
120 137 158
119 136 157
117 133 154
120 136 157
120 136 157
117 133 153
121 137 159
120 136 157
116 132 153
120 136 157
120 136 157
117 132 153
117 133 153
120 136 157
114 129 149
120 137 158
114 130 150
118 133 154
117 133 153
119 135 156
119 135 156
116 132 154
117 132 153
118 133 154
121 137 158
117 133 153
115 130 150
118 135 156
120 136 157
115 131 152
118 135 156
118 134 155
119 135 155
118 134 155
118 134 154
117 133 154
118 133 153
117 133 154
116 132 153
118 134 155
118 134 155
118 134 155
120 136 157
118 134 155
120 136 158
118 134 155
119 134 155
117 133 154
118 134 156
117 133 154
118 134 155
117 133 154
113 128 147
120 136 157
119 134 155
119 135 156
116 131 151
115 131 151
116 132 153
119 136 157
117 132 153
118 134 155
117 133 154
118 134 155
119 135 156
114 130 150
116 131 151
120 136 158
121 138 159
117 133 154
115 130 151
119 135 156
119 135 156
118 134 154
118 134 155
117 133 153
117 132 153
120 136 157
117 133 154
117 133 154
120 136 157
120 136 157
119 134 155
118 134 154
115 130 151
118 134 155
117 133 154
118 134 154
117 133 154
115 130 151
116 132 153
116 132 152
120 136 157
117 133 154
116 132 153
115 131 151
117 132 153
116 131 152
118 134 155
117 133 154
117 133 154
119 135 156
118 133 154
118 134 155
119 135 156
115 130 151
120 136 157
117 132 153
116 132 152
117 133 153
115 131 151
118 134 154
117 133 154
119 135 155
117 133 154
120 136 157
119 135 156
117 132 153
117 132 153
117 132 152
119 135 156
118 134 155
118 134 155
116 132 152
119 135 155
117 133 153
117 132 153
117 133 154
121 137 159
117 132 153
116 131 152
116 132 153
119 136 157
117 132 153
118 134 155
119 135 156
117 132 153
118 133 154
120 136 157
119 135 156
117 133 153
120 136 157
118 134 155
118 134 155
120 136 158
120 136 157
118 134 155
118 134 155
120 136 158
118 133 154
122 139 161
121 137 158
117 133 155
117 133 154
118 134 154
119 135 156
121 137 158
119 135 156
113 128 148
119 136 157
116 132 152
120 136 157
118 134 155
118 134 154
119 135 156
118 134 155
117 133 154
120 137 158
118 134 155
120 136 157
118 134 155
118 134 154
121 137 159
122 138 160
120 136 158
122 138 160
118 134 156
119 135 156
117 133 154
119 135 156
117 133 154
119 135 156
119 135 156
119 135 156
119 136 157
120 136 158
121 137 159
116 132 153
120 136 157
116 132 153
118 135 156
117 133 154
119 135 156
121 137 159
120 136 157
120 136 157
116 132 153
118 134 155
120 136 157
116 131 152
121 137 159
117 133 154
120 137 158
117 133 154
119 135 156
119 135 156
118 135 156
119 136 157
118 134 155
118 134 155
121 137 159
118 133 154
119 135 156
119 135 156
117 133 153
120 137 158
118 134 155
120 136 157
119 135 156
119 135 156
120 136 158
118 134 156
121 137 159
120 136 157
118 134 154
119 135 156
118 134 155
117 133 154
119 135 156
118 134 155
118 135 156
119 135 156
117 133 154
118 134 155
117 133 154
120 136 157
115 131 152
118 134 155
120 136 158
121 137 159
118 134 156
121 137 158
119 136 157
114 130 151
120 136 158
121 137 158
117 132 153
118 134 155
120 137 158
116 132 152
119 135 157
117 133 154
117 133 154
114 130 150
116 131 152
120 136 157
118 135 156
118 134 155
117 133 154
119 135 156
117 133 154
118 133 154
119 135 157
119 135 156
116 131 152
118 134 155
116 132 153
118 134 154
118 134 155
117 133 154
118 134 154
117 133 154
119 135 156
117 132 152
118 134 155
117 132 153
119 135 156
119 135 156
117 133 154
118 134 155
117 133 153
117 133 154
119 136 157
118 134 155
119 135 156
115 131 151
118 134 155
119 135 157
119 135 156
117 133 154
118 133 154
117 133 154
121 137 158
120 136 158
116 131 151
120 136 158
120 136 157
118 134 155
117 133 154
117 133 154
122 137 159
116 132 153
118 134 155
117 133 154
119 136 157
120 136 157
120 136 157
117 133 154
118 134 155
117 133 154
117 133 154
118 134 155
119 135 156
118 134 155
117 133 153
118 134 156
118 133 154
118 133 154
117 132 153
116 132 152
118 134 155
116 131 152
117 133 153
116 132 152
116 132 152
119 136 157
118 133 154
114 130 150
117 133 153
115 131 151
118 134 155
119 135 156
116 132 153
118 134 155
117 133 154
117 133 154
118 134 155
118 134 156
117 132 153
118 134 155
117 133 153
118 133 154
118 134 154
117 132 153
115 131 151
117 133 153
116 131 152
120 136 158
116 132 153
118 134 156
117 133 153
116 132 153
120 136 157
119 135 156
118 134 155
118 134 155
119 135 155
118 133 154
117 133 155
120 136 158
118 133 154
120 136 157
116 132 152
120 137 158
118 134 154
120 136 158
122 138 160
118 134 155
117 133 153
116 132 153
116 132 152
119 135 156
119 135 156
117 133 154
117 133 154
114 129 149
119 135 157
116 132 153
118 134 155
119 135 156
117 133 154
117 133 154
119 135 157
119 135 156
118 134 155
120 136 157
120 136 157
118 134 155
117 132 153
119 135 156
119 135 155
117 133 154
117 134 155
118 134 155
119 135 157
121 138 159
117 133 154
120 137 159
121 137 158
121 136 157
120 136 157
120 136 157
119 135 156
118 134 155
118 134 155
120 136 156
120 136 157
119 135 156
120 136 157
120 137 159
119 136 157
120 137 159
119 135 156
119 135 156
120 136 157
119 135 156
118 134 155
119 135 156
120 137 158
118 134 156
121 137 159
120 136 157
119 135 156
118 134 155
121 137 158
117 133 154
119 135 155
118 133 154
120 136 157
119 135 156
119 135 157
121 137 158
118 134 155
118 134 155
118 135 156
120 136 158
116 132 153
119 135 156
118 133 154
120 135 156
119 135 156
120 137 158
119 135 156
118 134 154
119 136 157
119 136 157
119 135 157
119 136 157
117 133 153
117 133 153
119 136 157
119 135 156
121 137 159
121 137 158
119 135 157
120 136 157
117 133 154
120 137 158
119 135 156
120 137 158
119 135 156
118 134 156
119 134 155
118 133 154
120 136 157
117 133 154
118 134 155
119 135 156
119 135 156
121 138 159
116 131 152
119 135 156
117 133 154
116 132 152
117 133 154
119 136 157
116 132 153
120 137 159
118 133 154
121 137 158
119 135 156
119 135 156
120 136 157
117 133 154
118 135 156
118 133 154
117 133 154
119 135 156
119 135 156
119 135 156
120 136 156
118 134 155
121 137 159
116 132 152
120 136 157
119 136 157
117 133 153
119 135 156
119 135 156
116 132 152
119 136 157
116 132 153
121 137 158
119 135 157
117 133 154
118 134 155
120 137 158
117 133 154
117 133 153
120 136 157
121 138 159
118 135 156
117 133 154
117 133 153
119 135 156
121 138 159
116 132 152
121 137 158
120 136 157
121 137 158
118 134 155
118 134 155
117 133 155
119 135 156
117 133 154
119 136 157
118 133 154
118 133 154
119 136 157
119 135 156
117 132 153
122 138 160
119 135 156
120 137 158
117 132 153
119 136 157
119 134 155
119 135 156
113 129 149
118 134 155
120 136 157
119 136 157
120 136 157
118 133 154
118 134 154
116 132 152
119 134 155
121 137 159
119 135 156
115 131 151
121 137 158
118 133 154
121 137 159
119 136 157
117 133 154
120 137 158
120 136 157
116 132 153
121 137 158
118 134 155
118 133 154
114 130 151
119 135 155
114 130 150
118 134 155
119 136 157
117 133 154
118 134 154
120 136 157
120 137 158
119 134 155
116 132 152
119 135 155
120 136 157
118 134 154
118 133 154
117 132 153
120 137 158
118 134 155
117 133 154
114 130 150
119 135 156
120 136 157
118 134 155
117 133 153
116 132 152
117 133 154
118 134 155
117 133 153
122 138 159
119 135 156
118 134 155
118 134 155
120 136 157
117 134 155
118 134 155
118 134 155
117 132 152
119 135 156
117 133 154
118 133 154
120 136 157
119 135 156
117 133 153
120 136 158
119 134 155
117 133 153
114 129 149
118 134 155
118 134 155
120 136 157
118 134 154
118 134 155
114 130 150
119 135 156
122 139 160
116 132 152
116 132 153
121 137 158
119 135 156
119 134 155
118 134 155
119 136 158
117 133 154
117 132 152
119 135 156
120 137 158
119 135 156
117 132 153
118 134 156
118 134 156
119 136 158
119 135 156
116 131 151
117 134 154
119 135 156
119 135 156
118 134 155
115 131 151
117 133 154
123 139 161
117 133 153
117 133 154
119 135 157
117 133 154
118 134 154
119 136 157
119 135 156
120 136 157
119 135 156
119 136 158
120 137 158
117 133 154
119 135 157
120 137 158
117 133 153
119 135 157
120 136 158
120 137 158
120 136 157
122 139 161
122 138 159
120 136 158
117 133 154
118 134 155
119 135 156
117 133 154
120 136 158
120 136 157
119 135 156
117 133 154
119 135 156
118 134 155
119 135 156
117 133 154
118 134 155
121 137 158
120 136 158
119 135 156
118 134 155
119 135 156
120 137 158
119 135 157
119 135 156
118 134 155
119 135 156
118 134 155
118 133 154
118 134 155
119 135 157
118 135 156
117 134 155
118 134 155
118 134 155
121 137 159
120 136 158
117 133 154
117 132 153
116 132 152
118 135 156
121 137 159
117 133 153
119 135 156
119 136 157
118 133 154
121 138 160
116 131 152
119 135 157
115 130 150
117 133 153
121 138 159
120 136 157
120 137 158
116 131 152
121 138 159
116 132 152
121 138 159
120 137 158
117 133 154
113 129 149
120 136 158
117 133 154
118 134 154
117 133 153
117 133 154
115 131 152
118 134 155
117 133 153
115 131 152
118 134 155
115 131 151
118 134 155
118 134 155
118 134 154
118 134 155
115 130 151
118 134 154
120 136 157
116 131 152
118 134 155
119 135 156
117 133 154
118 134 154
117 133 154
120 136 157
122 138 159
118 134 155
118 134 155
120 136 158
115 130 150
117 132 153
120 135 156
121 137 158
120 136 157
120 137 158
118 133 154
118 134 156
118 133 154
117 133 153
119 135 156
118 133 154
118 134 155
121 137 158
116 132 152
120 136 157
118 134 154
119 135 156
119 135 156
119 135 156
116 132 152
119 135 156
117 133 154
118 134 156
118 134 155
118 134 155
119 135 156
118 134 155
116 132 153
120 136 158
120 136 157
118 135 156
118 135 156
119 135 155
121 137 159
120 136 157
119 134 155
120 136 158
116 132 152
120 136 157
119 136 158
119 135 155
118 134 155
114 130 151
118 134 155
117 133 154
119 135 156
118 133 153
119 135 156
118 134 155
121 137 159
117 133 154
117 133 154
118 134 155
121 137 159
121 137 159
120 136 157
118 134 154
117 133 155
116 132 152
117 132 153
117 133 154
117 133 154
117 133 154
115 130 151
119 135 157
118 134 155
118 134 155
120 136 157
118 134 154
119 135 156
118 133 154
118 134 154
118 134 155
117 133 154
118 134 155
119 135 156
118 133 154
120 136 157
120 136 157
119 135 156
118 135 156
117 133 154
117 133 153
116 131 151
122 138 159
117 133 155
117 133 153
119 135 156
119 135 156
118 134 154
118 134 155
122 138 159
120 137 158
120 136 157
118 135 156
118 134 155
120 137 158
116 132 153
121 137 158
117 133 154
118 134 155
117 133 153
117 133 154
120 136 157
119 135 156
118 134 155
118 134 154
117 133 154
117 133 154
119 135 157
120 136 157
118 134 156
119 135 156
117 133 154
118 134 154
121 137 159
119 136 157
118 134 155
118 134 155
122 138 159
120 136 157
118 135 156
119 136 157
118 134 155
117 133 153
119 135 156
116 132 153
115 130 151
118 134 155
118 134 155
119 136 157
116 132 152
120 137 158
117 133 154
117 132 153
117 133 154
117 134 155
119 135 155
117 133 154
118 135 156
118 134 155
120 136 157
118 134 154
120 136 157
120 136 157
118 134 155
122 139 160
119 135 156
119 135 156
120 136 158
119 136 157
119 136 157
118 134 154
119 136 157
120 137 158
116 132 153
120 137 158
120 136 158
120 136 157
119 135 156
119 135 155
119 135 156
118 134 155
118 135 156
119 135 157
121 137 158
118 134 156
118 134 154
118 134 155
120 136 158
122 138 160
120 136 158
117 133 154
119 135 156
117 134 155
117 133 154
116 132 153
119 135 156
121 137 158
119 135 156
119 136 157
118 134 155
119 136 158
119 135 156
119 136 157
117 133 153
120 136 157
119 135 156
119 135 156
117 133 153
118 134 155
117 133 154
120 137 158
118 134 154
122 138 160
119 135 156
117 133 154
121 137 159
116 131 152
118 135 156
118 135 156
118 134 155
119 136 157
120 136 157
119 135 156
119 136 158
120 137 158
119 135 156
119 135 156
118 135 156
119 135 156
118 134 155
120 137 158
121 137 158
117 134 155
118 135 156
117 133 154
119 136 157
117 133 154
118 134 154
118 134 154
121 137 158
119 135 156
118 134 154
119 135 156
118 134 154
120 136 157
119 135 156
120 136 157
120 137 158
117 132 153
119 135 156
119 135 156
118 134 156
121 137 158
118 134 155
119 134 155
117 133 153
116 132 153
116 131 152
118 133 154
119 135 156
118 134 155
118 134 155
117 133 154
119 136 157
119 135 156
117 132 153
119 135 156
118 133 154
117 133 154
115 131 151
116 131 152
118 134 155
119 135 156
121 137 158
119 136 157
119 135 156
117 133 154
117 133 154
115 130 150
118 134 155
118 134 155
117 132 153
118 134 155
120 136 157
120 136 157
118 134 156
120 136 157
120 137 158
118 134 155
119 135 156
117 133 153
119 135 157
117 133 154
118 134 155
120 137 158
118 133 154
117 133 154
119 136 157
119 135 156
116 132 153
120 136 157
119 135 157
119 135 156
118 134 155
117 132 153
120 136 157
120 137 158
117 133 153
120 136 157
119 135 156
121 136 157
119 136 157
116 131 152
118 134 154
117 132 153
116 132 152
119 135 156
118 134 155
119 134 155
119 135 156
118 134 155
115 131 151
119 135 156
118 135 156
118 134 154
117 132 153
121 137 158
119 135 156
120 136 157
117 133 154
120 136 156
121 137 159
118 134 156
119 135 156
119 135 156
119 135 157
119 135 155
118 134 155
117 132 153
118 135 156
118 134 154
116 131 152
116 132 153
119 135 156
121 137 158
117 133 154
120 136 157
121 137 158
117 133 153
118 134 154
118 134 155
118 133 154
117 133 154
118 134 155
119 135 157
117 133 153
118 133 154
119 135 157
119 136 157
118 133 154
117 132 153
116 132 154
119 135 156
119 135 156
117 134 154
120 136 158
117 133 153
120 136 157
118 134 154
118 134 155
120 136 157
120 136 157
118 133 153
118 135 156
117 132 153
118 134 155
119 135 156
117 133 154
119 136 157
118 134 154
117 133 154
121 137 159
118 134 154
120 137 158
120 136 158
119 135 156
117 133 153
118 134 155
119 135 156
120 136 157
117 133 154
121 137 158
115 131 152
119 135 156
117 133 153
118 134 155
117 133 154
119 135 157
120 136 157
119 136 157
119 135 156
120 136 156
119 135 156
120 136 158
119 135 156
121 138 159
118 134 155
118 134 155
119 135 156
118 134 155
119 135 157
118 134 156
119 135 157
118 133 154
118 134 155
120 136 157
119 135 157
120 136 157
118 134 156
119 135 156
121 137 158
118 134 155
120 137 158
119 136 157
116 132 152
120 136 158
121 138 160
121 137 158
118 134 155
120 136 158
119 135 156
118 134 155
118 134 154
119 135 156
119 136 157
121 138 159
118 134 155
119 135 157
121 137 158
115 131 151
117 133 154
121 137 158
119 134 155
120 136 157
118 134 154
118 134 154
116 131 152
118 133 154
121 137 158
118 134 155
120 136 157
116 132 152
121 137 158
117 134 155
119 135 156
118 134 156
118 134 155
119 135 156
118 134 155
117 133 153
123 139 161
119 135 156
117 133 154
120 136 157
119 135 156
120 136 158
120 136 158
119 136 157
120 136 157
118 134 155
122 138 160
119 135 156
122 138 160
117 133 154
118 134 155
118 135 156
119 135 156
117 133 154
120 136 157
116 132 152
120 136 157
118 134 155
117 133 154
117 133 154
120 136 158
118 134 154
119 135 156
117 132 153
120 136 157
118 134 155
118 134 154
117 133 154
117 133 153
118 134 155
121 136 157
120 136 158
120 136 157
120 136 157
118 134 155
120 136 157
118 134 155
117 132 153
120 136 157
119 135 156
115 131 151
119 136 157
118 133 154
119 136 158
116 132 152
118 134 155
118 135 156
117 133 153
118 134 155
119 135 156
117 134 155
116 132 153
120 136 157
117 132 153
116 132 152
120 136 157
118 134 155
118 134 154
119 135 156
115 130 150
118 134 156
118 134 155
118 133 154
119 135 156
118 133 154
117 132 153
118 134 155
120 136 157
119 135 156
117 134 155
118 134 154
120 136 157
119 136 157
116 132 152
119 135 156
119 135 155
120 136 157
118 134 154
119 134 155
119 134 155
118 134 156
119 135 156
118 134 155
120 137 158
120 136 157
120 136 157
120 136 158
118 134 155
120 136 158
121 137 158
120 136 158
116 132 152
119 134 155
119 135 156
118 134 155
117 133 154
119 135 156
120 136 158
119 135 156
119 135 156
118 134 155
117 132 153
119 135 156
118 134 155
115 130 150
120 137 158
118 134 155
116 132 153
119 135 156
120 136 156
118 133 154
118 134 154
120 136 157
119 136 157
116 131 152
118 134 156
119 135 156
117 133 153
118 134 155
118 134 155
117 133 154
119 135 156
119 135 156
120 136 157
118 134 154
119 135 156
117 133 153
118 134 155
118 134 156
119 135 155
116 132 153
121 137 158
116 133 154
118 134 155
117 132 153
118 134 155
118 134 156
119 136 157
118 134 154
119 135 157
120 136 157
119 135 157
119 135 156
122 138 160
120 136 157
117 132 152
118 134 155
118 135 156
119 135 155
117 133 153
118 134 155
119 135 156
119 135 156
118 133 154
120 136 157
115 131 151
119 135 156
121 137 158
117 132 153
120 136 157
118 134 155
118 134 155
118 134 154
119 135 156
119 135 156
116 131 152
120 136 158
119 135 156
118 134 155
121 137 158
118 134 155
115 131 151
119 135 156
121 137 158
117 133 154
118 134 155
118 134 154
116 132 152
121 137 158
121 138 159
119 135 156
115 130 150
118 134 155
118 134 154
117 133 154
122 139 160
120 137 158
121 137 159
119 135 156
118 134 155
119 136 157
118 135 156
118 134 155
120 136 158
114 130 150
117 133 154
118 134 155
121 137 158
119 136 157
119 135 156
118 134 154
120 137 158
118 134 155
120 137 158
120 136 157
121 137 158
120 137 159
116 132 153
120 137 158
118 134 155
120 136 157
121 137 158
118 134 155
118 134 155
117 132 153
122 138 160
121 138 160
118 134 156
120 137 158
120 136 157
120 136 157
115 131 151
121 137 159
121 137 158
118 134 156
118 134 155
119 135 156
118 134 155
118 134 155
117 133 153
119 135 157
121 137 158
116 132 153
118 134 156
119 135 156
117 133 154
118 134 155
117 133 154
118 135 156
120 137 158
121 137 159
119 134 155
117 133 154
118 134 154
121 137 159
117 133 154
118 134 154
119 135 156
120 136 158
117 133 154
117 133 154
119 136 157
118 134 155
120 136 157
116 132 153
119 136 157
118 135 156
122 138 160
120 136 158
116 132 153
121 137 158
120 136 157
119 135 156
120 136 157
118 133 154
115 131 151
124 141 163
117 132 153
117 132 153
121 137 158
120 137 158
119 135 156
118 134 155
118 133 154
119 135 157
119 135 156
120 137 158
118 134 155
120 136 158
122 138 160
116 132 152
117 133 155
118 134 155
119 135 156
120 136 157
116 132 152
119 136 157
117 133 154
116 132 152
117 133 153
118 134 154
120 136 158
119 135 157
120 136 157
119 135 156
121 137 158
120 136 157
115 130 151
119 135 156
117 133 154
115 131 151
120 136 157
122 138 159
120 137 159
115 130 150
117 133 153
117 133 153
118 134 155
120 136 157
122 137 158
118 134 155
116 131 152
120 137 158
118 134 156
118 135 156
119 135 156
118 133 154
115 131 152
118 134 155
122 138 159
119 135 156
117 134 154
119 135 155
120 136 157
115 131 152
117 133 154
118 134 154
118 134 155
118 134 154
120 136 157
120 136 157
115 131 151
120 136 158
119 135 156
116 132 153
118 134 155
118 134 155
118 134 155
118 134 155
118 134 155
117 133 154
121 137 158
118 134 155
119 136 157
118 134 155
119 135 156
116 132 153
118 134 155
121 137 159
120 136 157
119 135 155
121 137 159
116 132 153
116 132 153
119 135 156
117 132 153
119 135 156
120 136 157
119 136 157
118 134 155
121 137 159
117 133 154
121 137 159
118 135 156
119 135 156
118 134 155
118 134 156
120 136 157
119 135 155
117 133 154
118 135 156
118 134 155
119 135 156
121 138 159
119 135 156
119 135 155
120 136 157
121 137 158
117 132 153
118 134 155
116 132 153
118 133 154
117 133 154
117 133 154
118 134 154
118 134 154
119 135 156
119 135 157
118 134 155
115 131 151
120 136 157
120 136 157
117 133 153
120 135 156
118 134 155
115 131 152
119 135 156
119 135 156
117 134 155
119 135 157
119 135 156
118 134 155
119 135 156
118 134 155
121 137 158
119 135 156
120 136 157
118 134 156
119 135 156
120 137 159
118 134 156
120 136 158
119 135 157
120 136 158
121 137 159
121 138 160
119 135 156
118 135 156
117 133 153
120 136 158
116 132 152
120 136 157
119 136 157
121 138 160
119 135 156
120 136 157
120 137 158
119 135 156
119 135 156
120 137 158
120 136 157
119 135 156
120 136 157
120 136 157
120 137 158
120 137 159
121 137 158
121 137 158
119 135 156
120 136 158
119 136 157
120 136 157
119 136 157
121 138 159
118 134 155
119 135 156
119 135 156
119 136 157
117 133 154
120 136 157
119 135 156
117 133 154
120 136 158
121 137 158
119 135 156
117 133 154
121 137 158
115 131 152
120 136 158
120 136 157
117 133 154
118 134 155
118 133 154
117 133 154
119 135 156
120 136 158
119 135 156
120 136 157
119 135 156
118 134 155
120 135 156
119 135 156
118 134 155
121 137 158
117 133 153
120 136 157
119 136 157
119 135 156
118 133 154
119 135 156
119 134 155
120 137 158
119 136 157
121 138 160
118 134 155
117 133 154
120 136 157
118 134 156
118 133 154
118 134 155
117 133 154
120 136 157
119 136 157
118 134 155
119 135 156
119 135 156
119 135 156
122 138 160
120 137 158
116 132 153
121 137 159
119 136 157
119 135 156
118 135 156
118 134 155
118 134 154
116 132 153
119 136 157
117 133 154
116 132 153
121 137 159
119 135 156
119 135 157
121 137 159
120 136 157
120 136 158
116 132 153
121 138 160
120 137 158
121 138 159
119 135 156
118 134 155
117 132 153
118 134 155
119 136 157
121 137 158
117 133 154
117 133 154
119 135 156
122 138 160
121 137 159
118 134 155
119 135 156
118 134 156
118 134 155
116 131 152
118 134 156
119 134 155
119 135 156
115 131 151
120 136 157
117 133 153
118 133 154
116 132 154
118 135 156
118 134 155
118 133 154
120 137 158
118 133 154
119 135 156
119 135 156
121 137 158
119 135 157
119 135 156
120 137 158
118 134 155
117 133 153
120 137 158
124 141 162
119 135 156
118 134 156
119 135 155
120 137 158
118 135 156
115 130 150
120 136 157
118 134 154
120 136 157
119 135 156
117 133 154
120 136 158
119 135 156
119 135 156
119 135 156
119 135 156
119 135 156
117 133 154
120 136 157
118 134 155
119 135 156
118 134 155
117 133 154
116 132 153
118 133 154
120 137 159
119 135 156
116 131 151
119 135 157
118 134 155
120 136 157
119 135 156
119 135 156
116 131 152
118 134 155
118 134 156
118 134 155
119 136 157
122 138 159
117 134 155
119 135 156
119 135 156
117 133 154
120 135 156
119 135 157
117 133 154
116 132 153
121 137 159
116 132 153
120 137 158
119 135 157
119 135 156
119 135 157
119 136 157
118 135 156
116 132 153
118 134 154
118 135 156
119 135 156
118 134 155
118 134 154
120 136 157
121 137 158
116 131 151
120 136 157
119 135 156
118 134 155
117 133 154
118 134 155
116 131 152
119 135 156
118 133 154
119 135 156
119 135 156
119 135 155
120 136 157
117 133 155
118 134 155
119 135 156
120 136 158
119 135 157
119 136 157
120 136 157
119 135 156
117 132 152
120 136 157
117 133 154
118 133 154
119 135 156
119 135 156
118 134 155
118 134 155
118 134 156
118 135 156
119 135 157
121 138 159
118 134 155
121 138 160
120 137 158
118 134 155
118 134 154
120 136 157
118 134 155
119 136 157
119 135 155
121 137 159
119 135 157
120 136 157
121 138 160
119 135 156
119 136 157
120 136 157
119 136 157
120 136 157
121 137 159
119 135 156
122 139 160
118 133 154
117 133 154
120 136 158
120 136 157
120 136 157
120 136 156
120 136 157
120 136 157
120 136 157
119 135 156
118 134 154
120 136 157
120 136 157
117 132 153
121 137 158
120 137 158
118 134 155
119 136 157
115 131 152
117 133 154
120 137 158
118 133 154
120 136 157
120 136 158
117 133 154
122 138 160
117 133 153
116 132 153
121 137 158
120 136 157
120 136 157
119 135 156
117 133 154
120 136 157
117 133 154
122 138 159
120 136 158
120 136 158
119 135 156
116 131 152
123 139 161
117 133 154
119 135 156
121 138 160
116 132 153
116 132 152
118 134 154
118 134 154
117 133 153
119 135 156
119 135 156
120 136 157
120 136 158
119 135 156
118 134 155
120 136 158
117 133 154
120 136 157
117 133 153
120 136 157
122 138 160
118 134 155
120 137 158
120 137 158
119 136 157
118 134 155
117 133 153
121 138 159
117 132 153
119 136 157
119 135 156
118 134 155
119 135 156
118 133 154
121 137 159
119 135 156
118 134 155
121 138 159
120 136 157
119 135 156
119 135 156
119 135 156
119 135 157
118 134 156
121 137 158
120 136 158
119 135 156
118 134 155
115 131 152
120 136 158
120 136 157
119 135 156
114 130 150
119 135 156
119 135 157
118 134 155
118 134 155
117 133 154
120 136 157
119 135 156
118 135 156
119 135 156
119 135 157
120 135 156
122 139 160
117 133 154
119 135 156
118 135 156
120 136 158
118 133 154
118 134 155
122 138 159
120 136 158
118 134 155
117 133 154
118 134 155
118 134 155
118 134 155
119 136 158
120 136 157
119 135 157
118 134 155
115 130 150
118 134 156
118 133 154
117 134 154
119 135 156
118 134 155
119 135 156
115 131 151
121 137 158
118 134 155
119 135 156
116 132 153
118 133 154
118 134 155
118 134 155
119 135 155
120 136 157
118 134 155
120 136 157
116 132 153
118 135 156
118 135 156
118 134 155
118 134 155
116 131 152
118 134 155
118 134 155
118 134 155
116 131 152
117 132 153
119 135 156
118 134 155
116 132 153
116 132 153
122 138 160
118 134 155
117 133 154
118 134 154
121 137 158
120 137 158
120 137 158
122 139 160
118 134 155
119 135 157
118 133 154
119 135 156
119 135 156
120 136 158
120 136 157
118 134 155
120 136 157
118 134 155
119 135 156
119 134 155
118 135 156
120 136 158
116 131 152
115 130 151
117 133 154
116 131 152
117 133 154
118 134 155
120 137 158
118 135 156
119 135 156
121 138 159
121 137 159
119 135 156
118 134 155
117 133 154
119 135 156
118 135 156
121 136 157
117 133 154
119 136 157
116 131 152
120 137 159
120 136 157
119 135 156
119 136 157
120 136 157
118 134 155
119 135 156
121 137 158
121 137 158
119 135 157
121 137 158
118 135 156
115 130 150
119 135 156
118 134 155
121 137 158
120 136 158
121 137 158
120 137 158
118 134 155
118 133 154
119 136 157
120 136 157
120 136 157
118 135 156
122 139 160
120 136 158
118 134 155
119 135 157
120 136 157
120 137 158
118 134 155
118 134 155
118 133 154
120 136 157
120 136 157
117 133 154
122 139 160
120 137 158
119 136 157
120 137 158
119 135 156
120 137 158
120 136 157
120 136 158
119 135 157
120 136 158
120 136 158
119 135 156
118 134 154
120 137 158
117 133 155
119 136 157
120 137 158
119 135 156
120 137 158
118 134 154
118 134 154
120 137 158
116 132 152
118 134 156
120 137 158
118 133 154
117 133 154
121 138 159
119 136 157
120 136 158
119 136 157
119 136 157
121 137 159
118 134 155
117 133 154
118 134 155
119 135 156
118 134 154
117 132 153
116 133 153
119 134 155
120 137 158
120 136 157
120 137 158
121 137 158
119 136 157
118 134 155
123 140 161
118 134 155
119 135 156
117 133 153
120 136 158
121 138 159
121 138 159
122 138 160
120 136 157
119 135 157
116 131 152
118 134 156
119 135 156
119 135 156
119 136 157
118 134 155
120 136 157
121 137 159
119 135 156
116 132 153
118 134 155
118 134 155
119 136 157
121 136 157
118 135 157
120 136 157
119 136 158
122 139 161
118 134 154
119 136 157
119 135 156
122 138 159
119 135 156
120 136 158
120 136 157
115 131 151
118 135 156
119 135 156
119 135 156
120 136 157
115 130 151
118 134 155
120 136 158
120 136 158
118 134 155
118 134 154
116 132 153
121 137 159
117 133 153
121 137 158
122 138 160
121 137 158
121 137 158
119 135 156
118 134 155
119 135 156
118 135 155
119 135 156
119 134 155
119 136 157
118 134 154
121 137 158
119 135 156
120 136 157
120 136 157
118 134 155
117 133 154
119 135 155
119 135 155
120 136 157
121 137 159
122 138 160
120 136 157
120 136 157
119 135 156
120 136 157
118 134 155
122 139 161
120 136 157
119 135 156
120 137 158
120 136 157
119 134 155
118 134 156
119 135 156
121 138 159
117 133 154
118 135 156
119 136 157
120 137 158
120 136 158
118 134 155
118 134 154
119 136 157
119 134 155
118 134 155
117 133 154
116 132 153
118 133 154
121 137 158
118 134 155
116 132 153
117 133 153
117 132 153
117 133 154
117 133 154
118 134 155
120 136 157
119 135 156
120 136 157
119 135 156
117 133 154
121 137 158
117 133 154
118 134 155
118 134 155
119 135 156
121 137 159
121 137 159
118 133 154
117 132 153
118 134 155
119 135 157
119 135 156
116 131 151
121 137 159
118 134 155
116 132 152
118 134 155
118 134 155
119 136 157
120 137 158
121 137 158
119 135 156
116 131 152
119 135 157
120 136 157
118 133 154
120 136 158
118 134 155
119 135 157
119 135 157
116 132 154
118 134 155
116 132 153
121 138 160
120 136 157
118 134 155
119 135 156
118 134 154
118 134 155
118 134 155
119 135 156
118 134 155
119 135 156
118 133 154
118 134 155
119 136 157
120 136 157
119 136 157
119 135 156
119 135 155
118 134 155
118 134 154
120 136 157
116 132 153
118 134 155
120 137 158
118 133 154
116 132 153
119 135 156
117 133 154
119 136 157
119 135 156
118 135 156
116 132 153
117 133 154
119 135 157
117 133 154
117 132 153
121 137 159
120 136 157
120 136 157
119 136 157
120 136 158
118 135 156
120 136 158
121 138 159
120 136 157
120 137 158
119 135 156
118 134 155
118 134 155
119 135 156
119 135 157
119 136 157
117 134 155
117 133 153
118 134 155
120 136 158
118 134 155
121 137 158
116 132 153
120 136 158
119 136 157
120 136 157
118 134 155
116 132 152
118 134 155
119 135 156
117 133 154
119 135 157
119 136 157
122 138 160
120 136 157
120 137 158
120 136 157
118 134 155
119 136 157
119 135 157
120 136 158
120 136 157
118 134 155
120 136 157
119 136 157
120 137 158
118 134 155
118 134 155
122 138 160
121 137 159
118 134 155
120 135 156
118 134 155
120 136 158
118 134 154
120 136 158
120 136 157
119 135 156
119 135 157
119 135 156
118 134 155
119 135 156
118 135 156
121 137 159
119 135 155
122 138 159
117 133 154
120 136 158
120 137 158
121 137 158
118 134 155
119 135 157
119 135 156
118 134 155
121 137 159
120 137 158
119 135 156
119 135 156
115 130 151
119 136 157
118 135 156
119 135 156
118 134 155
120 136 157
117 133 154
117 133 154
119 136 157
122 138 160
120 137 158
118 134 155
117 133 154
117 134 155
119 135 156
118 134 155
120 137 159
121 138 159
117 133 153
118 134 155
119 135 156
118 135 156
119 136 157
117 133 153
118 134 155
120 137 158
121 137 158
122 139 161
117 133 154
117 132 153
120 136 157
118 133 154
117 133 154
121 138 159
119 135 156
122 139 160
118 134 155
116 131 152
117 133 154
119 136 157
122 138 160
117 133 153
118 134 155
120 136 157
118 133 154
120 136 157
118 135 156
117 133 154
119 135 156
118 134 156
119 136 157
121 137 158
119 135 156
119 135 156
118 134 155
119 135 156
118 134 156
118 134 154
119 135 156
121 137 158
120 136 158
120 136 158
120 136 158
119 136 157
115 130 151
119 135 157
119 135 157
117 133 154
122 138 160
119 135 156
119 134 155
120 136 158
118 134 155
120 136 157
117 133 154
119 135 157
119 135 156
118 134 155
118 134 155
118 135 156
118 134 155
117 133 154
119 135 157
121 137 158
118 135 156
117 133 154
117 133 153
116 132 152
120 136 158
118 134 155
116 132 152
119 135 156
118 134 155
117 133 154
117 132 153
119 136 157
120 137 158
120 136 157
120 136 158
119 135 156
117 133 153
120 136 157
120 137 158
118 134 155
123 139 161
117 133 154
118 134 155
121 137 158
117 133 154
120 136 157
120 136 157
118 134 155
119 135 157
119 135 157
119 135 156
120 136 157
119 135 156
120 137 158
116 132 153
119 135 156
119 135 156
118 134 155
118 134 155
119 135 156
119 134 155
118 134 155
117 132 153
119 136 157
120 136 158
118 134 155
119 135 156
118 134 155
119 135 156
120 137 158
116 133 154
118 134 155
119 135 156
122 138 160
118 134 155
119 135 156
119 136 157
118 134 155
115 131 151
119 135 156
118 134 156
118 134 155
118 135 156
118 134 155
119 135 156
121 137 158
119 135 156
117 133 154
119 135 156
121 138 159
118 134 155
119 135 157
120 136 158
120 136 157
119 135 156
121 137 159
120 136 157
117 133 154
118 135 156
120 136 157
122 138 160
118 134 155
119 136 157
120 137 159
121 138 159
123 139 161
119 136 157
118 135 156
120 136 158
119 135 156
119 135 156
117 133 154
121 138 159
119 135 156
120 136 157
120 137 158
120 136 157
118 134 155
120 136 157
118 135 156
121 137 159
119 135 157
118 134 155
116 132 152
119 135 156
119 135 156
120 136 157
119 134 155
120 137 158
118 134 155
119 136 157
119 136 157
120 136 157
120 136 157
120 136 157
122 138 159
119 135 156
121 137 159
118 135 156
121 138 160
117 133 154
122 139 161
122 138 160
118 134 156
120 136 157
120 137 159
120 137 158
121 137 159
119 135 156
120 136 158
120 137 158
121 138 160
115 132 152
115 131 152
118 134 155
118 134 155
121 137 159
117 132 153
119 136 157
119 135 156
120 136 157
118 133 154
117 133 154
118 134 155
117 133 154
120 136 157
118 134 155
117 133 154
119 135 156
119 135 157
119 136 157
120 136 157
120 136 157
118 135 156
119 135 156
120 136 157
117 133 153
122 138 160
120 136 157
118 134 155
119 134 155
121 138 159
117 133 153
120 136 157
118 135 156
118 134 155
118 134 154
118 134 155
119 135 156
121 137 158
122 138 160
119 135 156
122 138 159
120 136 157
116 132 153
119 136 157
119 135 156
120 136 157
118 134 154
120 137 158
121 137 159
118 134 154
118 133 154
119 135 156
120 136 157
118 134 155
117 133 153
120 137 158
117 133 154
119 135 156
118 134 155
119 136 158
117 133 153
120 137 158
118 134 155
120 136 158
119 135 156
119 135 156
118 135 156
120 136 157
119 135 156
118 133 154
120 136 157
119 136 157
120 136 157
119 134 155
117 133 153
119 135 156
120 136 157
118 134 156
120 136 157
116 132 152
122 138 159
118 135 156
120 137 158
117 133 153
118 134 156
120 136 158
118 133 154
122 138 160
120 136 157
121 137 159
118 134 155
118 135 156
119 135 156
120 137 158
119 135 156
123 140 161
118 134 156
116 132 153
119 135 156
119 135 156
119 135 156
117 133 154
121 138 159
121 137 158
118 134 155
117 133 154
119 135 156
118 134 155
120 136 157
121 137 159
120 136 157
119 135 156
119 135 156
120 136 158
121 138 159
120 136 157
120 136 157
120 136 157
121 137 159
120 136 157
118 134 155
119 135 156
117 133 154
118 134 155
121 137 159
122 138 160
119 135 156
119 135 156
119 135 157
118 134 155
119 135 155
118 134 155
120 135 156
119 135 156
121 138 159
117 132 153
118 134 155
115 131 151
117 133 154
120 136 157
117 133 153
119 135 156
118 134 155
119 136 157
119 135 156
120 136 158
118 134 155
118 134 155
118 134 155
117 133 153
119 136 157
120 136 158
117 133 153
122 138 160
120 136 156
119 135 156
122 138 160
120 136 157
119 135 156
117 133 154
120 137 158
120 136 158
116 132 153
120 137 158
117 133 154
118 134 154
118 134 154
121 137 159
117 133 155
122 139 160
118 134 155
118 135 156
118 134 155
119 135 156
119 136 157
118 134 155
118 134 155
119 135 156
116 132 153
121 138 160
119 135 157
119 135 156
119 136 157
118 134 155
117 134 155
119 136 157
117 133 154
118 134 155
121 137 158
119 135 157
120 136 157
120 137 158
119 135 156
121 138 159
120 137 158
120 137 158
121 137 158
119 135 156
120 136 158
121 137 159
120 137 158
120 137 158
118 134 154
119 135 157
122 138 160
118 135 156
120 136 158
115 130 150
121 137 158
120 136 158
120 136 158
119 135 156
120 137 158
118 134 155
121 138 159
120 136 157
117 133 153
120 136 157
118 134 155
121 138 159
118 134 156
120 136 157
116 132 153
121 137 158
120 137 158
119 135 156
119 135 156
120 136 158
117 132 153
118 134 154
120 137 158
119 136 158
122 138 160
118 134 155
120 137 158
117 133 154
119 135 156
118 135 156
120 136 158
117 133 154
119 135 157
118 134 154
122 139 161
120 136 157
116 132 153
121 138 159
119 135 156
119 135 156
119 135 157
118 135 156
120 136 157
121 137 158
123 140 162
119 134 155
121 138 159
121 138 159
120 136 157
120 136 158
121 137 158
119 135 156
119 135 157
119 135 156
120 136 157
120 137 158
121 138 159
117 134 155
118 134 154
120 137 158
119 135 157
116 132 153
120 137 158
118 133 154
119 136 157
118 134 155
118 133 154
119 135 156
119 135 157
118 134 155
116 132 152
117 133 154
118 134 155
120 136 157
120 137 158
120 136 157
118 134 154
122 138 160
119 136 157
118 134 155
120 136 157
119 135 156
121 137 158
120 136 158
119 135 156
118 135 156
119 135 156
120 137 158
119 135 157
120 136 157
120 137 159
119 135 155
120 136 158
121 138 159
120 136 157
120 137 158
118 135 156
120 136 157
118 134 154
118 134 154
119 135 156
118 134 155
120 136 158
120 136 157
117 133 154
117 132 153
120 136 157
117 133 154
116 132 153
121 137 159
119 135 156
119 135 156
115 131 150
117 133 154
120 136 158
118 134 155
120 136 157
117 133 153
119 135 156
118 134 155
119 135 156
119 135 157
118 133 154
119 135 157
119 135 156
120 136 157
116 132 152
118 135 156
121 137 159
121 137 158
118 134 155
120 136 157
117 134 155
118 134 154
121 137 158
118 134 156
120 136 157
119 135 156
121 137 158
118 134 155
121 137 158
119 134 155
118 134 154
117 133 154
118 134 154
119 135 156
119 135 157
116 133 154
120 136 157
120 136 157
118 134 155
120 136 158
120 136 158
119 135 155
120 137 158
120 136 158
118 135 156
119 136 158
119 135 156
119 135 156
117 133 154
118 134 155
117 133 153
119 135 156
119 136 157
120 137 158
122 138 159
117 133 154
119 135 156
119 135 156
118 134 156
118 134 155
119 135 157
120 136 157
119 135 156
118 133 154
119 136 157
118 134 154
120 136 157
117 133 154
115 131 152
120 136 157
120 136 158
116 132 152
118 134 155
117 133 154
118 134 155
120 136 157
120 136 157
119 135 155
119 136 157
120 137 158
121 137 158
120 136 157
120 136 158
120 137 158
120 136 158
118 134 155
119 135 156
119 135 156
117 134 155
118 134 155
119 135 156
119 135 156
119 135 156
119 135 156
117 133 153
118 134 156
119 136 157
120 137 158
120 137 158
120 136 157
118 133 154
120 137 158
116 132 153
115 131 151
118 134 155
120 136 157
118 135 156
119 135 156
122 139 161
118 134 154
119 135 157
119 135 156
121 137 159
121 138 159
118 134 155
120 136 158
121 138 159
120 136 158
120 136 158
121 136 157
122 139 160
120 136 157
120 136 157
118 134 155
118 134 155
118 135 156
119 135 155
117 133 154
117 133 154
118 134 155
120 136 158
119 135 157
118 134 155
119 135 157
117 133 154
119 135 156
117 133 154
120 136 157
122 139 160
120 136 158
121 137 158
118 134 155
118 133 154
114 130 150
119 135 157
122 138 159
118 134 154
117 133 154
119 135 156
119 135 156
117 133 154
118 134 155
118 134 155
121 137 159
121 137 159
117 133 153
121 138 159
119 135 156
120 137 158
120 136 157
119 135 156
119 135 156
116 132 152
120 137 158
120 136 157
119 136 157
119 135 156
118 134 155
118 135 156
116 131 152
121 137 159
120 136 157
118 134 155
118 134 155
121 138 159
119 135 156
119 136 157
120 136 158
117 133 154
121 137 158
121 137 158
122 139 161
117 133 154
116 132 153
120 137 158
118 134 155
119 136 157
121 138 159
119 135 156
120 136 157
119 136 157
121 137 159
116 132 152
120 137 158
122 139 160
118 135 156
119 135 156
118 134 155
121 138 160
117 133 154
119 135 156
117 132 153
121 138 159
120 136 158
117 134 155
118 134 155
118 134 155
118 134 155
119 135 157
119 135 156
118 135 156
115 131 151
119 135 156
119 135 156
121 138 159
117 133 153
119 135 157
119 135 156
120 136 157
119 135 156
119 135 156
121 138 159
118 134 156
119 135 156
119 135 156
121 137 159
118 134 155
120 136 157
118 134 155
119 135 156
116 132 153
119 135 157
119 135 156
121 137 159
117 133 153
118 134 155
116 132 152
117 133 154
119 136 157
122 138 160
118 134 155
118 135 156
119 134 155
120 137 158
121 138 160
120 136 157
119 136 157
120 136 158
119 136 157
118 133 153
118 134 155
118 134 155
119 136 157
121 137 158
117 133 154
121 137 158
117 133 154
118 134 156
120 137 158
119 135 156
118 135 156
117 132 153
120 137 158
117 133 154
118 135 155
121 137 159
119 136 157
119 135 156
119 135 156
119 135 157
117 134 155
117 134 155
120 136 157
119 135 156
117 133 153
117 133 153
119 135 156
118 134 155
120 136 158
119 136 157
121 137 159
116 132 152
119 136 157
120 136 157
119 135 156
118 134 154
116 132 153
119 135 156
118 134 155
120 136 158
120 137 158
119 135 157
118 133 154
118 134 155
118 134 154
119 135 156
118 134 155
118 134 155
120 136 157
120 136 157
122 138 160
117 133 154
119 136 157
118 134 155
119 135 156
119 135 156
119 136 157
119 135 156
119 135 156
118 134 155
118 134 156
118 134 155
120 136 157
117 134 155
120 137 158
118 134 155
118 134 155
121 138 159
115 130 151
122 139 160
120 136 157
119 134 155
117 132 153
119 134 155
120 136 158
117 133 153
120 136 157
119 135 156
120 136 157
121 138 159
120 136 157
119 135 156
117 134 155
118 134 154
121 137 158
117 133 153
119 135 156
120 136 157
120 136 157
117 132 153
119 135 156
121 138 159
117 133 154
118 134 155
119 136 157
116 132 153
117 133 153
121 137 158
118 134 155
121 137 158
120 136 157
117 133 153
119 135 156
119 135 156
118 134 154
121 137 159
119 135 156
119 136 157
120 137 159
118 134 155
120 137 159
117 133 154
118 134 155
121 137 159
119 135 156
120 137 158
117 133 154
120 136 157
120 137 158
119 136 157
121 137 158
122 138 159
118 134 155
117 133 154
123 139 161
121 138 159
120 136 157
122 139 161
119 135 156
119 135 156
118 134 154
119 135 156
117 133 154
115 131 152
120 137 158
120 137 159
119 136 157
121 138 160
119 135 156
120 136 157
121 137 159
120 137 158
120 136 157
117 133 154
120 136 158
119 135 156
119 135 156
123 139 161
119 135 156
119 135 156
119 135 157
117 133 154
120 136 157
120 136 157
117 133 154
121 137 159
118 133 154
122 139 160
118 134 155
120 136 157
118 134 155
117 133 154
120 137 158
119 135 155
120 136 157
121 137 158
119 135 156
119 135 156
120 136 158
116 132 152
120 136 157
118 134 154
120 136 157
120 136 157
117 133 153
119 135 157
119 135 156
121 137 159
118 134 155
119 135 156
120 136 158
119 135 156
122 138 160
120 136 158
119 135 156
118 134 155
118 134 155
119 135 156
118 134 155
119 135 157
119 135 156
117 133 154
118 135 156
116 132 152
123 139 160
122 138 159
119 135 156
120 136 157
118 134 155
119 135 156
120 136 157
120 137 158
121 137 159
119 135 156
118 134 155
117 132 153
122 139 160
118 134 155
122 138 159
121 137 159
119 135 156
121 137 159
118 134 156
121 137 159
119 135 155
121 138 160
120 136 157
118 135 156
120 136 157
120 136 157
117 133 153
118 134 155
118 134 155
122 138 159
115 130 150
117 133 153
115 131 151
120 136 157
119 135 156
117 133 154
119 134 155
119 135 157
117 133 153
118 134 156
122 138 160
115 130 151
121 138 159
120 136 158
119 135 156
119 135 156
121 138 159
119 135 156
119 135 156
117 133 154
119 135 156
119 135 157
118 134 156
118 133 154
118 133 154
120 137 158
119 135 156
117 133 154
118 133 154
120 137 158
120 136 157
118 134 155
118 134 155
115 131 152
117 133 154
119 135 157
117 133 154
117 133 154
119 135 156
117 133 153
115 131 151
120 136 157
118 134 155
119 135 156
120 136 157
116 131 152
116 132 153
119 134 155
119 136 157
120 137 158
118 133 153
120 136 157
117 133 154
119 135 156
120 136 158
119 136 157
120 136 157
118 134 155
118 134 155
119 135 156
118 134 154
117 132 153
120 136 157
120 136 157
117 133 154
117 133 154
120 136 157
117 132 152
121 137 159
114 130 150
119 136 157
120 136 157
119 135 157
118 134 155
117 132 153
120 136 156
121 137 159
120 136 157
120 136 157
118 134 155
119 136 157
120 136 158
121 137 159
119 135 156
118 134 154
119 134 155
120 137 158
117 133 154
121 137 159
121 137 159
118 134 155
120 136 157
119 135 156
119 134 155
118 134 155
120 137 158
119 135 155
118 134 155
120 136 158
120 136 158
120 136 157
119 135 156
119 134 155
121 137 158
121 137 158
119 136 157
120 136 157
120 137 158
119 136 157
121 138 159
119 135 156
119 134 155
121 138 160
120 137 158
118 134 155
122 139 160
118 134 155
119 136 157
120 136 157
118 134 155
120 137 158
118 134 155
118 134 155
121 138 160
120 137 158
117 133 154
120 136 157
121 137 159
119 136 157
119 135 156
119 135 156
118 133 154
120 136 156
120 136 158
118 134 155
118 134 154
118 134 155
119 135 157
119 135 156
117 133 154
119 135 156
119 135 156
119 135 156
118 134 155
118 134 156
121 137 159
120 136 158
118 135 156
119 135 157
119 135 156
118 134 156
117 133 154
118 134 156
122 138 160
122 139 161
119 135 156
118 134 155
122 139 161
118 134 155
121 137 158
119 135 156
120 136 157
120 136 157
119 135 156
121 137 158
119 135 156
122 138 160
119 135 157
122 139 161
120 136 157
115 131 151
118 135 156
121 138 159
117 133 154
121 138 159
119 135 156
121 137 159
121 138 160
118 134 155
119 135 157
119 136 157
120 136 157
118 134 155
120 137 158
120 136 157
120 137 159
118 135 156
118 134 156
120 137 158
120 136 158
122 138 160
118 134 154
118 135 156
119 135 155
117 132 153
122 138 159
118 134 154
119 135 157
119 135 156
119 135 156
119 135 156
117 133 153
117 133 154
116 131 152
120 136 157
116 132 153
120 137 158
119 135 157
120 137 158
118 134 155
117 133 153
119 135 156
117 133 153
120 136 157
119 135 156
119 136 157
121 137 158
119 135 157
119 136 157
122 138 159
121 138 159
118 135 156
116 132 153
119 135 156
120 136 157
120 137 158
118 134 155
120 136 157
122 138 160
118 134 155
117 133 153
121 137 158
120 136 157
118 134 155
118 134 155
119 135 156
119 135 156
115 131 152
118 134 154
119 135 156
120 137 158
118 134 156
120 136 158
119 135 157
120 136 157
118 134 155
119 135 157
120 136 158
119 134 155
119 136 157
119 135 156
119 135 156
121 137 159
120 136 157
118 134 155
120 136 157
119 135 156
120 137 158
116 132 152
119 135 156
118 135 156
120 137 158
121 137 159
121 137 158
121 137 158
120 136 157
118 134 155
121 137 158
119 136 157
118 134 155
121 138 160
120 136 157
119 135 156
120 137 158
122 138 159
119 135 156
121 137 158
121 137 158
116 132 153
119 135 156
121 138 159
122 139 161
119 135 156
120 137 158
121 137 158
119 136 157
119 135 156
119 136 157
120 137 158
120 137 158
123 140 162
119 136 157
120 136 157
119 135 156
119 136 157
119 135 156
117 133 154
119 135 156
119 135 156
121 137 158
121 137 158
121 137 158
119 135 157
116 132 152
121 137 158
120 136 157
119 135 156
117 132 153
119 136 158
117 133 153
119 135 156
117 132 153
119 136 157
120 136 158
116 132 153
120 136 157
117 133 154
118 134 155
121 138 159
122 138 160
118 134 155
123 140 161
119 135 157
119 135 156
119 135 156
118 135 156
118 134 155
120 137 158
120 136 157
116 132 153
118 134 155
117 133 154
119 135 157
119 135 156
118 134 155
120 136 157
118 134 155
120 137 159
118 134 155
121 137 158
117 133 154
117 132 153
119 135 156
118 135 156
119 135 156
121 137 158
119 135 157
119 135 156
118 134 154
118 134 155
120 137 158
121 137 159
118 134 155
118 134 155
118 134 156
117 133 154
118 134 154
120 136 158
117 133 154
119 135 156
121 137 158
118 134 155
119 135 156
122 138 160
119 135 156
120 136 158
117 133 154
121 137 159
119 136 157
121 137 158
122 138 160
120 137 159
121 137 159
121 138 159
117 133 154
117 132 153
121 138 159
119 135 157
121 137 159
121 137 158
120 136 158
116 132 153
119 136 157
120 137 158
118 134 155
119 135 155
120 136 158
120 136 157
118 134 155
119 135 156
120 136 158
119 135 156
120 135 156
120 136 158
121 137 159
120 136 158
117 133 154
119 135 156
117 133 154
122 138 160
120 136 158
120 136 157
120 136 157
119 135 156
118 134 154
118 134 156
120 136 157
122 139 161
118 134 155
121 138 159
119 136 157
119 135 157
116 132 152
121 137 158
120 135 156
119 136 157
118 134 155
119 135 156
119 135 157
120 136 157
119 135 156
119 135 156
118 134 155
122 138 160
120 136 158
117 134 154
119 136 157
118 134 156
122 138 160
119 135 156
117 133 153
121 137 158
119 135 156
119 134 155
122 139 161
122 138 159
119 135 156
120 137 158
119 136 157
119 135 156
117 134 155
120 137 158
117 133 153
118 135 156
118 134 155
119 135 156
120 136 157
118 133 154
120 137 158
119 135 155
118 134 155
119 134 155
117 133 154
120 136 157
116 132 153
118 134 155
117 133 154
118 134 155
119 136 157
117 134 155
119 135 157
121 137 158
120 136 157
119 135 156
121 137 158
117 133 154
117 133 155
120 136 157
118 133 154
121 137 158
118 133 154
120 136 157
117 133 154
119 135 156
121 137 158
120 136 157
118 134 155
119 136 157
120 136 158
120 136 157
118 135 156
120 136 157
118 135 156
118 134 155
120 136 158
120 136 157
119 135 156
121 137 158
117 133 154
119 135 157
118 135 157
121 137 158
120 136 157
118 134 154
117 133 154
120 136 158
119 136 158
120 136 157
117 134 155
120 136 157
121 137 159
118 134 155
122 138 159
119 135 156
119 135 156
122 138 159
117 132 152
117 133 153
119 135 156
119 135 157
115 131 150
120 136 157
119 135 156
119 135 156
119 135 156
120 136 158
120 136 157
119 135 156
119 135 156
123 140 161
118 134 156
114 130 150
119 135 156
119 134 155
119 135 157
118 134 155
119 135 157
121 138 159
122 138 159
119 134 155
117 133 154
117 133 154
119 135 156
117 133 154
117 133 154
118 134 155
119 135 156
119 136 157
119 135 156
119 135 157
118 134 155
118 134 155
119 135 157
118 134 155
119 135 156
119 135 156
120 137 158
119 135 157
120 137 158
119 136 157
117 133 154
121 138 160
121 137 158
118 134 155
119 135 156
119 135 156
118 134 155
121 137 159
118 134 155
117 133 153
119 135 156
118 134 155
119 135 156
119 136 157
118 134 154
120 136 157
119 136 157
121 138 159
122 138 159
117 133 153
117 133 154
120 136 157
119 135 156
118 135 156
117 133 154
122 138 160
119 135 156
120 136 157
119 135 157
120 136 158
118 135 156
119 135 156
119 135 157
120 136 158
119 135 156
